<?xml version="1.0" encoding="UTF-8"?>
<map version="1.10" tiledversion="1.12.1" orientation="orthogonal" renderorder="right-down" width="3" height="3" tilewidth="16" tileheight="16" infinite="0" nextlayerid="5" nextobjectid="1">
 <tileset firstgid="1" source="../tilesets/tilemap_packed.tsx"/>
 <layer id="2" name="input_02_paths" width="3" height="3">
  <data encoding="csv">
0,0,199,
0,0,0,
0,0,0
</data>
 </layer>
 <layer id="4" name="output_89_collision_tiles_test" width="3" height="3">
  <data encoding="csv">
0,0,0,
0,167,0,
192,0,0
</data>
 </layer>
</map>
