<?xml version="1.0" encoding="UTF-8"?>
<map version="1.10" tiledversion="1.12.1" orientation="orthogonal" renderorder="right-down" width="30" height="20" tilewidth="16" tileheight="16" infinite="0" nextlayerid="19" nextobjectid="3797">
 <tileset firstgid="1" source="../tilesets/pixel_crawler_walls.tsx"/>
 <tileset firstgid="2101" source="../tilesets/pixel_crawler_floors.tsx"/>
 <tileset firstgid="2751" source="../tilesets/pixel_crawler_trees.tsx"/>
 <tileset firstgid="2907" source="../tilesets/water.tsx"/>
 <tileset firstgid="3532" source="../tilesets/pixe_crawlers_doors.tsx"/>
 <tileset firstgid="4157" source="../tilesets/pixel_crawler_roofs.tsx"/>
 <tileset firstgid="4782" source="../tilesets/pixel_crawler_building_shadows.tsx"/>
 <tileset firstgid="5407" source="../tilesets/pixel_crawler_vegetation.tsx"/>
 <tileset firstgid="6082" source=":/automap-tiles.tsx"/>
 <tileset firstgid="6087" source="../tilesets/pixel_crawler_anvil_01.tsx"/>
 <tileset firstgid="6887" source="../tilesets/characters_16x24.tsx"/>
 <tileset firstgid="7207" source="../tilesets/characters_24x36.tsx"/>
 <tileset firstgid="7527" source="../tilesets/Floors_dark_grass-240x192.tsx"/>
 <tileset firstgid="7707" source="../tilesets/bones.tsx"/>
 <tileset firstgid="7716" source="../tilesets/altar.tsx"/>
 <layer id="2" name="01_ground" width="30" height="20">
  <data encoding="csv">
7585,7599,7586,7702,7702,7690,7689,7705,7702,7690,7689,7690,7567,7569,7571,7567,7571,7705,7538,7556,7567,7569,7569,7569,7569,7569,7569,7569,7569,7569,
7555,7556,7688,7706,7701,7706,7704,7690,7690,7690,7706,7704,7598,7599,7600,7582,7600,7705,7598,7586,7567,7569,7569,7569,7569,7569,7569,7569,7569,7569,
7599,7586,7702,7702,7689,7690,7706,7705,7701,7690,7703,7688,7704,7706,7702,7689,7702,7689,7703,7689,7567,7569,7569,7569,7569,7569,7569,7569,7569,7569,
7705,7703,7701,7701,7701,7689,7689,7702,7689,7690,7704,7538,7539,7556,7688,7704,7704,7701,7703,7552,7553,7569,7569,7569,7569,7569,7569,7569,7569,7569,
7706,7689,7688,7706,7701,7702,7690,7690,7706,7704,7688,7567,7585,7586,7689,7538,7556,7552,7539,7553,7569,7569,7569,7569,7569,7569,7569,7569,7569,7569,
7689,7701,7706,7702,7688,7552,7539,7556,7538,7539,7556,7567,7555,7556,7689,7582,7586,7567,7569,7569,7569,7569,7569,7569,7569,7569,7569,7569,7569,7569,
7702,7688,7705,7690,7552,7553,7569,7571,7567,7585,7586,7582,7599,7586,7690,7552,7539,7553,7569,7569,7569,7569,7569,7569,7569,7569,7569,7569,7569,7569,
7703,7701,7702,7689,7567,7569,7570,7555,7553,7555,7540,7690,7538,7556,7690,7598,7599,7583,7569,7569,7569,7569,7569,7569,7569,7569,7569,7569,7569,7569,
7688,7701,7690,7704,7598,7583,7554,7570,7569,7569,7571,7690,7598,7586,7690,7703,7688,7567,7569,7569,7569,7569,7569,7569,7569,7569,7569,7569,7569,7569,
7701,7705,7690,7706,7552,7553,7584,7568,7570,7585,7600,7701,7689,7690,7688,7705,7552,7553,7570,7568,7570,7569,7569,7569,7569,7569,7569,7569,7569,7569,
7706,7701,7705,7705,7567,7554,7568,7554,7584,7555,7540,7690,7702,7538,7539,7540,7598,7599,7583,7569,7554,7569,7569,7569,7569,7569,7569,7569,7569,7569,
7702,7688,7706,7702,7582,7583,7568,7584,7584,7585,7586,7704,7690,7567,7584,7571,7706,7702,7567,7570,7570,7569,7569,7569,7569,7569,7569,7569,7569,7569,
7701,7706,7703,7688,7703,7598,7599,7599,7599,7600,7690,7702,7704,7582,7599,7586,7703,7690,7598,7583,7570,7570,7569,7584,7569,7569,7569,7569,7569,7569,
7706,7690,7705,7690,7689,7701,7689,7704,7688,7702,7706,7704,7689,7689,7690,7690,7552,7539,7539,7553,7569,7569,7569,7554,7554,7570,7569,7569,7569,7569,
7705,7702,7701,7705,7704,7688,7706,7688,7703,7689,7704,7538,7556,7705,7689,7689,7567,7570,7585,7599,7583,7569,7569,7569,7569,7569,7569,7569,7569,7569,
7688,7688,7706,7704,7689,7705,7701,7688,7702,7705,7690,7598,7586,7706,7705,7701,7598,7599,7600,7689,7567,7569,7569,7569,7569,7569,7570,7569,7569,7569,
7702,7703,7538,7539,7539,7540,7703,7688,7688,7552,7539,7556,7704,7538,7540,7690,7705,7701,7701,7689,7567,7569,7569,7569,7569,7569,7568,7569,7569,7569,
7703,7689,7567,7585,7583,7571,7688,7689,7705,7567,7570,7571,7552,7553,7571,7704,7690,7702,7705,7703,7567,7569,7569,7569,7569,7569,7584,7568,7569,7569,
7704,7706,7598,7586,7567,7571,7688,7689,7706,7598,7599,7586,7582,7583,7571,7688,7705,7703,7704,7689,7567,7569,7569,7569,7569,7569,7569,7570,7568,7569,
7701,7701,7706,7704,7567,7571,7703,7704,7702,7704,7702,7690,7704,7598,7600,7704,7688,7706,7706,7688,7567,7569,7569,7569,7569,7569,7569,7569,7570,7569
</data>
 </layer>
 <layer id="3" name="02_paths" width="30" height="20">
  <data encoding="csv">
0,0,0,0,0,0,0,0,0,0,0,0,0,0,0,0,0,0,0,0,0,0,0,0,0,0,0,0,0,0,
0,0,0,0,0,0,0,0,0,0,0,0,0,0,0,0,0,0,0,0,0,0,0,0,0,0,0,0,0,0,
0,0,0,0,0,0,0,0,0,0,0,0,0,0,0,0,0,0,0,0,0,0,0,0,0,0,0,0,0,0,
0,0,0,0,0,0,0,0,0,0,0,0,0,0,0,0,0,0,0,0,0,0,0,0,0,0,0,0,0,0,
0,0,0,0,0,0,0,0,0,0,0,0,0,0,0,0,0,0,0,0,0,0,0,0,0,0,0,0,0,0,
0,0,0,0,0,0,0,0,0,0,0,0,0,0,0,0,0,0,0,0,0,0,0,0,0,0,0,0,0,0,
0,0,0,0,0,0,0,0,0,0,0,0,0,0,0,0,0,0,0,0,0,0,0,0,0,0,0,0,0,0,
0,0,0,0,0,0,0,0,0,0,0,0,0,0,0,0,0,0,0,0,0,0,0,0,0,0,0,0,0,0,
0,0,0,0,0,0,0,0,0,0,0,0,0,0,0,0,0,0,0,0,0,0,0,0,0,0,0,0,0,0,
0,0,0,0,0,0,0,0,0,0,0,0,0,0,0,0,0,0,0,0,0,0,0,0,2309,2333,2333,2333,2333,2333,
0,0,0,0,0,0,0,0,0,0,0,0,0,0,0,0,0,0,0,0,0,2309,2307,2309,2334,2256,2260,2357,2359,2359,
0,0,0,0,0,0,0,0,0,0,0,0,0,0,0,0,0,0,0,0,0,2259,2257,2259,2233,2257,2259,2233,2234,2358,
0,0,0,0,0,0,0,0,0,0,0,0,0,0,0,0,0,0,0,0,0,0,0,0,0,0,0,0,2259,2233,
0,0,0,0,0,0,0,0,0,0,0,0,0,0,0,0,0,0,0,0,0,0,0,0,0,0,0,0,0,0,
0,0,0,0,0,0,0,0,0,0,0,0,0,0,0,0,0,0,0,0,0,0,0,0,0,0,0,0,0,0,
0,0,0,0,0,0,0,0,0,0,0,0,0,0,0,0,0,0,0,0,0,0,0,0,0,0,0,0,0,0,
0,0,0,0,0,0,0,0,0,0,0,0,0,0,0,0,0,0,0,0,0,0,0,0,0,0,0,0,0,0,
0,0,0,0,0,0,0,0,0,0,0,0,0,0,0,0,0,0,0,0,0,0,0,0,0,0,0,0,0,0,
0,0,0,0,0,0,0,0,0,0,0,0,0,0,0,0,0,0,0,0,0,0,0,0,0,0,0,0,0,0,
0,0,0,0,0,0,0,0,0,0,0,0,0,0,0,0,0,0,0,0,0,0,0,0,0,0,0,0,0,0
</data>
 </layer>
 <layer id="2" name="03_decor_low" width="30" height="20">
  <data encoding="csv">
0,0,0,0,0,0,0,0,0,0,0,0,0,0,0,0,0,0,0,0,0,0,0,0,0,0,0,0,0,0,
0,0,0,0,0,0,0,0,0,0,0,0,0,0,0,0,0,0,0,0,0,0,0,0,0,0,0,0,0,0,
0,0,0,0,0,0,0,0,0,0,0,0,0,0,0,0,0,0,0,0,0,0,0,0,0,0,0,0,0,0,
0,0,0,0,0,0,0,0,0,0,0,0,0,0,0,0,0,0,0,0,0,0,0,0,0,0,0,0,0,0,
0,0,0,0,0,0,0,0,0,0,0,0,0,0,0,0,0,0,0,0,0,0,7709,0,0,0,0,0,0,0,
0,0,0,0,0,0,0,0,0,0,0,0,0,0,0,0,0,0,0,0,0,0,0,0,0,0,0,0,0,0,
0,0,0,0,0,0,0,0,0,0,0,0,0,0,0,0,0,0,0,0,0,0,0,7708,0,0,0,0,0,0,
0,0,0,0,0,7716,7717,7718,7719,7720,0,0,0,0,0,0,0,0,0,0,0,0,0,0,0,0,0,0,0,0,
0,0,0,0,0,7721,7722,7723,7724,7725,0,0,0,0,0,0,0,0,7709,0,0,0,0,0,0,0,0,0,0,0,
0,0,0,0,0,7726,7727,7728,7729,7730,0,0,0,0,0,0,0,0,0,0,0,7708,0,0,0,0,0,0,0,0,
0,0,0,0,0,7731,7732,7733,7734,7735,0,0,0,0,0,0,0,0,0,0,0,0,0,0,0,0,0,0,0,0,
0,0,0,0,0,7736,7737,7738,7739,7740,0,0,0,0,0,0,0,0,0,0,0,0,0,0,0,0,0,0,0,0,
0,0,0,0,0,0,0,0,0,0,0,0,0,0,0,0,0,0,0,0,7709,0,0,0,0,0,0,0,0,0,
0,0,0,0,0,0,0,0,0,0,0,0,0,0,0,0,0,0,0,0,0,7707,0,0,0,0,0,0,0,0,
0,0,0,0,0,0,0,0,0,0,0,0,0,0,0,0,0,0,0,0,0,0,0,0,0,0,0,0,0,0,
0,0,0,0,0,0,0,0,0,0,0,0,0,0,0,0,0,0,0,0,0,0,7707,0,0,0,0,0,0,0,
0,0,0,0,0,0,0,0,0,0,0,0,0,0,0,0,0,0,0,0,0,0,7709,0,7708,0,0,0,0,0,
0,0,0,0,0,0,0,0,0,0,0,0,0,0,0,0,0,0,0,0,0,0,0,0,0,0,0,0,0,0,
0,0,0,0,0,0,0,0,0,0,0,0,0,0,0,0,0,0,0,0,0,7707,0,0,7707,0,0,0,0,0,
0,0,0,0,0,0,0,0,0,0,0,0,0,0,0,0,0,0,0,0,0,0,0,0,0,0,0,0,0,0
</data>
 </layer>
 <layer id="3" name="04_decor_high" width="30" height="20">
  <data encoding="csv">
0,0,0,0,0,0,0,0,0,0,0,0,0,0,0,0,0,0,0,0,2809,2810,2811,0,0,0,0,0,0,0,
0,0,0,0,0,0,0,0,0,2809,2810,2811,0,0,0,0,0,0,0,0,0,2823,0,0,0,0,0,0,0,0,
0,0,0,0,0,0,0,0,0,0,2823,0,0,0,0,2809,2810,2811,0,0,0,0,0,0,0,2811,0,0,0,0,
0,0,0,0,0,0,0,0,0,0,0,0,0,0,0,0,2823,0,0,0,0,0,0,0,0,0,0,0,0,0,
0,0,0,0,0,2809,2810,2811,0,0,0,0,0,0,0,0,0,0,0,0,0,0,0,0,0,0,0,0,0,0,
0,0,0,0,0,0,2823,0,0,0,0,0,0,0,0,0,0,0,0,0,0,0,0,0,0,2881,2882,2883,0,0,
0,2809,2810,2811,0,0,0,0,0,0,0,0,0,0,0,0,0,0,0,0,0,0,0,0,0,0,2895,0,0,0,
0,0,2823,0,0,0,0,0,0,0,0,0,0,0,0,0,0,0,0,2809,2810,2811,0,0,0,0,0,0,0,0,
0,0,0,0,0,0,0,0,0,0,0,0,0,0,0,0,0,0,0,0,2823,0,0,0,0,0,0,0,0,0,
0,0,0,0,0,0,0,0,0,0,0,0,0,0,0,0,0,0,0,0,0,0,0,0,0,0,0,0,0,0,
0,0,0,0,0,0,0,0,0,0,0,0,0,0,0,0,0,0,0,0,0,0,0,0,0,0,0,0,0,0,
0,0,0,0,0,0,0,0,0,0,0,0,0,0,0,0,0,0,0,0,0,0,0,0,0,0,0,0,0,0,
0,0,0,0,0,0,0,0,0,0,0,0,0,0,0,0,0,0,0,0,0,0,2881,2882,2883,0,0,0,0,0,
0,0,0,0,0,0,0,0,0,0,0,0,0,0,0,0,0,0,0,0,0,0,0,2895,0,0,0,0,0,0,
0,0,0,0,0,0,0,0,0,0,0,0,0,0,0,0,0,0,0,0,0,0,0,0,0,0,0,2881,2882,2883,
2809,2810,2811,0,0,0,0,0,0,0,0,0,0,0,0,2809,2810,2811,0,0,0,0,0,0,0,0,0,0,2895,0,
0,2823,0,0,0,0,0,0,0,0,0,0,0,0,0,0,2823,0,0,0,0,0,0,0,0,0,0,0,0,0,
0,0,0,0,0,0,2809,2810,2811,0,0,0,0,0,0,0,0,0,0,0,0,0,0,0,0,0,0,0,0,0,
0,0,0,0,0,0,0,2823,0,0,0,0,0,0,0,0,0,0,0,0,0,0,0,0,0,0,0,0,0,0,
0,0,0,0,0,0,0,0,0,0,0,0,0,0,0,0,0,0,0,0,0,0,0,0,0,0,0,0,0,0
</data>
 </layer>
 <layer id="13" name="04b_doors" width="30" height="20">
  <data encoding="csv">
0,0,0,0,0,0,0,0,0,0,0,0,0,0,0,0,0,0,0,0,0,0,0,0,0,0,0,0,0,0,
0,0,0,0,0,0,0,0,0,0,0,0,0,0,0,0,0,0,0,0,0,0,0,0,0,0,0,0,0,0,
0,0,0,0,0,0,0,0,0,0,0,0,0,0,0,0,0,0,0,0,0,0,0,0,0,0,0,0,0,0,
0,0,0,0,0,0,0,0,0,0,0,0,0,0,0,0,0,0,0,0,0,0,0,0,0,0,0,0,0,0,
0,0,0,0,0,0,0,0,0,0,0,0,0,0,0,0,0,0,0,0,0,0,0,0,0,0,0,0,0,0,
0,0,0,0,0,0,0,0,0,0,0,0,0,0,0,0,0,0,0,0,0,0,0,0,0,0,0,0,0,0,
0,0,0,0,0,0,0,0,0,0,0,0,0,0,0,0,0,0,0,0,0,0,0,0,0,0,0,0,0,0,
0,0,0,0,0,0,0,0,0,0,0,0,0,0,0,0,0,0,0,0,0,0,0,0,0,0,0,0,0,0,
0,0,0,0,0,0,0,0,0,0,0,0,0,0,0,0,0,0,0,0,0,0,0,0,0,0,0,0,0,0,
0,0,0,0,0,0,0,0,0,0,0,0,0,0,0,0,0,0,0,0,0,0,0,0,0,0,0,0,0,0,
0,0,0,0,0,0,0,0,0,0,0,0,0,0,0,0,0,0,0,0,0,0,0,0,0,0,0,0,0,0,
0,0,0,0,0,0,0,0,0,0,0,0,0,0,0,0,0,0,0,0,0,0,0,0,0,0,0,0,0,0,
0,0,0,0,0,0,0,0,0,0,0,0,0,0,0,0,0,0,0,0,0,0,0,0,0,0,0,0,0,0,
0,0,0,0,0,0,0,0,0,0,0,0,0,0,0,0,0,0,0,0,0,0,0,0,0,0,0,0,0,0,
0,0,0,0,0,0,0,0,0,0,0,0,0,0,0,0,0,0,0,0,0,0,0,0,0,0,0,0,0,0,
0,0,0,0,0,0,0,0,0,0,0,0,0,0,0,0,0,0,0,0,0,0,0,0,0,0,0,0,0,0,
0,0,0,0,0,0,0,0,0,0,0,0,0,0,0,0,0,0,0,0,0,0,0,0,0,0,0,0,0,0,
0,0,0,0,0,0,0,0,0,0,0,0,0,0,0,0,0,0,0,0,0,0,0,0,0,0,0,0,0,0,
0,0,0,0,0,0,0,0,0,0,0,0,0,0,0,0,0,0,0,0,0,0,0,0,0,0,0,0,0,0,
0,0,0,0,0,0,0,0,0,0,0,0,0,0,0,0,0,0,0,0,0,0,0,0,0,0,0,0,0,0
</data>
 </layer>
 <layer id="15" name="05b_shadows" width="30" height="20">
  <data encoding="csv">
0,0,0,0,0,0,0,0,0,0,0,0,0,0,0,0,0,0,0,0,0,0,0,0,0,0,0,0,0,0,
0,0,0,0,0,0,0,0,0,0,0,0,0,0,0,0,0,0,0,0,0,0,0,0,0,0,0,0,0,0,
0,0,0,0,0,0,0,0,0,0,0,0,0,0,0,0,0,0,0,0,0,0,0,0,0,0,0,0,0,0,
0,0,0,0,0,0,0,0,0,0,0,0,0,0,0,0,0,0,0,0,0,0,0,0,0,0,0,0,0,0,
0,0,0,0,0,0,0,0,0,0,0,0,0,0,0,0,0,0,0,0,0,0,0,0,0,0,0,0,0,0,
0,0,0,0,0,0,0,0,0,0,0,0,0,0,0,0,0,0,0,0,0,0,0,0,0,0,0,0,0,0,
0,0,0,0,0,0,0,0,0,0,0,0,0,0,0,0,0,0,0,0,0,0,0,0,0,0,0,0,0,0,
0,0,0,0,0,0,0,0,0,0,0,0,0,0,0,0,0,0,0,0,0,0,0,0,0,0,0,0,0,0,
0,0,0,0,0,0,0,0,0,0,0,0,0,0,0,0,0,0,0,0,0,0,0,0,0,0,0,0,0,0,
0,0,0,0,0,0,0,0,0,0,0,0,0,0,0,0,0,0,0,0,0,0,0,0,0,0,0,0,0,0,
0,0,0,0,0,0,0,0,0,0,0,0,0,0,0,0,0,0,0,0,0,0,0,0,0,0,0,0,0,0,
0,0,0,0,0,0,0,0,0,0,0,0,0,0,0,0,0,0,0,0,0,0,0,0,0,0,0,0,0,0,
0,0,0,0,0,0,0,0,0,0,0,0,0,0,0,0,0,0,0,0,0,0,0,0,0,0,0,0,0,0,
0,0,0,0,0,0,0,0,0,0,0,0,0,0,0,0,0,0,0,0,0,0,0,0,0,0,0,0,0,0,
0,0,0,0,0,0,0,0,0,0,0,0,0,0,0,0,0,0,0,0,0,0,0,0,0,0,0,0,0,0,
0,0,0,0,0,0,0,0,0,0,0,0,0,0,0,0,0,0,0,0,0,0,0,0,0,0,0,0,0,0,
0,0,0,0,0,0,0,0,0,0,0,0,0,0,0,0,0,0,0,0,0,0,0,0,0,0,0,0,0,0,
0,0,0,0,0,0,0,0,0,0,0,0,0,0,0,0,0,0,0,0,0,0,0,0,0,0,0,0,0,0,
0,0,0,0,0,0,0,0,0,0,0,0,0,0,0,0,0,0,0,0,0,0,0,0,0,0,0,0,0,0,
0,0,0,0,0,0,0,0,0,0,0,0,0,0,0,0,0,0,0,0,0,0,0,0,0,0,0,0,0,0
</data>
 </layer>
 <layer id="5" name="05_above_player" width="30" height="20">
  <data encoding="csv">
0,0,0,0,0,2757,2758,2759,0,2796,2797,2798,0,0,0,2783,2784,2785,0,0,0,0,0,0,0,0,0,0,0,0,
0,0,0,0,0,2770,2771,2772,0,0,0,0,0,0,0,2796,2797,2798,0,0,0,0,0,0,0,2829,2830,2831,0,0,
0,2757,2758,2759,0,2783,2784,2785,0,0,0,0,0,0,0,0,0,0,0,0,0,0,0,0,0,2842,2843,2844,0,0,
0,2770,2771,2772,0,2796,2797,2798,0,0,0,0,0,0,0,0,0,0,0,2757,2758,2759,0,0,0,2855,2856,2857,0,0,
0,2783,2784,2785,0,0,0,0,0,0,0,0,0,0,0,0,0,0,0,2770,2771,2772,0,0,0,2868,2869,2870,0,0,
0,2796,2797,2798,0,0,0,0,0,0,0,0,0,0,0,0,0,0,0,2783,2784,2785,0,0,0,0,0,0,0,0,
0,0,0,0,0,0,0,0,0,0,0,0,0,0,0,0,0,0,0,2796,2797,2798,0,0,0,0,0,0,0,0,
0,0,0,0,0,0,0,0,0,0,0,0,0,0,0,0,0,0,0,0,0,0,0,0,0,0,0,0,0,0,
0,0,0,0,0,0,0,0,0,0,0,0,0,0,0,0,0,0,0,0,0,0,2829,2830,2831,0,0,0,0,0,
0,0,0,0,0,0,0,0,0,0,0,0,0,0,0,0,0,0,0,0,0,0,2842,2843,2844,0,0,0,0,0,
0,0,0,0,0,0,0,0,0,0,0,0,0,0,0,0,0,0,0,0,0,0,2855,2856,2857,0,0,2829,2830,2831,
2757,2758,2759,0,0,0,0,0,0,0,0,0,0,0,0,2757,2758,2759,0,0,0,0,2868,2869,2870,0,0,2842,2843,2844,
2770,2771,2772,0,0,0,0,0,0,0,0,0,0,0,0,2770,2771,2772,0,0,0,0,0,0,0,0,0,2855,2856,2857,
2783,2784,2785,0,0,0,2757,2758,2759,0,0,0,0,0,0,2783,2784,2785,0,0,0,0,0,0,0,0,0,2868,2869,2870,
2796,2797,2798,0,0,0,2770,2771,2772,0,0,0,0,0,0,2796,2797,2798,0,0,0,0,0,0,0,0,0,0,0,0,
0,0,0,0,0,0,2783,2784,2785,0,0,0,0,0,0,0,0,0,0,0,0,0,0,0,0,0,0,0,0,0,
0,0,0,0,0,0,2796,2797,2798,0,0,0,0,0,0,0,0,0,0,0,0,0,0,0,0,0,0,0,0,0,
0,0,0,0,0,0,0,0,0,0,0,0,0,0,0,0,0,0,0,0,0,0,0,0,0,0,0,0,0,0,
0,0,0,0,0,0,0,0,0,0,0,0,0,0,0,0,0,0,0,0,0,0,0,0,0,0,0,0,0,0,
0,0,0,0,0,0,0,0,0,0,0,0,0,0,0,0,0,0,0,0,0,0,0,0,0,0,0,0,0,0
</data>
 </layer>
 <layer id="17" name="05c_above_player" width="30" height="20">
  <data encoding="csv">
0,0,0,0,0,0,0,0,0,0,0,0,0,0,0,0,0,0,0,0,0,0,0,0,0,0,0,0,0,0,
0,0,0,0,0,0,0,0,0,0,0,0,0,0,0,0,0,0,0,0,0,0,0,0,0,0,0,0,0,0,
0,0,0,0,0,0,0,0,0,0,0,0,0,0,0,0,0,0,0,0,0,0,0,0,0,0,0,0,0,0,
0,0,0,0,0,0,0,0,0,0,0,0,0,0,0,0,0,0,0,0,0,0,0,0,0,0,0,0,0,0,
0,0,0,0,0,0,0,0,0,0,0,0,0,0,0,0,0,0,0,0,0,0,0,0,0,0,0,0,0,0,
0,0,0,0,0,0,0,0,0,0,0,0,0,0,0,0,0,0,0,0,0,0,0,0,0,0,0,0,0,0,
0,0,0,0,0,0,0,0,0,0,0,0,0,0,0,0,0,0,0,0,0,0,0,0,0,0,0,0,0,0,
0,0,0,0,0,0,0,0,0,0,0,0,0,0,0,0,0,0,0,0,0,0,0,0,0,0,0,0,0,0,
0,0,0,0,0,0,0,0,0,0,0,0,0,0,0,0,0,0,0,0,0,0,0,0,0,0,0,0,0,0,
0,0,0,0,0,0,0,0,0,0,0,0,0,0,0,0,0,0,0,0,0,0,0,0,0,0,0,0,0,0,
0,0,0,0,0,0,0,0,0,0,0,0,0,0,0,0,0,0,0,0,0,0,0,0,0,0,0,0,0,0,
0,0,0,0,0,0,0,0,0,0,0,0,0,0,0,0,0,0,0,0,0,0,0,0,0,0,0,0,0,0,
0,0,0,0,0,0,0,0,0,0,0,0,0,0,0,0,0,0,0,0,0,0,0,0,0,0,0,0,0,0,
0,0,0,0,0,0,0,0,0,0,0,0,0,0,0,0,0,0,0,0,0,0,0,0,0,0,0,0,0,0,
0,0,0,0,0,0,0,0,0,0,0,0,0,0,0,0,0,0,0,0,0,0,0,0,0,0,0,0,0,0,
0,0,0,0,0,0,0,0,0,0,0,0,0,0,0,0,0,0,0,0,0,0,0,0,0,0,0,0,0,0,
0,0,0,0,0,0,0,0,0,0,0,0,0,0,0,0,0,0,0,0,0,0,0,0,0,0,0,0,0,0,
0,0,0,0,0,0,0,0,0,0,0,0,0,0,0,0,0,0,0,0,0,0,0,0,0,0,0,0,0,0,
0,0,0,0,0,0,0,0,0,0,0,0,0,0,0,0,0,0,0,0,0,0,0,0,0,0,0,0,0,0,
0,0,0,0,0,0,0,0,0,0,0,0,0,0,0,0,0,0,0,0,0,0,0,0,0,0,0,0,0,0
</data>
 </layer>
 <layer id="18" name="89_rule_anchor" width="30" height="20">
  <data encoding="csv">
0,0,0,0,0,0,0,0,0,0,0,0,0,0,0,0,0,0,0,0,0,0,0,0,0,0,0,0,0,0,
0,0,0,0,0,0,0,0,0,0,0,0,0,0,0,0,0,0,0,0,0,0,0,0,0,0,0,0,0,0,
0,0,0,0,0,0,0,0,0,0,0,0,0,0,0,0,0,0,0,0,0,0,0,0,0,0,0,0,0,0,
0,0,0,0,0,0,0,0,0,0,0,0,0,0,0,0,0,0,0,0,0,0,0,0,0,0,0,0,0,0,
0,0,0,0,0,0,0,0,0,0,0,0,0,0,0,0,0,0,0,0,0,0,0,0,0,0,0,0,0,0,
0,0,0,0,0,0,0,0,0,0,0,0,0,0,0,0,0,0,0,0,0,0,0,0,0,0,0,0,0,0,
0,0,0,0,0,0,0,0,0,0,0,0,0,0,0,0,0,0,0,0,0,0,0,0,0,0,0,0,0,0,
0,0,0,0,0,0,0,0,0,0,0,0,0,0,0,0,0,0,0,0,0,0,0,0,0,0,0,0,0,0,
0,0,0,0,0,0,0,0,0,0,0,0,0,0,0,0,0,0,0,0,0,0,0,0,0,0,0,0,0,0,
0,0,0,0,0,0,0,0,0,0,0,0,0,0,0,0,0,0,0,0,0,0,0,0,0,0,0,0,0,0,
0,0,0,0,0,0,0,0,0,0,0,0,0,0,0,0,0,0,0,0,0,0,0,0,0,0,0,0,0,0,
0,0,0,0,0,0,0,0,0,0,0,0,0,0,0,0,0,0,0,0,0,0,0,0,0,0,0,0,0,0,
0,0,0,0,0,0,0,0,0,0,0,0,0,0,0,0,0,0,0,0,0,0,0,0,0,0,0,0,0,0,
0,0,0,0,0,0,0,0,0,0,0,0,0,0,0,0,0,0,0,0,0,0,0,0,0,0,0,0,0,0,
0,0,0,0,0,0,0,0,0,0,0,0,0,0,0,0,0,0,0,0,0,0,0,0,0,0,0,0,0,0,
0,0,0,0,0,0,0,0,0,0,0,0,0,0,0,0,0,0,0,0,0,0,0,0,0,0,0,0,0,0,
0,0,0,0,0,0,0,0,0,0,0,0,0,0,0,0,0,0,0,0,0,0,0,0,0,0,0,0,0,0,
0,0,0,0,0,0,0,0,0,0,0,0,0,0,0,0,0,0,0,0,0,0,0,0,0,0,0,0,0,0,
0,0,0,0,0,0,0,0,0,0,0,0,0,0,0,0,0,0,0,0,0,0,0,0,0,0,0,0,0,0,
0,0,0,0,0,0,0,0,0,0,0,0,0,0,0,0,0,0,0,0,0,0,0,0,0,0,0,0,0,0
</data>
 </layer>
 <objectgroup id="4" name="90_collisions">
  <object id="3773" name="coll_tree" type="collision" x="336" y="16" width="16" height="16">
   <properties>
    <property name="solid" type="bool" value="true"/>
   </properties>
  </object>
  <object id="3774" name="coll_tree" type="collision" x="256" y="48" width="16" height="16">
   <properties>
    <property name="solid" type="bool" value="true"/>
   </properties>
  </object>
  <object id="3775" name="coll_tree" type="collision" x="160" y="32" width="16" height="16">
   <properties>
    <property name="solid" type="bool" value="true"/>
   </properties>
  </object>
  <object id="3776" name="coll_tree" type="collision" x="96" y="80" width="16" height="16">
   <properties>
    <property name="solid" type="bool" value="true"/>
   </properties>
  </object>
  <object id="3777" name="coll_tree" type="collision" x="256" y="256" width="16" height="16">
   <properties>
    <property name="solid" type="bool" value="true"/>
   </properties>
  </object>
  <object id="3778" name="coll_tree" type="collision" x="112" y="288" width="16" height="16">
   <properties>
    <property name="solid" type="bool" value="true"/>
   </properties>
  </object>
  <object id="3779" name="coll_tree" type="collision" x="16" y="256" width="16" height="16">
   <properties>
    <property name="solid" type="bool" value="true"/>
   </properties>
  </object>
  <object id="3780" name="coll_tree" type="collision" x="32" y="112" width="16" height="16">
   <properties>
    <property name="solid" type="bool" value="true"/>
   </properties>
  </object>
  <object id="3781" name="coll_tree" type="collision" x="320" y="128" width="16" height="16">
   <properties>
    <property name="solid" type="bool" value="true"/>
   </properties>
  </object>
  <object id="3783" name="coll_tree" type="collision" x="416" y="96" width="16" height="16">
   <properties>
    <property name="solid" type="bool" value="true"/>
   </properties>
  </object>
  <object id="3784" name="coll_tree" type="collision" x="448" y="240" width="16" height="16">
   <properties>
    <property name="solid" type="bool" value="true"/>
   </properties>
  </object>
  <object id="3785" name="coll_tree" type="collision" x="368" y="208" width="16" height="16">
   <properties>
    <property name="solid" type="bool" value="true"/>
   </properties>
  </object>
  <object id="3787" name="coll_tree" type="collision" x="96" y="80" width="16" height="16">
   <properties>
    <property name="solid" type="bool" value="true"/>
   </properties>
  </object>
  <object id="3794" name="coll_rem_stone" type="collision" x="112.25" y="139.5" width="16" height="16">
   <properties>
    <property name="solid" type="bool" value="true"/>
   </properties>
  </object>
  <object id="3795" name="coll_altar" type="collision" x="105" y="188">
   <properties>
    <property name="solid" type="bool" value="true"/>
   </properties>
   <polygon points="0,0 2.75,-16 -9,-28 -9,-44 -8.75,-53.5 2.25,-64.25 28,-64.25 39.5,-53 39,-28 27.5,-14.75 32,-0.5 53.25,-19.75 53,-56.5 33.75,-75.5 -2.25,-75.5 -22.25,-56.25 -22.75,-19 -3.75,0"/>
  </object>
 </objectgroup>
 <objectgroup id="6" name="91_npcs"/>
 <objectgroup id="7" name="92_objects"/>
 <objectgroup id="9" name="93_triggers">
  <object id="3788" name="trigger_enter_town_01" type="trigger" x="464" y="144" width="16" height="64">
   <properties>
    <property name="enabled" type="bool" value="true"/>
    <property name="once" type="bool" value="false"/>
    <property name="prompt" value="E - Enter town"/>
    <property name="requires_interact" type="bool" value="true"/>
    <property name="target_map" value="town_01"/>
    <property name="target_spawn_id" value="spawn_from_altar"/>
    <property name="target_state" value="zone_select"/>
    <property name="trigger_id" value="enter_town_01"/>
    <property name="trigger_type" value="state_transition"/>
   </properties>
  </object>
 </objectgroup>
 <objectgroup id="10" name="94_spawns">
  <object id="3789" name="Spawn_from_town" type="spawn" x="464" y="176">
   <properties>
    <property name="enabled" type="bool" value="true"/>
    <property name="facing" value="left"/>
    <property name="map_id" value="altar_01"/>
    <property name="spawn_id" value="spawn_from_town"/>
    <property name="spawn_type" value="player"/>
   </properties>
   <point/>
  </object>
  <object id="3796" name="First_spawn" type="spawn" x="120.5" y="163.75">
   <properties>
    <property name="enabled" type="bool" value="true"/>
    <property name="facing" value="south"/>
    <property name="map_id" value="altar_01"/>
    <property name="spawn_id" value="first_spawn"/>
    <property name="spawn_type" value="player"/>
   </properties>
   <point/>
  </object>
 </objectgroup>
 <objectgroup id="11" name="95_npc_paths"/>
</map>
