<?xml version="1.0" encoding="UTF-8"?>
<map version="1.10" tiledversion="1.12.1" orientation="orthogonal" renderorder="right-down" width="60" height="40" tilewidth="16" tileheight="16" infinite="0" nextlayerid="19" nextobjectid="3948">
 <tileset firstgid="1" source="../tilesets/pixel_crawler_walls.tsx"/>
 <tileset firstgid="2101" source="../tilesets/pixel_crawler_floors.tsx"/>
 <tileset firstgid="2751" source="../tilesets/pixel_crawler_trees.tsx"/>
 <tileset firstgid="2907" source="../tilesets/water.tsx"/>
 <tileset firstgid="3532" source="../tilesets/pixe_crawlers_doors.tsx"/>
 <tileset firstgid="4157" source="../tilesets/pixel_crawler_roofs.tsx"/>
 <tileset firstgid="4782" source="../tilesets/pixel_crawler_building_shadows.tsx"/>
 <tileset firstgid="5407" source="../tilesets/pixel_crawler_vegetation.tsx"/>
 <tileset firstgid="6082" source=":/automap-tiles.tsx"/>
 <tileset firstgid="6087" source="../tilesets/pixel_crawler_anvil_01.tsx"/>
 <tileset firstgid="6887" source="../tilesets/characters_16x24.tsx"/>
 <tileset firstgid="7207" source="../tilesets/characters_24x36.tsx"/>
 <layer id="2" name="01_ground" width="60" height="40">
  <data encoding="csv">
2354,2353,2353,2352,2352,2352,2354,2354,2354,2354,2354,2354,2354,2354,2354,2354,2354,2352,2352,2352,2352,2352,2352,2352,2354,2354,2354,2352,2354,2352,2353,2353,2354,2353,2354,2354,2354,2352,2352,2354,2353,2354,2354,2352,2353,2354,2353,2353,2352,2352,2352,2354,2354,2354,2352,2354,2352,2353,2353,2354,
2353,2353,2352,2352,2352,2354,2353,2353,2353,2353,2353,2353,2353,2353,2353,2353,2353,2354,2354,2354,2352,2352,2352,2352,2352,2354,2354,2354,2352,2354,2352,2353,2353,2354,2353,2354,2352,2353,2353,2352,2354,2353,2353,2354,2353,2354,2354,2352,2352,2352,2352,2354,2354,2354,2352,2354,2352,2353,2353,2354,
2354,2354,2352,2354,2354,2353,2353,2353,2353,2353,2353,2353,2353,2353,2353,2353,2353,2353,2353,2353,2354,2354,2354,2352,2352,2352,2352,2354,2354,2354,2352,2354,2352,2353,2353,2354,2353,2354,2352,2354,2353,2352,2354,2353,2354,2352,2352,2352,2352,2352,2352,2354,2354,2354,2352,2354,2352,2353,2353,2354,
2353,2353,2352,2353,2353,2353,2354,2354,2354,2354,2354,2354,2354,2354,2354,2354,2354,2353,2353,2353,2353,2353,2353,2352,2352,2352,2352,2352,2354,2354,2354,2352,2354,2352,2353,2353,2354,2353,2354,2352,2354,2352,2354,2354,2353,2352,2352,2352,2354,2352,2354,2354,2354,2352,2354,2352,2353,2353,2354,2353,
2354,2352,2354,2353,2353,2354,2353,2353,2353,2353,2353,2353,2353,2353,2353,2353,2353,2354,2354,2354,2353,2353,2353,2354,2354,2352,2352,2352,2352,2354,2354,2354,2352,2354,2352,2353,2353,2354,2353,2354,2354,2353,2352,2352,2354,2354,2352,2354,2353,2352,2354,2354,2354,2352,2354,2352,2353,2353,2354,2353,
2354,2352,2353,2354,2354,2353,2352,2352,2352,2352,2352,2352,2352,2352,2352,2352,2352,2353,2353,2353,2354,2354,2354,2353,2353,2354,2352,2352,2352,2352,2354,2354,2354,2352,2354,2352,2353,2353,2354,2353,2354,2352,2352,2352,2352,2352,2354,2353,2352,2354,2354,2354,2352,2354,2352,2353,2353,2354,2353,2354,
2352,2352,2353,2353,2353,2352,2352,2354,2354,2352,2354,2352,2353,2353,2352,2354,2352,2352,2352,2352,2353,2353,2353,2353,2353,2353,2354,2354,2352,2352,2352,2354,2354,2354,2352,2354,2352,2353,2353,2354,2353,2354,2352,2352,2352,2352,2353,2352,2354,2354,2354,2352,2354,2352,2353,2353,2354,2353,2354,2354,
2354,2354,2354,2352,2352,2354,2354,2352,2354,2352,2353,2353,2352,2354,2352,2353,2353,2353,2352,2352,2352,2352,2352,2354,2354,2353,2353,2353,2352,2352,2352,2352,2354,2354,2354,2352,2354,2352,2353,2353,2354,2353,2354,2352,2352,2352,2353,2352,2354,2354,2354,2352,2354,2352,2353,2353,2354,2353,2354,2353,
2354,2353,2353,2352,2354,2354,2352,2354,2352,2353,2353,2352,2354,2352,2353,2353,2352,2352,2352,2352,2353,2353,2352,2353,2353,2354,2353,2353,2354,2354,2352,2352,2352,2354,2354,2354,2352,2354,2352,2353,2353,2354,2353,2354,2352,2354,2352,2354,2354,2354,2352,2354,2352,2353,2353,2354,2353,2354,2353,2354,
2352,2353,2352,2352,2354,2354,2352,2354,2352,2353,2353,2352,2354,2352,2353,2352,2352,2352,2352,2353,2353,2353,2352,2352,2352,2353,2354,2354,2353,2353,2354,2352,2352,2352,2354,2354,2354,2352,2354,2352,2353,2353,2354,2353,2354,2352,2354,2354,2354,2352,2354,2352,2353,2353,2354,2353,2354,2354,2354,2354,
2352,2354,2352,2354,2354,2352,2354,2352,2353,2353,2352,2354,2352,2353,2352,2352,2352,2352,2353,2354,2352,2353,2353,2352,2354,2352,2353,2353,2353,2353,2353,2354,2352,2352,2352,2354,2354,2354,2352,2354,2352,2353,2353,2354,2353,2354,2354,2354,2352,2354,2352,2353,2353,2354,2353,2354,2354,2353,2354,2353,
2352,2353,2352,2354,2354,2352,2354,2352,2353,2353,2352,2354,2352,2353,2352,2352,2353,2353,2354,2352,2354,2352,2353,2353,2352,2354,2352,2352,2354,2354,2353,2353,2354,2352,2352,2352,2354,2354,2354,2352,2354,2352,2353,2353,2354,2353,2354,2354,2352,2354,2352,2353,2353,2354,2353,2354,2353,2354,2353,2352,
2354,2352,2352,2354,2354,2352,2354,2352,2353,2353,2352,2354,2352,2353,2352,2353,2352,2354,2354,2352,2354,2352,2353,2353,2352,2354,2352,2353,2353,2353,2354,2353,2353,2352,2352,2352,2354,2354,2354,2352,2354,2352,2353,2353,2354,2353,2354,2352,2354,2352,2353,2353,2354,2353,2354,2353,2354,2354,2352,2352,
2353,2352,2354,2354,2352,2354,2352,2353,2353,2352,2354,2352,2353,2353,2353,2353,2354,2352,2354,2354,2352,2354,2352,2353,2353,2352,2354,2352,2352,2352,2353,2354,2353,2354,2352,2352,2352,2354,2354,2354,2352,2354,2352,2353,2353,2354,2353,2354,2352,2353,2353,2354,2353,2354,2354,2354,2354,2353,2352,2352,
2353,2352,2354,2354,2352,2354,2352,2353,2353,2352,2354,2352,2353,2353,2354,2353,2354,2352,2354,2354,2352,2354,2352,2353,2353,2352,2354,2352,2353,2353,2352,2353,2354,2353,2354,2352,2352,2354,2354,2354,2352,2354,2352,2353,2353,2354,2353,2354,2353,2353,2354,2353,2354,2354,2353,2354,2353,2352,2352,2353,
2354,2352,2354,2354,2352,2354,2352,2353,2353,2352,2354,2352,2353,2354,2353,2354,2354,2354,2352,2354,2354,2352,2354,2352,2353,2353,2352,2354,2352,2353,2352,2352,2353,2353,2353,2352,2352,2354,2354,2354,2352,2354,2352,2353,2353,2354,2353,2354,2353,2354,2353,2354,2354,2353,2354,2353,2352,2352,2353,2354,
2353,2352,2354,2354,2352,2354,2352,2353,2353,2352,2354,2352,2353,2354,2353,2354,2353,2354,2352,2354,2354,2352,2354,2352,2353,2353,2352,2354,2352,2353,2353,2352,2352,2354,2353,2354,2352,2353,2353,2352,2354,2354,2353,2352,2353,2352,2354,2353,2354,2353,2354,2354,2353,2354,2354,2352,2352,2352,2354,2353,
2352,2352,2354,2354,2352,2354,2352,2353,2353,2352,2354,2352,2353,2354,2353,2354,2354,2353,2352,2352,2354,2354,2352,2354,2352,2353,2353,2352,2354,2352,2353,2352,2352,2353,2354,2353,2352,2353,2353,2353,2353,2352,2354,2354,2352,2354,2353,2354,2353,2354,2354,2353,2354,2354,2353,2352,2352,2353,2353,2354,
2352,2354,2354,2352,2354,2352,2353,2353,2352,2354,2352,2353,2353,2354,2353,2354,2354,2352,2352,2352,2354,2354,2352,2354,2352,2353,2353,2352,2354,2352,2353,2353,2352,2352,2353,2353,2354,2354,2353,2354,2354,2354,2354,2352,2354,2353,2353,2354,2353,2354,2353,2354,2354,2353,2352,2352,2353,2354,2354,2354,
2352,2354,2354,2352,2354,2352,2353,2353,2352,2354,2352,2353,2353,2354,2353,2354,2353,2352,2353,2353,2352,2354,2354,2352,2354,2352,2353,2353,2352,2354,2352,2353,2352,2352,2352,2354,2353,2352,2354,2354,2353,2354,2353,2353,2353,2354,2353,2353,2354,2353,2352,2354,2354,2354,2352,2354,2352,2353,2353,2354,
2352,2354,2354,2352,2354,2352,2353,2353,2352,2354,2352,2353,2353,2354,2353,2354,2352,2352,2353,2354,2353,2352,2354,2354,2352,2354,2352,2353,2353,2352,2354,2352,2353,2352,2352,2353,2353,2353,2354,2354,2352,2354,2353,2354,2354,2353,2353,2352,2354,2354,2352,2354,2352,2353,2353,2354,2353,2354,2354,2354,
2354,2354,2352,2354,2352,2353,2353,2352,2354,2352,2353,2353,2353,2354,2353,2354,2352,2353,2354,2352,2352,2352,2354,2354,2352,2354,2352,2353,2353,2352,2354,2352,2353,2353,2352,2352,2354,2352,2353,2354,2352,2354,2352,2353,2354,2354,2353,2352,2352,2354,2352,2353,2353,2354,2353,2354,2354,2354,2353,2353,
2354,2352,2354,2352,2353,2353,2352,2354,2352,2353,2352,2353,2353,2354,2353,2354,2352,2352,2352,2352,2352,2352,2352,2354,2354,2352,2354,2352,2353,2353,2352,2354,2352,2353,2352,2352,2353,2352,2354,2353,2352,2352,2354,2352,2353,2353,2352,2352,2352,2353,2353,2354,2353,2354,2354,2353,2353,2353,2354,2354,
2354,2352,2353,2354,2352,2352,2354,2354,2354,2352,2354,2352,2353,2353,2354,2353,2352,2352,2352,2352,2352,2354,2354,2352,2354,2354,2352,2354,2352,2353,2353,2352,2354,2352,2353,2352,2352,2354,2354,2352,2354,2352,2353,2353,2352,2354,2352,2353,2353,2354,2353,2354,2354,2353,2353,2354,2354,2354,2354,2354,
2354,2352,2353,2353,2352,2352,2354,2354,2354,2352,2354,2352,2353,2353,2354,2352,2352,2352,2352,2354,2354,2353,2353,2352,2354,2354,2352,2354,2352,2353,2353,2352,2354,2352,2353,2353,2352,2352,2352,2353,2354,2354,2353,2354,2354,2353,2353,2354,2353,2354,2354,2354,2353,2354,2354,2354,2354,2354,2353,2353,
2352,2352,2354,2353,2352,2352,2352,2354,2354,2354,2352,2354,2352,2352,2352,2352,2352,2354,2354,2353,2353,2353,2353,2353,2352,2354,2354,2352,2354,2352,2353,2353,2352,2354,2352,2353,2353,2352,2352,2352,2353,2354,2354,2353,2353,2354,2354,2353,2354,2354,2353,2353,2354,2354,2354,2353,2353,2353,2352,2352,
2353,2353,2354,2354,2354,2352,2352,2352,2354,2354,2354,2352,2352,2352,2352,2352,2354,2353,2353,2353,2353,2354,2354,2354,2353,2352,2354,2354,2352,2354,2352,2353,2353,2352,2354,2352,2353,2353,2352,2352,2352,2353,2354,2354,2354,2353,2354,2354,2354,2353,2354,2354,2354,2353,2353,2352,2352,2352,2352,2352,
2352,2353,2353,2353,2353,2352,2352,2352,2352,2352,2352,2352,2352,2352,2352,2354,2353,2353,2353,2354,2354,2353,2353,2353,2352,2352,2352,2354,2354,2352,2354,2352,2353,2353,2352,2354,2352,2353,2353,2352,2352,2352,2353,2354,2354,2354,2353,2353,2354,2354,2354,2354,2353,2352,2352,2352,2352,2352,2352,2352,
2352,2354,2354,2353,2353,2354,2354,2352,2352,2352,2352,2352,2352,2354,2354,2353,2353,2354,2354,2353,2353,2352,2352,2352,2354,2354,2352,2352,2354,2354,2352,2354,2352,2353,2353,2352,2354,2352,2353,2353,2352,2352,2352,2353,2353,2354,2354,2354,2353,2353,2354,2354,2352,2352,2352,2352,2352,2352,2353,2353,
2354,2354,2353,2352,2354,2353,2353,2352,2352,2352,2352,2354,2354,2353,2353,2353,2354,2353,2353,2352,2352,2352,2354,2354,2352,2354,2352,2352,2352,2354,2354,2352,2354,2352,2353,2353,2352,2354,2352,2353,2353,2352,2352,2352,2352,2353,2354,2354,2354,2354,2353,2353,2354,2354,2352,2353,2353,2353,2354,2352,
2354,2353,2352,2352,2353,2353,2353,2354,2354,2354,2354,2353,2353,2353,2353,2354,2353,2352,2352,2352,2354,2354,2352,2354,2352,2353,2352,2354,2354,2352,2354,2354,2352,2354,2352,2353,2353,2352,2354,2352,2353,2353,2352,2352,2352,2352,2353,2353,2354,2354,2354,2354,2353,2353,2354,2354,2354,2352,2354,2352,
2354,2354,2354,2352,2354,2352,2353,2353,2354,2353,2354,2354,2354,2354,2354,2354,2354,2354,2354,2354,2352,2354,2352,2354,2354,2354,2352,2354,2352,2353,2352,2354,2354,2352,2354,2352,2353,2353,2352,2354,2352,2353,2353,2352,2352,2352,2352,2352,2353,2353,2354,2354,2354,2354,2353,2353,2354,2354,2352,2354,
2354,2354,2354,2352,2354,2352,2353,2353,2354,2353,2354,2353,2353,2353,2353,2353,2353,2353,2354,2354,2354,2354,2354,2354,2354,2354,2354,2354,2354,2354,2354,2354,2352,2354,2354,2352,2354,2352,2353,2353,2352,2354,2352,2353,2353,2352,2352,2352,2352,2352,2353,2353,2354,2354,2354,2354,2353,2353,2354,2354,
2352,2354,2354,2354,2352,2354,2352,2353,2353,2354,2353,2354,2354,2354,2354,2354,2354,2354,2353,2353,2353,2353,2353,2353,2353,2353,2353,2353,2353,2353,2353,2353,2353,2352,2354,2354,2352,2354,2352,2353,2353,2352,2354,2352,2353,2353,2352,2352,2352,2352,2352,2352,2353,2353,2354,2354,2354,2354,2353,2353,
2352,2352,2352,2352,2354,2354,2354,2352,2354,2352,2353,2353,2354,2353,2354,2354,2354,2354,2354,2354,2354,2354,2354,2354,2354,2354,2354,2354,2354,2354,2352,2352,2352,2352,2352,2352,2354,2354,2352,2354,2352,2353,2353,2352,2354,2352,2353,2353,2352,2352,2352,2352,2352,2352,2353,2353,2354,2354,2354,2354,
2352,2352,2352,2352,2352,2352,2352,2352,2352,2354,2354,2354,2352,2354,2352,2353,2353,2354,2353,2354,2354,2354,2354,2354,2354,2354,2352,2352,2352,2352,2352,2352,2352,2352,2352,2352,2352,2352,2354,2354,2352,2354,2352,2353,2353,2352,2354,2352,2353,2353,2352,2352,2352,2352,2352,2352,2353,2353,2354,2354,
2352,2352,2352,2352,2352,2352,2352,2352,2352,2352,2352,2352,2352,2352,2352,2352,2352,2352,2352,2352,2352,2352,2352,2352,2352,2352,2352,2352,2352,2352,2352,2352,2352,2354,2354,2354,2354,2353,2352,2354,2354,2352,2354,2352,2353,2353,2352,2354,2352,2353,2353,2353,2352,2352,2352,2352,2352,2352,2353,2353,
2354,2354,2354,2352,2352,2352,2352,2352,2352,2352,2352,2352,2352,2352,2352,2352,2352,2352,2352,2352,2352,2352,2352,2352,2352,2352,2352,2352,2352,2352,2354,2354,2354,2353,2353,2353,2353,2353,2353,2353,2352,2354,2354,2352,2354,2352,2353,2353,2352,2354,2352,2353,2353,2353,2352,2352,2352,2352,2352,2352,
2353,2353,2353,2354,2354,2354,2354,2354,2352,2352,2352,2352,2352,2352,2352,2352,2352,2352,2352,2352,2352,2352,2352,2352,2352,2352,2354,2354,2354,2354,2353,2353,2353,2353,2353,2353,2353,2354,2354,2354,2354,2354,2352,2354,2354,2352,2354,2352,2353,2353,2352,2354,2352,2353,2353,2353,2352,2352,2352,2352,
2353,2353,2353,2353,2353,2353,2353,2353,2354,2354,2354,2354,2354,2354,2354,2354,2354,2354,2354,2354,2354,2354,2354,2354,2354,2354,2353,2353,2353,2353,2353,2353,2353,2354,2354,2354,2354,2353,2353,2353,2353,2353,2353,2352,2352,2354,2354,2352,2354,2352,2353,2353,2352,2354,2352,2353,2353,2353,2352,2352
</data>
 </layer>
 <layer id="3" name="02_paths" width="60" height="40">
  <data encoding="csv">
0,0,0,0,0,0,0,0,0,0,0,0,0,0,0,0,0,0,0,0,0,0,0,0,0,0,0,0,0,0,0,0,0,0,0,0,0,0,0,0,0,0,0,0,0,0,0,0,0,0,0,0,0,0,0,0,0,0,0,0,
0,0,0,0,0,0,0,0,0,0,0,0,0,0,0,0,0,0,0,0,0,0,0,0,0,0,0,0,0,0,0,0,0,0,0,0,0,0,0,0,0,0,0,0,0,0,0,0,0,0,0,0,0,0,0,0,0,0,0,0,
0,0,0,0,0,0,0,0,0,0,0,0,0,0,0,0,0,0,0,0,0,0,0,0,0,0,0,0,0,0,0,0,0,0,0,0,0,0,0,0,0,0,0,0,0,0,0,0,0,0,0,0,0,0,0,0,0,0,0,0,
0,0,0,0,0,0,0,0,0,0,0,0,0,0,0,0,0,0,0,0,0,0,0,0,0,0,0,0,0,0,0,0,0,0,0,0,0,0,0,0,0,0,0,0,0,0,0,2309,2333,2307,0,0,0,0,0,0,0,0,0,0,
0,0,0,0,0,0,0,0,0,0,0,0,0,0,0,0,0,0,0,0,0,0,0,0,0,0,0,0,0,0,0,0,0,0,0,0,0,0,0,0,0,0,0,0,0,2309,2333,2334,2357,2281,0,0,0,0,0,0,0,0,0,0,
0,0,0,0,0,0,0,0,0,0,0,0,0,0,0,0,0,0,0,0,0,0,0,0,0,0,0,0,0,0,0,0,0,0,0,0,0,0,0,0,0,0,0,0,2309,2334,2358,2358,2358,2281,0,0,0,0,0,0,0,0,0,0,
0,0,0,0,0,0,0,0,0,0,0,0,2309,2333,2307,0,0,0,0,0,0,0,0,0,0,0,0,0,0,0,0,0,0,0,0,0,0,0,0,0,0,0,2309,2333,2310,2359,2357,2232,2233,2257,0,0,0,0,0,0,0,0,0,0,
0,0,0,0,0,0,0,0,0,0,0,0,2285,2357,2281,0,0,0,0,0,0,0,0,0,0,0,0,0,0,0,0,0,0,0,0,0,0,0,0,0,0,0,2285,2357,2357,2359,2232,2257,0,0,0,0,0,0,0,0,0,0,0,0,
0,0,0,0,0,0,0,0,0,0,0,0,2285,2359,2281,0,0,0,0,0,0,0,0,0,0,0,0,0,0,0,2309,2333,2307,0,0,0,0,0,0,0,0,0,2285,2359,2232,2233,2257,0,0,0,0,0,0,0,0,0,0,0,0,0,
0,0,0,0,0,0,0,0,0,0,0,0,2285,2357,2281,0,0,0,0,0,0,0,0,0,0,0,0,0,0,0,2285,2359,2332,2307,0,0,0,0,0,0,0,2309,2334,2357,2281,0,0,0,0,0,0,0,0,0,0,0,0,0,0,0,
0,0,0,0,0,0,0,0,0,0,0,0,2285,2357,2306,2307,0,0,0,0,0,0,0,0,0,0,0,0,0,0,2285,2359,2359,2281,0,0,0,0,0,0,0,2285,2358,2357,2281,0,0,0,0,0,0,0,0,0,0,0,0,0,0,0,
0,0,0,0,0,0,0,0,0,0,0,0,2285,2358,2359,2281,0,0,0,0,0,0,0,0,0,0,0,0,0,0,2259,2260,2357,2306,2307,0,0,0,0,0,0,2285,2359,2232,2257,0,0,0,0,0,0,0,0,0,0,0,0,0,0,0,
0,0,0,0,0,0,0,0,0,0,0,0,2259,2260,2358,2332,2307,0,0,0,0,0,0,0,0,0,0,0,0,0,0,2285,2358,2357,2281,0,0,0,0,0,0,2285,2359,2281,0,0,0,0,0,0,0,0,0,0,0,0,0,0,0,0,
0,0,0,0,0,0,0,0,0,0,0,0,0,2285,2358,2357,2332,2307,0,0,0,0,0,0,0,0,0,0,0,0,0,2259,2260,2358,2332,2307,0,0,0,0,0,2285,2358,2281,0,0,0,0,0,0,0,0,0,0,0,0,0,0,0,0,
0,0,0,0,0,0,0,0,0,0,0,0,0,2259,2234,2359,2358,2306,2333,2333,2333,2307,0,0,0,0,0,0,0,0,0,0,2285,2357,2358,2332,2333,2307,0,0,2309,2310,2358,2281,0,0,0,0,0,0,0,0,0,0,0,0,0,0,0,0,
0,0,0,0,0,0,0,0,0,0,0,0,0,0,2259,2260,2357,2357,2357,2358,2359,2306,2307,0,0,0,0,0,0,0,0,0,2259,2260,2359,2357,2357,2332,2333,2333,2334,2359,2358,2281,0,0,0,0,0,0,0,0,0,0,0,0,0,0,0,0,
0,0,0,0,0,0,0,0,0,0,0,0,0,0,0,2259,2233,2233,2233,2234,2359,2359,2306,2307,0,0,0,0,0,0,0,0,0,2259,2233,2260,2357,2358,2358,2359,2358,2359,2357,2281,0,0,0,0,0,0,0,0,0,0,0,0,0,0,0,0,
0,0,0,0,0,0,0,0,0,0,0,0,0,0,0,0,0,0,0,2259,2234,2359,2359,2281,0,0,0,0,0,0,0,0,0,0,0,2259,2233,2233,2233,2233,2233,2234,2358,2281,0,0,0,0,0,0,0,0,0,0,2309,2333,2333,2333,2333,2333,
0,0,0,0,0,0,0,0,0,0,0,0,0,0,0,0,0,0,0,0,2259,2234,2357,2281,0,0,0,0,0,0,0,0,0,0,0,0,0,0,0,0,2309,2310,2359,2281,0,0,0,0,0,0,0,0,0,2309,2310,2359,2357,2357,2358,2358,
0,0,0,0,0,0,0,0,0,0,0,0,0,0,0,0,0,0,0,0,0,2285,2359,2281,0,0,0,0,0,0,0,0,0,0,0,0,0,0,0,0,2285,2359,2357,2306,2333,2333,2333,2333,2307,0,0,0,2309,2334,2359,2357,2256,2233,2233,2233,
0,0,0,0,0,0,0,0,0,0,0,0,0,0,0,0,0,0,0,0,0,2285,2357,2281,0,0,0,0,0,0,0,0,0,0,0,0,0,0,0,0,2285,2357,2358,2358,2358,2357,2359,2359,2332,2333,2333,2333,2310,2357,2232,2233,2257,0,0,0,
0,0,0,0,0,0,0,0,0,0,0,0,0,0,0,0,0,0,0,0,0,2285,2359,2281,0,0,0,0,0,0,0,0,0,0,0,0,0,0,0,0,2285,2357,2358,2232,2233,2233,2260,2359,2359,2359,2359,2359,2359,2357,2281,0,0,0,0,0,
0,0,0,0,0,0,0,0,0,0,0,0,0,0,0,0,0,0,0,0,0,2285,2358,2281,0,0,0,0,0,0,0,0,0,0,0,0,0,0,0,0,2285,2358,2256,2257,0,0,2259,2233,2260,2358,2359,2357,2256,2233,2257,0,0,0,0,0,
0,0,0,0,0,0,0,0,0,0,0,0,0,0,0,0,0,0,0,0,2309,2310,2359,2281,0,0,0,0,0,0,0,0,0,0,0,0,0,0,0,0,2285,2358,2281,0,0,0,0,0,2259,2233,2233,2233,2257,0,0,0,0,0,0,0,
0,0,0,0,0,0,0,0,0,0,0,0,0,0,0,0,0,0,0,2309,2334,2359,2359,2281,0,0,0,0,0,0,0,0,0,0,0,0,0,0,0,0,2285,2357,2281,0,0,0,0,0,0,0,0,0,0,0,0,0,0,0,0,0,
0,0,0,0,0,0,0,0,0,0,0,0,0,0,2309,2333,2333,2333,2333,2334,2357,2359,2358,2306,2333,2307,0,0,0,0,0,0,0,0,0,0,0,0,0,2309,2334,2357,2281,0,0,0,0,0,0,0,0,0,0,0,0,0,0,0,0,0,
0,0,0,0,0,0,0,0,0,0,0,2309,2333,2333,2334,2357,2358,2359,2359,2359,2357,2357,2357,2358,2358,2306,2307,0,0,0,0,0,0,0,0,0,0,2309,2333,2310,2359,2256,2257,0,0,0,0,0,0,0,0,0,0,0,0,0,0,0,0,0,
0,0,0,0,0,0,0,0,0,0,2309,2334,2357,2358,2358,2358,2256,2233,2233,2233,2233,2233,2233,2234,2359,2357,2306,2333,2307,0,2309,2333,2333,2333,2333,2333,2333,2334,2357,2357,2358,2281,0,0,0,0,0,0,0,0,0,0,0,0,0,0,0,0,0,0,
0,0,0,0,0,0,0,0,0,2309,2310,2358,2359,2232,2233,2233,2257,0,0,0,0,0,0,2259,2260,2358,2359,2359,2332,2333,2310,2358,2358,2357,2357,2359,2359,2358,2357,2256,2233,2257,0,0,0,0,0,0,0,0,0,0,0,0,0,0,0,0,0,0,
0,0,0,0,0,0,0,0,0,2285,2359,2357,2256,2257,0,0,0,0,0,0,0,0,0,0,2259,2233,2260,2357,2357,2357,2359,2357,2232,2233,2233,2233,2233,2233,2233,2257,0,0,0,0,0,0,0,0,0,0,0,0,0,0,0,0,0,0,0,0,
0,0,0,0,0,0,0,0,0,2285,2358,2232,2257,0,0,0,0,0,0,0,0,0,0,0,0,0,2259,2233,2233,2260,2359,2256,2257,0,0,0,0,0,0,0,0,0,0,0,0,0,0,0,0,0,0,0,0,0,0,0,0,0,0,0,
0,0,0,0,0,0,0,0,0,2285,2359,2281,0,0,0,0,0,0,0,0,0,0,0,0,0,0,0,0,0,2285,2358,2281,0,0,0,0,0,0,0,0,0,0,0,0,0,0,0,0,0,0,0,0,0,0,0,0,0,0,0,0,
0,0,0,0,0,0,0,0,0,2285,2357,2281,0,0,0,0,0,0,0,0,0,0,0,0,0,0,0,0,0,2285,2359,2281,0,0,0,0,0,0,0,0,0,0,0,0,0,0,0,0,0,0,0,0,0,0,0,0,0,0,0,0,
0,0,0,0,0,0,0,0,0,2259,2233,2257,0,0,0,0,0,0,0,0,0,0,0,0,0,0,0,0,0,2285,2357,2281,0,0,0,0,0,0,0,0,0,0,0,0,0,0,0,0,0,0,0,0,0,0,0,0,0,0,0,0,
0,0,0,0,0,0,0,0,0,0,0,0,0,0,0,0,0,0,0,0,0,0,0,0,0,0,0,0,0,2285,2358,2281,0,0,0,0,0,0,0,0,0,0,0,0,0,0,0,0,0,0,0,0,0,0,0,0,0,0,0,0,
0,0,0,0,0,0,0,0,0,0,0,0,0,0,0,0,0,0,0,0,0,0,0,0,0,0,0,0,0,2285,2358,2281,0,0,0,0,0,0,0,0,0,0,0,0,0,0,0,0,0,0,0,0,0,0,0,0,0,0,0,0,
0,0,0,0,0,0,0,0,0,0,0,0,0,0,0,0,0,0,0,0,0,0,0,0,0,0,0,0,0,2285,2358,2281,0,0,0,0,0,0,0,0,0,0,0,0,0,0,0,0,0,0,0,0,0,0,0,0,0,0,0,0,
0,0,0,0,0,0,0,0,0,0,0,0,0,0,0,0,0,0,0,0,0,0,0,0,0,0,0,0,0,2285,2357,2306,2307,0,0,0,0,0,0,0,0,0,0,0,0,0,0,0,0,0,0,0,0,0,0,0,0,0,0,0,
0,0,0,0,0,0,0,0,0,0,0,0,0,0,0,0,0,0,0,0,0,0,0,0,0,0,0,0,0,2285,2359,2358,2281,0,0,0,0,0,0,0,0,0,0,0,0,0,0,0,0,0,0,0,0,0,0,0,0,0,0,0,
0,0,0,0,0,0,0,0,0,0,0,0,0,0,0,0,0,0,0,0,0,0,0,0,0,0,0,0,0,2259,2260,2359,2281,0,0,0,0,0,0,0,0,0,0,0,0,0,0,0,0,0,0,0,0,0,0,0,0,0,0,0
</data>
 </layer>
 <layer id="2" name="03_decor_low" width="60" height="40">
  <data encoding="csv">
0,0,0,0,0,0,0,0,0,0,0,0,0,0,0,0,0,0,0,0,0,0,0,0,0,0,0,0,0,0,0,0,0,0,0,0,0,0,0,0,0,0,0,0,0,0,0,0,0,0,0,0,0,0,0,0,0,0,0,0,
0,0,0,0,0,0,0,0,0,0,0,0,0,0,0,0,0,0,0,0,0,0,0,0,0,0,0,0,0,0,0,0,0,0,0,0,0,0,0,0,0,0,0,0,0,0,0,0,0,0,0,0,0,0,0,0,0,0,0,0,
0,0,0,0,0,0,0,0,0,0,0,0,0,0,0,0,0,0,0,0,0,0,0,0,0,0,0,0,0,0,0,0,0,0,0,0,0,0,0,0,0,0,0,0,0,0,0,0,0,0,0,0,0,0,0,0,0,0,0,0,
0,0,0,0,0,0,0,0,0,0,0,0,0,0,0,0,0,0,0,0,0,0,0,0,0,0,0,0,0,0,0,0,0,0,0,0,0,0,0,0,0,0,0,0,0,0,0,0,0,0,0,0,0,0,0,0,0,0,0,0,
0,0,0,0,0,0,0,0,0,0,0,5935,0,0,0,0,0,0,0,0,0,0,0,0,0,0,0,0,0,0,0,0,0,0,0,0,0,0,0,0,0,0,0,0,0,0,0,0,0,0,0,0,0,0,0,0,0,0,0,0,
0,0,0,0,0,0,0,0,0,0,0,0,0,0,0,0,0,0,0,0,0,0,0,0,0,0,0,0,0,0,0,0,0,0,0,0,0,0,0,0,0,0,0,0,0,0,0,0,0,0,0,0,0,0,0,0,0,0,0,0,
0,0,0,0,0,0,0,0,0,0,0,0,0,0,0,0,0,0,0,0,0,0,0,0,0,0,0,0,0,0,0,0,0,0,0,0,0,0,0,0,0,0,0,0,0,0,0,0,0,0,0,0,0,0,0,0,0,0,0,0,
0,0,0,0,0,0,0,0,0,0,0,0,0,0,0,0,0,0,0,0,0,0,0,0,0,0,0,0,0,0,0,0,0,6062,0,0,0,0,0,0,0,6062,0,0,0,0,0,0,0,0,0,0,0,0,0,0,0,0,0,0,
0,0,0,0,0,0,0,0,0,6062,0,0,0,0,0,0,0,0,0,0,0,0,0,0,0,0,0,0,0,0,0,0,0,0,0,0,0,0,0,0,0,0,0,0,0,0,0,0,0,0,0,0,0,0,0,0,0,0,0,0,
0,0,0,0,0,0,0,0,0,0,0,0,0,0,0,0,0,0,0,0,0,0,0,0,0,0,0,0,0,0,0,0,0,0,0,0,0,0,0,0,0,0,0,0,0,0,0,0,0,0,0,0,0,0,0,0,0,0,0,0,
0,0,0,0,0,0,0,0,6062,0,0,0,0,0,0,0,0,0,0,0,0,0,0,6062,0,0,0,0,0,0,0,0,0,0,0,0,0,0,0,0,0,0,0,0,0,0,0,0,0,0,0,0,0,0,0,0,0,0,0,0,
0,0,0,0,0,0,0,0,0,0,0,0,0,0,0,0,0,0,0,0,0,0,0,0,0,0,0,0,0,0,0,0,0,0,0,0,0,0,0,0,0,0,0,0,0,0,0,0,0,0,0,0,0,0,0,0,0,0,0,0,
0,0,0,0,0,0,0,0,0,0,0,0,0,0,0,0,0,0,0,0,0,0,0,0,0,0,0,0,0,0,0,0,0,0,0,0,0,0,0,0,0,0,0,0,0,0,0,0,0,0,0,0,0,0,0,0,0,0,0,0,
0,0,0,0,0,0,0,0,0,0,0,0,0,0,0,0,0,0,0,0,0,0,0,0,0,0,0,0,0,0,0,0,0,0,0,0,0,0,5935,0,0,0,0,0,0,0,0,0,0,0,0,0,0,0,0,0,0,0,0,0,
0,0,0,0,0,0,0,0,0,0,0,0,0,0,0,0,0,0,0,0,0,0,0,0,0,0,0,0,0,0,0,0,0,0,0,0,0,0,0,0,0,0,0,0,0,0,5935,0,0,0,0,0,0,0,0,0,0,0,0,0,
0,0,0,0,0,0,0,0,0,0,0,0,0,0,0,0,0,0,0,0,0,0,0,0,0,0,0,0,0,0,0,0,0,0,0,0,0,0,0,0,0,0,0,0,0,0,0,0,0,0,0,0,0,0,0,0,0,0,0,0,
0,0,0,0,0,0,0,0,0,0,0,0,0,0,0,0,0,0,0,0,0,0,0,0,0,0,0,0,0,0,0,0,0,0,0,0,0,0,0,0,0,0,0,0,0,0,0,0,0,0,0,0,0,0,0,0,0,0,0,0,
0,0,0,0,0,0,0,0,0,0,0,0,0,0,0,0,0,0,0,0,0,0,0,0,0,0,0,0,0,0,0,0,0,0,0,0,0,0,0,0,0,0,0,0,0,0,0,0,0,0,0,0,0,0,0,0,0,0,0,0,
0,0,0,0,0,0,0,0,0,0,0,0,0,0,0,0,0,0,0,0,0,0,0,0,0,0,0,0,0,0,0,5935,0,0,0,0,0,0,0,0,0,0,0,0,0,0,0,0,0,0,0,0,0,0,0,0,0,0,0,0,
0,0,0,0,0,0,0,0,0,5935,0,0,0,0,0,0,0,0,6062,0,0,0,0,0,0,0,0,0,0,0,0,0,0,0,0,0,0,0,0,0,0,0,0,0,0,0,0,0,0,0,0,0,0,0,0,0,0,0,0,0,
0,0,0,0,0,0,0,0,0,0,0,0,0,0,0,0,0,0,0,0,0,0,0,0,0,0,0,0,0,0,0,6062,0,0,0,0,0,0,0,0,0,0,0,0,0,0,0,0,0,0,0,0,0,0,0,0,0,0,0,0,
0,0,0,0,0,0,0,0,0,0,0,6062,0,0,0,0,0,0,0,0,0,0,0,0,0,0,0,0,0,0,0,0,0,0,0,0,0,0,6062,0,0,0,0,0,0,0,0,0,0,0,0,0,0,0,0,0,0,0,0,0,
0,0,0,0,0,0,0,0,0,0,0,0,0,0,0,0,0,0,0,0,0,0,0,0,0,0,0,0,0,0,0,0,0,0,0,0,0,0,0,0,0,0,0,0,0,0,0,0,0,0,0,0,0,0,0,0,0,0,0,0,
0,0,0,0,0,0,0,0,0,0,0,0,0,0,0,0,0,0,0,0,0,0,0,0,0,0,0,0,0,0,0,0,0,0,0,0,0,0,0,0,0,0,0,0,0,0,0,0,0,0,0,0,0,0,0,0,0,0,0,0,
0,0,0,0,0,0,0,0,0,0,0,0,0,0,0,0,0,0,0,0,0,0,0,0,0,0,0,0,0,0,0,0,0,0,0,0,0,0,0,0,0,0,0,0,0,0,0,0,0,0,0,0,0,0,0,0,0,0,0,0,
0,0,0,0,0,0,0,0,0,0,0,0,0,0,0,0,0,0,0,0,0,0,0,0,0,0,0,0,0,0,0,0,0,0,0,0,0,0,0,0,0,0,0,0,0,0,0,0,0,0,0,0,0,0,0,0,0,0,0,0,
0,0,0,0,0,0,0,0,0,0,0,0,0,0,0,0,0,0,0,0,0,0,0,0,0,0,0,0,0,0,0,0,0,0,0,0,0,0,0,0,0,0,0,0,0,0,0,0,0,0,0,0,0,0,0,0,0,0,0,0,
0,0,0,0,0,0,0,0,0,0,0,0,0,0,0,0,0,0,0,0,0,0,0,0,0,0,0,0,0,0,0,0,0,0,0,0,0,0,0,0,0,0,0,0,0,0,0,0,0,0,0,0,0,0,0,0,0,0,0,0,
0,0,0,0,0,0,0,0,0,0,0,0,0,0,0,0,0,0,0,0,0,0,0,0,0,0,0,0,0,0,0,0,0,0,0,0,0,0,0,0,0,0,0,0,0,0,0,0,0,0,0,0,0,0,0,0,0,0,0,0,
0,0,0,0,0,0,0,0,0,0,0,0,0,0,0,0,0,0,0,0,0,0,0,0,0,0,0,0,0,0,0,0,0,0,0,0,0,0,0,0,0,0,0,0,0,0,0,0,0,0,0,0,0,0,0,0,0,0,0,0,
0,0,0,0,0,0,0,0,0,0,0,0,0,0,0,0,0,0,0,0,0,0,0,0,0,0,0,0,0,0,0,0,0,0,0,0,0,0,0,0,0,0,0,0,0,0,0,0,0,0,0,0,0,0,0,0,0,0,0,0,
0,0,0,0,0,0,0,0,0,0,0,0,0,0,0,0,0,0,0,0,0,0,0,0,0,0,0,0,0,0,0,0,0,0,0,0,0,0,0,0,0,0,0,0,0,0,0,6062,0,0,0,0,0,0,0,0,0,0,0,0,
0,0,0,0,0,0,0,0,0,0,0,0,0,0,0,0,0,0,0,0,5935,0,0,0,0,0,0,0,0,0,0,0,0,0,0,0,0,0,0,0,0,0,0,0,0,0,0,0,0,0,0,0,0,0,0,0,0,0,0,0,
0,0,0,0,0,0,0,0,0,0,0,0,0,0,0,0,0,0,0,0,0,0,0,0,0,0,0,0,0,0,0,0,0,0,0,0,0,0,0,0,0,0,0,0,0,0,0,0,0,6062,0,0,0,0,0,0,0,0,0,0,
0,0,0,0,0,0,0,0,0,0,0,0,0,0,0,0,0,0,0,0,0,0,0,0,0,0,0,0,0,0,0,0,0,0,0,0,0,0,0,0,0,0,0,0,0,0,0,0,0,0,0,0,0,0,0,0,0,0,0,0,
0,0,0,0,0,0,0,0,0,0,0,0,0,0,0,0,0,0,0,0,0,0,0,0,0,0,0,0,0,0,0,0,0,0,0,0,0,0,0,0,0,0,0,0,0,0,0,0,0,0,0,0,0,0,0,0,0,0,0,0,
0,0,0,0,0,0,0,0,0,0,0,0,0,0,0,0,0,0,0,0,0,0,0,0,0,0,0,0,0,0,0,0,0,0,0,0,0,0,0,0,0,0,0,0,0,0,0,0,0,0,0,0,0,0,0,0,0,0,0,0,
0,0,0,0,0,0,0,0,0,0,0,0,0,0,0,0,0,0,0,0,0,0,0,0,0,0,0,0,0,0,0,0,0,0,0,0,0,0,0,0,0,0,0,0,0,0,0,0,0,0,0,0,0,0,0,0,0,0,0,0,
0,0,0,0,0,0,0,0,0,0,0,0,0,0,0,0,0,0,0,0,0,0,0,0,0,0,0,0,0,0,0,0,0,0,0,0,0,0,0,0,0,0,0,0,0,0,0,0,0,0,0,0,0,0,0,0,0,0,0,0,
0,0,0,0,0,0,0,0,0,0,0,0,0,0,0,0,0,0,0,0,0,0,0,0,0,0,0,0,0,0,0,0,0,0,0,0,0,0,0,0,0,0,0,0,0,0,0,0,0,0,0,0,0,0,0,0,0,0,0,0
</data>
 </layer>
 <layer id="3" name="04_decor_high" width="60" height="40">
  <data encoding="csv">
0,0,5438,5439,5438,5439,5432,5433,0,0,0,5432,5433,5438,5439,5433,0,0,0,0,5432,5433,2809,2810,2811,0,5432,5433,5591,5592,5593,0,0,0,0,5616,5617,5618,5591,5592,5593,0,0,0,0,0,0,0,5591,5592,5593,0,5582,5583,5584,5607,5608,5609,0,0,
0,0,0,5432,5433,0,0,0,0,0,0,0,0,0,0,0,5438,5439,5438,5439,0,0,0,2823,5591,5592,5593,0,5616,5617,5618,0,0,5432,5433,0,0,0,5616,5617,5618,0,0,0,0,5432,5433,0,5616,5617,5618,0,5607,5608,5609,0,0,5432,5433,0,
5488,5489,5490,0,0,5591,5592,5593,0,0,0,0,0,0,0,0,0,0,0,0,0,0,0,0,5616,5617,5618,0,0,0,0,5591,5592,5593,2809,2810,2811,5432,5433,0,0,2806,2807,2808,0,0,5591,5592,5593,0,5432,5433,0,0,0,0,0,0,5582,5583,
5588,5589,5590,0,0,5616,5617,5618,2884,2885,2886,0,0,2884,2885,2886,0,0,0,0,0,0,0,0,0,0,0,0,0,0,0,5616,5617,5618,0,2823,0,0,0,5585,5586,5587,2820,5591,5592,5593,5616,5617,5618,0,0,0,0,0,0,0,0,0,5607,5608,
5613,5614,5615,0,0,0,0,0,0,2898,0,0,0,0,2898,0,0,0,0,0,0,0,0,0,0,0,0,0,2803,2804,2805,0,0,0,0,0,0,0,0,5610,5611,5612,0,5616,5617,5618,0,0,0,0,0,0,0,0,2803,2804,2805,0,5432,5433,
0,0,5588,5589,5590,0,0,0,0,0,0,0,0,0,0,0,0,0,0,0,0,2884,2885,2886,0,0,0,0,0,2817,0,0,0,0,0,0,0,0,0,0,0,0,0,0,0,0,0,0,0,0,0,0,0,0,0,2817,5485,5486,5487,0,
0,0,5613,5614,5615,0,0,0,0,0,0,0,0,0,0,0,0,2809,2810,2811,0,0,2898,0,0,0,0,0,0,0,0,0,0,0,0,0,0,0,0,0,0,0,0,0,0,0,0,0,0,0,0,0,0,0,0,0,0,0,5432,5433,
0,5588,5589,5590,0,0,0,0,0,0,0,0,0,0,0,0,0,0,2823,0,0,0,0,0,0,0,0,0,0,0,0,0,0,0,0,0,0,0,0,0,0,0,0,0,0,0,0,0,0,0,0,0,0,0,0,0,5585,5586,5587,0,
0,5613,5614,5615,2809,2810,2811,0,0,0,0,0,0,0,0,0,0,0,0,0,0,0,0,0,0,0,0,0,0,0,0,0,0,0,0,0,0,0,0,0,0,0,0,0,0,0,0,0,0,0,0,0,0,0,0,0,5610,5611,5612,0,
5588,5589,5590,0,0,2823,0,0,0,0,0,0,0,0,0,0,0,0,0,0,0,0,0,0,0,0,0,0,0,0,0,0,0,0,0,0,2803,2804,2805,0,0,0,0,0,0,0,0,0,0,0,0,0,0,0,0,5585,5586,5587,0,0,
5613,5614,5615,0,0,0,0,0,0,0,0,0,0,0,0,0,0,0,0,0,0,0,0,0,2803,2804,2805,0,0,0,0,0,0,0,0,0,0,2817,0,0,0,0,0,0,0,0,2884,2885,2886,0,0,2806,2807,2808,0,5610,5611,5612,0,0,
0,0,0,5588,5589,5590,0,0,0,0,0,0,0,0,0,0,0,0,0,0,0,0,0,0,0,2817,0,0,0,0,0,0,0,0,0,0,0,0,0,0,0,0,0,0,0,0,0,2898,0,0,0,0,2820,0,5585,5586,5587,2809,2810,2811,
0,0,0,5613,5614,5615,0,0,0,0,0,0,0,0,0,0,0,0,0,2803,2804,2805,0,0,0,0,0,0,0,0,0,0,0,0,0,0,0,0,0,0,0,0,0,0,0,0,0,0,0,0,0,0,0,0,5610,5611,5612,0,2823,0,
5588,5589,5590,0,0,0,0,0,0,0,0,0,0,0,0,0,0,0,0,0,2817,0,0,0,0,0,0,0,0,0,0,0,0,0,0,0,0,0,0,0,0,0,0,0,0,0,0,0,0,0,0,0,0,0,0,0,5582,5583,5584,0,
5613,5614,5615,0,0,0,0,0,0,0,0,0,0,0,0,0,0,0,0,0,0,0,0,0,0,0,0,0,0,0,0,0,0,0,0,0,0,0,0,0,0,0,0,0,0,0,0,0,0,0,0,0,0,0,0,0,5607,5608,5609,0,
0,5588,5589,5590,0,0,0,0,0,2806,2807,2808,0,0,0,0,0,0,0,0,0,0,0,0,0,0,0,0,0,0,0,0,0,0,0,0,0,0,0,0,0,0,0,0,0,0,0,0,0,0,0,0,0,0,0,0,0,5432,5433,0,
0,5613,5614,5615,0,0,0,0,0,0,2820,0,0,0,0,0,0,0,0,0,0,0,0,0,0,0,0,0,2809,2810,2811,0,0,0,0,0,0,0,0,0,0,0,0,0,0,0,0,2806,2807,2808,0,0,0,0,0,0,0,5582,5583,5584,
0,5588,5589,5590,2803,2804,2805,0,0,0,0,0,0,0,0,0,0,0,0,0,0,0,0,0,2806,2807,2808,0,0,2823,0,0,0,0,0,0,0,0,0,0,0,0,0,0,0,0,0,0,2820,0,0,0,0,0,0,0,0,5607,5608,5609,
0,5613,5614,5615,0,2817,0,0,0,0,0,0,0,0,0,0,0,0,0,0,0,0,0,0,0,2820,0,0,0,0,0,0,0,0,0,0,0,0,0,0,0,0,0,0,0,0,0,0,0,0,0,0,0,0,0,0,0,0,0,0,
5432,5433,0,0,0,0,0,0,0,0,0,0,0,0,0,0,0,0,0,0,0,0,0,0,0,0,0,0,0,0,0,0,0,0,0,0,0,0,0,0,0,0,0,0,0,0,0,0,0,0,0,0,0,0,0,0,0,0,0,0,
5589,5590,0,0,0,0,0,0,0,0,0,0,0,0,0,0,0,0,0,0,0,0,0,0,0,0,0,0,0,0,0,0,0,0,0,0,0,0,0,0,0,0,0,0,0,0,0,0,0,0,0,0,0,0,0,0,5582,5583,5584,0,
5614,5615,0,0,0,0,0,0,0,0,0,0,0,0,0,0,0,0,0,0,0,0,0,0,0,0,0,0,0,0,0,0,0,0,0,0,0,0,0,0,0,0,0,0,0,0,0,0,0,0,0,0,0,0,0,0,5607,5608,5609,0,
5589,5590,0,0,0,0,0,0,0,0,0,0,0,0,2803,2804,2805,0,0,0,0,0,0,0,0,0,0,0,0,0,0,0,0,0,2809,2810,2811,0,0,0,0,0,0,0,0,0,0,0,0,0,0,0,0,0,0,0,0,0,5432,5433,
5614,5615,0,0,0,0,0,0,0,0,0,0,0,0,0,2817,0,0,0,0,0,0,0,0,0,0,0,0,0,0,0,0,0,0,0,2823,0,0,0,0,0,0,0,0,0,0,0,0,0,0,0,0,0,0,0,0,0,0,5582,5583,
5432,5433,2884,2885,2886,0,0,0,0,0,0,0,0,0,0,0,0,0,0,0,0,0,0,0,0,0,2803,2804,2805,0,0,0,0,0,0,0,0,0,0,0,0,0,0,0,0,0,0,0,0,0,0,0,0,0,0,0,0,0,5607,5608,
5511,5512,0,2898,0,0,0,0,0,0,0,0,0,0,0,0,0,0,0,0,0,0,0,0,0,0,0,2817,0,0,0,0,0,0,0,0,0,0,0,0,0,0,0,0,0,0,0,0,0,0,0,0,0,0,0,0,0,0,5432,5433,
5536,5537,0,0,0,0,0,0,2803,2804,2805,0,0,0,0,0,0,0,0,0,0,0,0,0,0,0,0,0,0,0,0,0,0,0,0,0,0,0,0,0,0,0,0,0,0,0,0,2809,2810,2811,0,0,0,0,0,2803,2804,2805,0,5432,
0,5582,5583,5584,0,0,0,0,0,2817,0,0,0,0,0,0,0,0,0,0,0,0,0,0,0,0,0,0,0,0,0,0,0,0,0,0,0,0,0,0,0,0,0,0,0,0,0,0,2823,0,0,0,0,0,0,0,2817,5582,5583,5584,
0,5607,5608,5609,0,0,0,0,0,0,0,0,0,0,0,0,0,0,0,0,0,0,0,0,0,0,0,0,0,0,0,0,0,0,0,0,0,0,0,0,0,0,0,2884,2885,2886,0,0,0,0,0,0,0,0,0,0,0,5607,5608,5609,
5432,5433,0,0,0,0,0,0,0,0,0,0,0,0,0,0,0,0,0,0,0,0,0,0,0,0,0,0,0,0,0,0,0,0,0,0,0,0,0,0,0,0,0,0,2898,0,0,0,0,0,0,0,0,0,0,0,0,0,5432,5433,
0,0,5510,5511,5512,0,0,0,0,0,0,0,0,0,0,0,0,0,0,0,0,0,0,0,0,0,0,0,0,0,0,0,0,0,0,0,0,0,0,0,0,0,0,0,0,0,0,0,0,0,0,0,0,0,0,0,0,0,5582,5583,
0,0,5535,5536,5537,0,0,0,0,0,0,0,2803,2804,2805,0,0,0,0,0,0,0,0,0,0,0,0,0,0,0,0,0,0,0,0,0,0,2803,2804,2805,0,0,0,0,0,0,0,0,0,0,0,0,0,0,0,0,0,0,5607,5608,
5485,5486,5487,0,0,0,0,0,0,0,0,0,0,2817,0,0,0,0,0,0,0,0,0,0,0,0,0,0,0,0,0,0,0,0,0,0,0,0,2817,0,0,0,0,0,0,0,0,0,0,0,0,0,0,0,0,0,0,0,5432,5433,
0,5432,5433,0,0,0,0,0,0,0,0,0,0,0,0,0,0,0,0,0,0,0,0,0,0,0,0,0,0,0,0,0,0,2884,2885,2886,0,0,0,0,0,0,0,0,0,0,0,0,0,0,0,0,2803,2804,2805,5482,5483,5484,5432,0,
5486,5487,0,0,0,0,2803,2804,2805,0,0,0,0,0,0,0,2809,2810,2811,0,0,0,0,0,0,0,0,0,0,0,0,0,0,0,2898,0,0,0,0,0,0,0,0,0,0,0,0,0,0,0,0,0,0,2817,0,0,0,5507,5508,5509,
5514,5515,0,0,0,0,0,2817,0,0,0,0,0,0,0,0,0,2823,0,0,0,0,0,0,0,0,0,0,0,0,0,0,0,0,0,0,0,0,0,0,0,0,0,0,0,0,0,0,0,0,0,0,0,0,0,0,0,5532,5533,5534,
5539,5540,2884,2885,2886,0,0,0,0,0,0,0,0,0,0,0,0,0,0,0,0,0,2803,2804,2805,0,0,0,0,0,0,0,0,0,0,0,0,0,0,0,0,0,0,2803,2804,2805,0,0,0,0,0,0,0,0,5482,5483,5484,2809,2810,2811,
5432,5433,0,2898,0,0,0,0,0,0,5585,5586,5587,0,0,0,0,0,0,0,0,0,0,2817,0,0,5507,5508,5509,0,0,0,0,5507,5508,5509,0,0,0,0,0,0,0,0,2817,0,0,0,0,0,0,0,0,0,0,5482,5483,5484,2823,0,
0,5585,5586,5587,0,5432,5433,0,0,0,5610,5611,5612,0,0,5482,5483,5484,0,0,5482,5483,5484,5507,5508,5509,5532,5533,5534,0,0,0,0,5532,5533,5534,0,5432,5433,5432,5433,0,5432,5433,5582,5583,5584,5582,5583,5584,5482,5483,5484,0,0,5482,5483,5484,0,0,
0,5610,5611,5612,5438,5439,5438,5439,5432,5433,0,0,0,5432,5433,0,0,5482,5483,5484,0,0,0,5532,5533,5534,0,0,0,0,0,0,0,0,5482,5483,5484,0,0,0,5432,5433,0,0,5607,5608,5609,5607,5608,5609,0,0,5482,5483,5484,0,0,5482,5483,5484
</data>
 </layer>
 <layer id="13" name="04b_doors" width="60" height="40">
  <data encoding="csv">
0,0,0,0,0,0,0,0,0,0,0,0,0,0,0,0,0,0,0,0,0,0,0,0,0,0,0,0,0,0,0,0,0,0,0,0,0,0,0,0,0,0,0,0,0,0,0,0,0,0,0,0,0,0,0,0,0,0,0,0,
0,0,0,0,0,0,0,0,0,0,0,0,0,0,0,0,0,0,0,0,0,0,0,0,0,0,0,0,0,0,0,0,0,0,0,0,0,0,0,0,0,0,0,0,0,0,0,0,0,0,0,0,0,0,0,0,0,0,0,0,
0,0,0,0,0,0,0,0,0,0,0,0,0,0,0,0,0,0,0,0,0,0,0,0,0,0,0,0,0,0,0,0,0,0,0,0,0,0,0,0,0,0,0,0,0,0,0,0,0,0,0,0,0,0,0,0,0,0,0,0,
0,0,0,0,0,0,0,0,0,0,0,0,0,0,0,0,0,0,0,0,0,0,0,0,0,0,0,0,0,0,0,0,0,0,0,0,0,0,0,0,0,0,0,0,0,0,0,0,0,0,0,0,0,0,0,0,0,0,0,0,
0,0,0,0,0,0,0,0,0,0,0,0,0,0,0,0,0,0,0,0,0,0,0,0,0,0,0,0,0,0,0,0,0,0,0,0,0,0,0,0,0,0,0,0,0,0,0,0,0,0,0,0,0,0,0,0,0,0,0,0,
0,0,0,0,0,0,0,0,0,0,0,0,0,0,0,0,0,0,0,0,0,0,0,0,0,0,0,0,0,0,0,0,0,0,0,0,0,0,0,0,0,0,0,0,0,0,0,0,0,0,0,0,0,0,0,0,0,0,0,0,
0,0,0,0,0,0,0,0,0,0,0,0,0,0,0,0,0,0,0,0,0,0,0,0,0,0,0,0,0,0,0,0,0,0,0,0,0,0,0,0,0,0,0,0,0,0,0,0,0,0,0,0,0,0,0,0,0,0,0,0,
0,0,0,0,0,0,0,0,0,0,0,0,0,0,0,0,0,0,0,0,0,0,0,0,0,0,0,0,0,0,0,0,0,0,0,0,0,0,0,0,0,0,0,0,0,0,0,0,0,0,0,0,0,0,0,0,0,0,0,0,
0,0,0,0,0,0,0,0,0,0,0,0,0,0,0,0,0,0,0,0,0,0,0,0,0,0,0,0,0,0,0,0,0,0,0,0,0,0,0,0,0,0,0,0,0,0,0,0,0,0,0,0,0,0,0,0,0,0,0,0,
0,0,0,0,0,0,0,0,0,0,0,0,0,0,0,0,0,0,0,0,0,0,0,0,0,0,0,0,0,0,0,0,0,0,0,0,0,0,0,0,0,0,0,0,0,0,0,0,0,0,0,0,0,0,0,0,0,0,0,0,
0,0,0,0,0,0,0,0,0,0,0,0,0,0,0,0,0,0,0,0,0,0,0,0,0,0,0,0,0,0,0,0,0,0,0,0,0,0,0,0,0,0,0,0,0,0,0,0,0,0,0,0,0,0,0,0,0,0,0,0,
0,0,0,0,0,0,0,0,0,0,0,0,0,0,0,0,0,0,0,0,0,0,0,0,0,0,0,0,0,0,0,0,0,0,0,0,0,0,0,0,0,0,0,0,0,0,0,0,0,0,0,0,0,0,0,0,0,0,0,0,
0,0,0,0,0,0,0,0,0,0,0,0,0,0,0,0,0,0,0,0,0,0,0,0,0,0,0,0,0,0,0,0,0,0,0,0,0,0,0,0,0,0,0,0,0,0,0,0,0,0,0,0,0,0,0,0,0,0,0,0,
0,0,0,0,0,0,0,0,0,0,0,0,0,0,0,0,0,0,0,0,0,0,0,0,0,0,0,0,0,0,0,0,0,0,0,0,0,0,0,0,0,0,0,0,0,0,0,0,0,0,0,0,0,0,0,0,0,0,0,0,
0,0,0,0,0,0,0,0,0,0,0,0,0,0,0,0,0,0,0,0,0,0,0,0,0,0,0,0,0,0,0,0,0,0,0,0,0,0,0,0,0,0,0,0,0,0,0,0,0,0,0,0,0,0,0,0,0,0,0,0,
0,0,0,0,0,0,0,0,0,0,0,0,0,0,0,0,0,0,0,0,0,0,0,0,0,0,0,0,0,0,0,0,0,0,0,0,0,0,0,0,0,0,0,0,0,0,0,0,0,0,0,0,0,0,0,0,0,0,0,0,
0,0,0,0,0,0,0,0,0,0,0,0,0,0,0,0,0,0,0,0,0,0,0,0,0,0,0,0,0,0,0,0,0,0,0,0,0,0,0,0,0,0,0,0,0,0,0,0,0,0,0,0,0,0,0,0,0,0,0,0,
0,0,0,0,0,0,0,0,0,0,0,0,0,0,0,0,0,0,0,0,0,0,0,0,0,0,0,0,0,0,0,0,0,0,0,0,0,0,0,0,0,0,0,0,0,0,0,0,0,0,0,0,0,0,0,0,0,0,0,0,
0,0,0,0,0,0,0,0,0,0,0,0,0,0,0,0,0,0,0,0,0,0,0,0,0,0,0,0,0,0,0,0,0,0,0,0,0,0,0,0,0,0,0,0,0,0,0,0,0,0,0,0,0,0,0,0,0,0,0,0,
0,0,0,0,0,0,0,0,0,0,0,0,0,0,0,0,0,0,0,0,0,0,0,0,0,0,0,0,0,0,0,0,0,0,0,0,0,0,0,0,0,0,0,0,0,0,0,0,0,0,0,0,0,0,0,0,0,0,0,0,
0,0,0,0,0,0,0,0,0,0,0,0,0,0,0,0,0,0,0,0,0,0,0,0,0,0,0,0,0,0,0,0,0,0,0,0,0,0,0,0,0,0,0,0,0,0,0,0,0,0,0,0,0,0,0,0,0,0,0,0,
0,0,0,0,0,0,0,0,0,0,0,0,0,0,0,0,0,0,0,0,0,0,0,0,0,0,0,0,0,0,0,0,0,0,0,0,0,0,0,0,0,0,0,0,0,0,0,0,0,0,0,0,0,0,0,0,0,0,0,0,
0,0,0,0,0,0,0,0,0,0,0,0,0,0,0,0,0,0,0,0,0,0,0,0,0,0,0,0,0,0,0,0,0,0,0,0,0,0,0,0,0,0,0,0,0,0,0,0,0,0,0,0,0,0,0,0,0,0,0,0,
0,0,0,0,0,0,0,0,0,0,0,0,0,0,0,0,0,0,0,0,0,0,0,0,0,0,0,0,0,0,0,0,0,0,0,0,0,0,0,0,0,0,0,0,0,0,0,0,0,0,0,0,0,0,0,0,0,0,0,0,
0,0,0,0,0,0,0,0,0,0,0,0,0,0,0,0,0,0,0,0,0,0,0,0,0,0,0,0,0,0,0,0,0,0,0,0,0,0,0,0,0,0,0,0,0,0,0,0,0,0,0,0,0,0,0,0,0,0,0,0,
0,0,0,0,0,0,0,0,0,0,0,0,0,0,0,0,0,0,0,0,0,0,0,0,0,0,0,0,0,0,0,0,0,0,0,0,0,0,0,0,0,0,0,0,0,0,0,0,0,0,0,0,0,0,0,0,0,0,0,0,
0,0,0,0,0,0,0,0,0,0,0,0,0,0,0,0,0,0,0,0,0,0,0,0,0,0,0,0,0,0,0,0,0,0,0,0,0,0,0,0,0,0,0,0,0,0,0,0,0,0,0,0,0,0,0,0,0,0,0,0,
0,0,0,0,0,0,0,0,0,0,0,0,0,0,0,0,0,0,0,0,0,0,0,0,0,0,0,0,0,0,0,0,0,0,0,0,0,0,0,0,0,0,0,0,0,0,0,0,0,0,0,0,0,0,0,0,0,0,0,0,
0,0,0,0,0,0,0,0,0,0,0,0,0,0,0,0,0,0,0,0,0,0,0,0,0,0,0,0,0,0,0,0,0,0,0,0,0,0,0,0,0,0,0,0,0,0,0,0,0,0,0,0,0,0,0,0,0,0,0,0,
0,0,0,0,0,0,0,0,0,0,0,0,0,0,0,0,0,0,0,0,0,0,0,0,0,0,0,0,0,0,0,0,0,0,0,0,0,0,0,0,0,0,0,0,0,0,0,0,0,0,0,0,0,0,0,0,0,0,0,0,
0,0,0,0,0,0,0,0,0,0,0,0,0,0,0,0,0,0,0,0,0,0,0,0,0,0,0,0,0,0,0,0,0,0,0,0,0,0,0,0,0,0,0,0,0,0,0,0,0,0,0,0,0,0,0,0,0,0,0,0,
0,0,0,0,0,0,0,0,0,0,0,0,0,0,0,0,0,0,0,0,0,0,0,0,0,0,0,0,0,0,0,0,0,0,0,0,0,0,0,0,0,0,0,0,0,0,0,0,0,0,0,0,0,0,0,0,0,0,0,0,
0,0,0,0,0,0,0,0,0,0,0,0,0,0,0,0,0,0,0,0,0,0,0,0,0,0,0,0,0,0,0,0,0,0,0,0,0,0,0,0,0,0,0,0,0,0,0,0,0,0,0,0,0,0,0,0,0,0,0,0,
0,0,0,0,0,0,0,0,0,0,0,0,0,0,0,0,0,0,0,0,0,0,0,0,0,0,0,0,0,0,0,0,0,0,0,0,0,0,0,0,0,0,0,0,0,0,0,0,0,0,0,0,0,0,0,0,0,0,0,0,
0,0,0,0,0,0,0,0,0,0,0,0,0,0,0,0,0,0,0,0,0,0,0,0,0,0,0,0,0,0,0,0,0,0,0,0,0,0,0,0,0,0,0,0,0,0,0,0,0,0,0,0,0,0,0,0,0,0,0,0,
0,0,0,0,0,0,0,0,0,0,0,0,0,0,0,0,0,0,0,0,0,0,0,0,0,0,0,0,0,0,0,0,0,0,0,0,0,0,0,0,0,0,0,0,0,0,0,0,0,0,0,0,0,0,0,0,0,0,0,0,
0,0,0,0,0,0,0,0,0,0,0,0,0,0,0,0,0,0,0,0,0,0,0,0,0,0,0,0,0,0,0,0,0,0,0,0,0,0,0,0,0,0,0,0,0,0,0,0,0,0,0,0,0,0,0,0,0,0,0,0,
0,0,0,0,0,0,0,0,0,0,0,0,0,0,0,0,0,0,0,0,0,0,0,0,0,0,0,0,0,0,0,0,0,0,0,0,0,0,0,0,0,0,0,0,0,0,0,0,0,0,0,0,0,0,0,0,0,0,0,0,
0,0,0,0,0,0,0,0,0,0,0,0,0,0,0,0,0,0,0,0,0,0,0,0,0,0,0,0,0,0,0,0,0,0,0,0,0,0,0,0,0,0,0,0,0,0,0,0,0,0,0,0,0,0,0,0,0,0,0,0,
0,0,0,0,0,0,0,0,0,0,0,0,0,0,0,0,0,0,0,0,0,0,0,0,0,0,0,0,0,0,0,0,0,0,0,0,0,0,0,0,0,0,0,0,0,0,0,0,0,0,0,0,0,0,0,0,0,0,0,0
</data>
 </layer>
 <layer id="15" name="05b_shadows" width="60" height="40">
  <data encoding="csv">
0,0,0,0,0,0,0,0,0,0,0,0,0,0,0,0,0,0,0,0,0,0,0,0,0,0,0,0,0,0,0,0,0,0,0,0,0,0,0,0,0,0,0,0,0,0,0,0,0,0,0,0,0,0,0,0,0,0,0,0,
0,0,0,0,0,0,0,0,0,0,0,0,0,0,0,0,0,0,0,0,0,0,0,0,0,0,0,0,0,0,0,0,0,0,0,0,0,0,0,0,0,0,0,0,0,0,0,0,0,0,0,0,0,0,0,0,0,0,0,0,
0,0,0,0,0,0,0,0,0,0,0,0,0,0,0,0,0,0,0,0,0,0,0,0,0,0,0,0,0,0,0,0,0,0,0,0,0,0,0,0,0,0,0,0,0,0,0,0,0,0,0,0,0,0,0,0,0,0,0,0,
0,0,0,0,0,0,0,0,0,0,0,0,0,0,0,0,0,0,0,0,0,0,0,0,0,0,0,0,0,0,0,0,0,0,0,0,0,0,0,0,0,0,0,0,0,0,0,0,0,0,0,0,0,0,0,0,0,0,0,0,
0,0,0,0,0,0,0,0,0,0,0,0,0,0,0,0,0,0,0,0,0,0,0,0,0,0,0,0,0,0,0,0,0,0,0,0,0,0,0,0,0,0,0,0,0,0,0,0,0,0,0,0,0,0,0,0,0,0,0,0,
0,0,0,0,0,0,0,0,0,0,0,0,0,0,0,0,0,0,0,0,0,0,0,0,0,0,0,0,0,0,0,0,0,0,0,0,0,0,0,0,0,0,0,0,0,0,0,0,0,0,0,0,0,0,0,0,0,0,0,0,
0,0,0,0,0,0,0,0,0,0,0,0,0,0,0,0,0,0,0,0,0,0,0,0,0,0,0,0,0,0,0,0,0,0,0,0,0,0,0,0,0,0,0,0,0,0,0,0,0,0,0,0,0,0,0,0,0,0,0,0,
0,0,0,0,0,0,0,0,0,0,0,0,0,0,0,0,0,0,0,0,0,0,0,0,0,0,0,0,0,0,0,0,0,0,0,0,0,0,0,0,0,0,0,0,0,0,0,0,0,0,0,0,0,0,0,0,0,0,0,0,
0,0,0,0,0,0,0,0,0,0,0,0,0,0,0,0,0,0,0,0,0,0,0,0,0,0,0,0,0,0,0,0,0,0,0,0,0,0,0,0,0,0,0,0,0,0,0,0,0,0,0,0,0,0,0,0,0,0,0,0,
0,0,0,0,0,0,0,0,0,0,0,0,0,0,0,0,0,0,0,0,0,0,0,0,0,0,0,0,0,0,0,0,0,0,0,0,0,0,0,0,0,0,0,0,0,0,0,0,0,0,0,0,0,0,0,0,0,0,0,0,
0,0,0,0,0,0,0,0,0,0,0,0,0,0,0,0,0,0,0,0,0,0,0,0,0,0,0,0,0,0,0,0,0,0,0,0,0,0,0,0,0,0,0,0,0,0,0,0,0,0,0,0,0,0,0,0,0,0,0,0,
0,0,0,0,0,0,0,0,0,0,0,0,0,0,0,0,0,0,0,0,0,0,0,0,0,0,0,0,0,0,0,0,0,0,0,0,0,0,0,0,0,0,0,0,0,0,0,0,0,0,0,0,0,0,0,0,0,0,0,0,
0,0,0,0,0,0,0,0,0,0,0,0,0,0,0,0,0,0,0,0,0,0,0,0,0,0,0,0,0,0,0,0,0,0,0,0,0,0,0,0,0,0,0,0,0,0,0,0,0,0,0,0,0,0,0,0,0,0,0,0,
0,0,0,0,0,0,0,0,0,0,0,0,0,0,0,0,0,0,0,0,0,0,0,0,0,0,0,0,0,0,0,0,0,0,0,0,0,0,0,0,0,0,0,0,0,0,0,0,0,0,0,0,0,0,0,0,0,0,0,0,
0,0,0,0,0,0,0,0,0,0,0,0,0,0,0,0,0,0,0,0,0,0,0,0,0,0,0,0,0,0,0,0,0,0,0,0,0,0,0,0,0,0,0,0,0,0,0,0,0,0,0,0,0,0,0,0,0,0,0,0,
0,0,0,0,0,0,0,0,0,0,0,0,0,0,0,0,0,0,0,0,0,0,0,0,0,0,0,0,0,0,0,0,0,0,0,0,0,0,0,0,0,0,0,0,0,0,0,0,0,0,0,0,0,0,0,0,0,0,0,0,
0,0,0,0,0,0,0,0,0,0,0,0,0,0,0,0,0,0,0,0,0,0,0,0,0,0,0,0,0,0,0,0,0,0,0,0,0,0,0,0,0,0,0,0,0,0,0,0,0,0,0,0,0,0,0,0,0,0,0,0,
0,0,0,0,0,0,0,0,0,0,0,0,0,0,0,0,0,0,0,0,0,0,0,0,0,0,0,0,0,0,0,0,0,0,0,0,0,0,0,0,0,0,0,0,0,0,0,0,0,0,0,0,0,0,0,0,0,0,0,0,
0,0,0,0,0,0,0,0,0,0,0,0,0,0,0,0,0,0,0,0,0,0,0,0,0,0,0,0,0,0,0,0,0,0,0,0,0,0,0,0,0,0,0,0,0,0,0,0,0,0,0,0,0,0,0,0,0,0,0,0,
0,0,0,0,0,0,0,0,0,0,0,0,0,0,0,0,0,0,0,0,0,0,0,0,0,0,0,0,0,0,0,0,0,0,0,0,0,0,0,0,0,0,0,0,0,0,0,0,0,0,0,0,0,0,0,0,0,0,0,0,
0,0,0,0,0,0,0,0,0,0,0,0,0,0,0,0,0,0,0,0,0,0,0,0,0,0,0,0,0,0,0,0,0,0,0,0,0,0,0,0,0,0,0,0,0,0,0,0,0,0,0,0,0,0,0,0,0,0,0,0,
0,0,0,0,0,0,0,0,0,0,0,0,0,0,0,0,0,0,0,0,0,0,0,0,0,0,0,0,0,0,0,0,0,0,0,0,0,0,0,0,0,0,0,0,0,0,0,0,0,0,0,0,0,0,0,0,0,0,0,0,
0,0,0,0,0,0,0,0,0,0,0,0,0,0,0,0,0,0,0,0,0,0,0,0,0,0,0,0,0,0,0,0,0,0,0,0,0,0,0,0,0,0,0,0,0,0,0,0,0,0,0,0,0,0,0,0,0,0,0,0,
0,0,0,0,0,0,0,0,0,0,0,0,0,0,0,0,0,0,0,0,0,0,0,0,0,0,0,0,0,0,0,0,0,0,0,0,0,0,0,0,0,0,0,0,0,0,0,0,0,0,0,0,0,0,0,0,0,0,0,0,
0,0,0,0,0,0,0,0,0,0,0,0,0,0,0,0,0,0,0,0,0,0,0,0,0,0,0,0,0,0,0,0,0,0,0,0,0,0,0,0,0,0,0,0,0,0,0,0,0,0,0,0,0,0,0,0,0,0,0,0,
0,0,0,0,0,0,0,0,0,0,0,0,0,0,0,0,0,0,0,0,0,0,0,0,0,0,0,0,0,0,0,0,0,0,0,0,0,0,0,0,0,0,0,0,0,0,0,0,0,0,0,0,0,0,0,0,0,0,0,0,
0,0,0,0,0,0,0,0,0,0,0,0,0,0,0,0,0,0,0,0,0,0,0,0,0,0,0,0,0,0,0,0,0,0,0,0,0,0,0,0,0,0,0,0,0,0,0,0,0,0,0,0,0,0,0,0,0,0,0,0,
0,0,0,0,0,0,0,0,0,0,0,0,0,0,0,0,0,0,0,0,0,0,0,0,0,0,0,0,0,0,0,0,0,0,0,0,0,0,0,0,0,0,0,0,0,0,0,0,0,0,0,0,0,0,0,0,0,0,0,0,
0,0,0,0,0,0,0,0,0,0,0,0,0,0,0,0,0,0,0,0,0,0,0,0,0,0,0,0,0,0,0,0,0,0,0,0,0,0,0,0,0,0,0,0,0,0,0,0,0,0,0,0,0,0,0,0,0,0,0,0,
0,0,0,0,0,0,0,0,0,0,0,0,0,0,0,0,0,0,0,0,0,0,0,0,0,0,0,0,0,0,0,0,0,0,0,0,0,0,0,0,0,0,0,0,0,0,0,0,0,0,0,0,0,0,0,0,0,0,0,0,
0,0,0,0,0,0,0,0,0,0,0,0,0,0,0,0,0,0,0,0,0,0,0,0,0,0,0,0,0,0,0,0,0,0,0,0,0,0,0,0,0,0,0,0,0,0,0,0,0,0,0,0,0,0,0,0,0,0,0,0,
0,0,0,0,0,0,0,0,0,0,0,0,0,0,0,0,0,0,0,0,0,0,0,0,0,0,0,0,0,0,0,0,0,0,0,0,0,0,0,0,0,0,0,0,0,0,0,0,0,0,0,0,0,0,0,0,0,0,0,0,
0,0,0,0,0,0,0,0,0,0,0,0,0,0,0,0,0,0,0,0,0,0,0,0,0,0,0,0,0,0,0,0,0,0,0,0,0,0,0,0,0,0,0,0,0,0,0,0,0,0,0,0,0,0,0,0,0,0,0,0,
0,0,0,0,0,0,0,0,0,0,0,0,0,0,0,0,0,0,0,0,0,0,0,0,0,0,0,0,0,0,0,0,0,0,0,0,0,0,0,0,0,0,0,0,0,0,0,0,0,0,0,0,0,0,0,0,0,0,0,0,
0,0,0,0,0,0,0,0,0,0,0,0,0,0,0,0,0,0,0,0,0,0,0,0,0,0,0,0,0,0,0,0,0,0,0,0,0,0,0,0,0,0,0,0,0,0,0,0,0,0,0,0,0,0,0,0,0,0,0,0,
0,0,0,0,0,0,0,0,0,0,0,0,0,0,0,0,0,0,0,0,0,0,0,0,0,0,0,0,0,0,0,0,0,0,0,0,0,0,0,0,0,0,0,0,0,0,0,0,0,0,0,0,0,0,0,0,0,0,0,0,
0,0,0,0,0,0,0,0,0,0,0,0,0,0,0,0,0,0,0,0,0,0,0,0,0,0,0,0,0,0,0,0,0,0,0,0,0,0,0,0,0,0,0,0,0,0,0,0,0,0,0,0,0,0,0,0,0,0,0,0,
0,0,0,0,0,0,0,0,0,0,0,0,0,0,0,0,0,0,0,0,0,0,0,0,0,0,0,0,0,0,0,0,0,0,0,0,0,0,0,0,0,0,0,0,0,0,0,0,0,0,0,0,0,0,0,0,0,0,0,0,
0,0,0,0,0,0,0,0,0,0,0,0,0,0,0,0,0,0,0,0,0,0,0,0,0,0,0,0,0,0,0,0,0,0,0,0,0,0,0,0,0,0,0,0,0,0,0,0,0,0,0,0,0,0,0,0,0,0,0,0,
0,0,0,0,0,0,0,0,0,0,0,0,0,0,0,0,0,0,0,0,0,0,0,0,0,0,0,0,0,0,0,0,0,0,0,0,0,0,0,0,0,0,0,0,0,0,0,0,0,0,0,0,0,0,0,0,0,0,0,0
</data>
 </layer>
 <layer id="5" name="05_above_player" width="60" height="40">
  <data encoding="csv">
0,0,0,5407,5408,0,0,0,2845,2846,2847,0,0,2845,2846,2847,5413,5414,5413,5414,0,0,0,0,5566,5567,5568,0,2751,2752,2753,0,0,5407,5408,2784,2785,0,0,0,0,2780,2781,2782,0,5407,5408,0,0,0,0,0,0,0,2751,2752,2753,5407,5408,0,
5463,5464,5465,0,0,5566,5567,5568,2858,2859,2860,0,0,2858,2859,2860,0,0,0,0,0,2832,2833,2834,0,0,0,0,2764,2765,2766,5566,5567,5568,2796,2797,2798,5407,5408,0,0,2793,2794,2795,0,0,5566,5567,5568,0,5407,5408,0,0,2764,2765,2766,0,5557,5558,
5563,5564,5565,0,0,0,0,0,2871,2872,2873,0,0,2871,2872,2873,0,2757,2758,2759,0,2845,2846,2847,0,0,0,0,2777,2778,2779,0,0,0,0,0,0,0,0,5560,5561,5562,0,5566,5567,5568,0,0,0,0,0,0,0,0,2777,2778,2779,0,0,0,
0,0,0,0,0,0,0,0,0,0,0,0,0,0,0,0,0,2770,2771,2772,0,2858,2859,2860,0,0,0,0,2790,2791,2792,0,0,0,0,0,0,0,0,0,0,0,0,0,0,0,0,0,0,0,0,0,0,0,2790,2791,2792,0,5407,5408,
0,0,5563,5564,5565,2758,2759,0,0,0,0,0,0,0,0,0,0,2783,2784,2785,0,2871,2872,2873,0,0,0,0,0,0,0,0,0,0,0,0,0,0,0,0,0,0,0,0,0,0,0,0,0,0,0,0,0,0,0,0,5460,5461,5462,0,
0,0,0,0,2770,2771,2772,0,0,0,0,0,0,0,0,0,0,2796,2797,2798,0,0,0,0,0,0,0,0,0,0,0,0,0,0,0,0,2751,2752,2753,0,0,0,0,0,0,0,0,0,0,0,0,0,0,0,0,0,0,0,5407,5408,
0,5563,5564,5565,2783,2784,2785,0,0,0,0,0,0,0,0,0,0,0,0,0,0,0,0,0,2751,2752,2753,0,0,0,0,0,0,0,0,0,2764,2765,2766,0,0,0,0,0,0,0,2832,2833,2834,0,0,2754,2755,2756,0,0,5560,5561,5562,0,
0,0,0,0,2796,2797,2798,0,0,0,0,0,0,0,0,0,0,0,0,0,0,0,0,0,2764,2765,2766,0,0,0,0,0,0,0,0,0,2777,2778,2779,0,0,0,0,0,0,0,2845,2846,2847,0,0,2767,2768,2769,0,0,0,2757,2758,2759,
5563,5564,5565,0,0,0,0,0,0,0,0,0,0,0,0,0,0,0,0,2751,2752,2753,0,0,2777,2778,2779,0,0,0,0,0,0,0,0,0,2790,2791,2792,0,0,0,0,0,0,0,2858,2859,2860,0,0,2780,2781,2782,0,5560,5561,5562,2771,2772,
0,0,0,0,0,0,0,0,0,0,0,0,0,0,0,0,0,0,0,2764,2765,2766,0,0,2790,2791,2792,0,0,0,0,0,0,0,0,0,0,0,0,0,0,0,0,0,0,0,2871,2872,2873,0,0,2793,2794,2795,0,0,0,2783,2784,2785,
0,0,0,5563,5564,5565,0,0,0,0,0,0,0,0,0,0,0,0,0,2777,2778,2779,0,0,0,0,0,0,0,0,0,0,0,0,0,0,0,0,0,0,0,0,0,0,0,0,0,0,0,0,0,0,0,0,5560,5561,5562,2796,2797,2798,
0,0,0,0,0,0,0,0,0,2754,2755,2756,0,0,0,0,0,0,0,2790,2791,2792,0,0,0,0,0,0,0,0,0,0,0,0,0,0,0,0,0,0,0,0,0,0,0,0,0,0,0,0,0,0,0,0,0,0,0,0,0,0,
5563,5564,5565,0,0,0,0,0,0,2767,2768,2769,0,0,0,0,0,0,0,0,0,0,0,0,0,0,0,0,2757,2758,2759,0,0,0,0,0,0,0,0,0,0,0,0,0,0,0,0,2754,2755,2756,0,0,0,0,0,0,5557,5558,5559,0,
0,0,0,0,2751,2752,2753,0,0,2780,2781,2782,0,0,0,0,0,0,0,0,0,0,0,0,2754,2755,2756,0,2770,2771,2772,0,0,0,0,0,0,0,0,0,0,0,0,0,0,0,0,2767,2768,2769,0,0,0,0,0,0,0,0,0,0,
0,5563,5564,5565,2764,2765,2766,0,0,2793,2794,2795,0,0,0,0,0,0,0,0,0,0,0,0,2767,2768,2769,0,2783,2784,2785,0,0,0,0,0,0,0,0,0,0,0,0,0,0,0,0,2780,2781,2782,0,0,0,0,0,0,0,5407,5408,0,
0,0,0,0,2777,2778,2779,0,0,0,0,0,0,0,0,0,0,0,0,0,0,0,0,0,2780,2781,2782,0,2796,2797,2798,0,0,0,0,0,0,0,0,0,0,0,0,0,0,0,0,2793,2794,2795,0,0,0,0,0,0,0,5557,5558,5559,
0,5563,5564,5565,2790,2791,2792,0,0,0,0,0,0,0,0,0,0,0,0,0,0,0,0,0,2793,2794,2795,0,0,0,0,0,0,0,0,0,0,0,0,0,0,0,0,0,0,0,0,0,0,0,0,0,0,0,0,0,0,0,0,0,
0,0,0,0,0,0,0,0,0,0,0,0,0,0,0,0,0,0,0,0,0,0,0,0,0,0,0,0,0,0,0,0,0,0,0,0,0,0,0,0,0,0,0,0,0,0,0,0,0,0,0,0,0,0,0,0,0,0,0,0,
5407,5408,0,0,0,0,0,0,0,0,0,0,0,0,2751,2752,2753,0,0,0,0,0,0,0,0,0,0,0,0,0,0,0,0,0,2757,2758,2759,0,0,0,0,0,0,0,0,0,0,0,0,0,0,0,0,0,0,0,0,0,0,0,
5564,5565,0,0,0,0,0,0,0,0,0,0,0,0,2764,2765,2766,0,0,0,0,0,0,0,0,0,0,0,0,0,0,0,0,0,2770,2771,2772,0,0,0,0,0,0,0,0,0,0,0,0,0,0,0,0,0,0,0,5557,5558,5559,0,
0,0,2832,2833,2834,0,0,0,0,0,0,0,0,0,2777,2778,2779,0,0,0,0,0,0,0,0,0,2751,2752,2753,0,0,0,0,0,2783,2784,2785,0,0,0,0,0,0,0,0,0,0,0,0,0,0,0,0,0,0,0,0,0,0,0,
5564,5565,2845,2846,2847,0,0,0,0,0,0,0,0,0,2790,2791,2792,0,0,0,0,0,0,0,0,0,2764,2765,2766,0,0,0,0,0,2796,2797,2798,0,0,0,0,0,0,0,0,0,0,0,0,0,0,0,0,0,0,0,0,0,5407,5408,
0,0,2858,2859,2860,0,0,0,2751,2752,2753,0,0,0,0,0,0,0,0,0,0,0,0,0,0,0,2777,2778,2779,0,0,0,0,0,0,0,0,0,0,0,0,0,0,0,0,0,0,2757,2758,2759,0,0,0,0,0,2751,2752,2753,5557,5558,
5407,5408,2871,2872,2873,0,0,0,2764,2765,2766,0,0,0,0,0,0,0,0,0,0,0,0,0,0,0,2790,2791,2792,0,0,0,0,0,0,0,0,0,0,0,0,0,0,0,0,0,0,2770,2771,2772,0,0,0,0,0,2764,2765,2766,0,0,
0,0,0,0,0,0,0,0,2777,2778,2779,0,0,0,0,0,0,0,0,0,0,0,0,0,0,0,0,0,0,0,0,0,0,0,0,0,0,0,0,0,0,0,0,2832,2833,2834,0,2783,2784,2785,0,0,0,0,0,2777,2778,2779,5407,5408,
0,0,0,0,0,0,0,0,2790,2791,2792,0,0,0,0,0,0,0,0,0,0,0,0,0,0,0,0,0,0,0,0,0,0,0,0,0,0,0,0,0,0,0,0,2845,2846,2847,0,2796,2797,2798,0,0,0,0,0,2790,2791,2792,0,5407,
0,5557,5558,5559,0,0,0,0,0,0,0,0,0,0,0,0,0,0,0,0,0,0,0,0,0,0,0,0,0,0,0,0,0,0,0,0,0,0,0,0,0,0,0,2858,2859,2860,0,0,0,0,0,0,0,0,0,0,0,5557,5558,5559,
0,0,0,0,0,0,0,0,0,0,0,0,2751,2752,2753,0,0,0,0,0,0,0,0,0,0,0,0,0,0,0,0,0,0,0,0,0,0,2751,2752,2753,0,0,0,2871,2872,2873,0,0,0,0,0,0,0,0,0,0,0,0,0,0,
5407,5408,0,0,0,0,0,0,0,0,0,0,2764,2765,2766,0,0,0,0,0,0,0,0,0,0,0,0,0,0,0,0,0,0,0,0,0,0,2764,2765,2766,0,0,0,0,0,0,0,0,0,0,0,0,0,0,0,0,0,0,5407,5408,
0,0,0,0,0,0,0,0,0,0,0,0,2777,2778,2779,0,0,0,0,0,0,0,0,0,0,0,0,0,0,0,0,0,0,2832,2833,2834,0,2777,2778,2779,0,0,0,0,0,0,0,0,0,0,0,0,2751,2752,2753,0,0,0,5557,5558,
0,0,0,0,0,0,2751,2752,2753,0,0,0,2790,2791,2792,0,2757,2758,2759,0,0,0,0,0,0,0,0,0,0,0,0,0,0,2845,2846,2847,0,2790,2791,2792,0,0,0,0,0,0,0,0,0,0,0,0,2764,2765,2766,0,0,0,0,0,
5460,5461,5462,0,0,0,2764,2765,2766,0,0,0,0,0,0,0,2770,2771,2772,0,0,0,0,0,0,0,0,0,0,0,0,0,0,2858,2859,2860,0,0,0,0,0,0,0,0,0,0,0,0,0,0,0,0,2777,2778,2779,0,0,0,5407,5408,
0,5407,5408,2833,2834,0,2777,2778,2779,0,0,0,0,0,0,0,2783,2784,2785,0,0,0,2751,2752,2753,0,0,0,0,0,0,0,0,2871,2872,2873,0,0,0,0,0,0,0,2751,2752,2753,0,0,0,0,0,0,2790,2791,2792,5457,5458,5459,2758,2759,
5461,5462,2845,2846,2847,0,2790,2791,2792,0,0,0,0,0,0,0,2796,2797,2798,0,0,0,2764,2765,2766,0,0,0,0,0,0,0,0,0,0,0,0,0,0,0,0,0,0,2764,2765,2766,0,0,0,0,0,0,0,0,0,0,0,2770,2771,2772,
0,0,2858,2859,2860,0,0,0,0,0,0,0,0,0,0,0,0,0,0,0,0,0,2777,2778,2779,0,0,0,0,0,0,0,0,0,0,0,0,0,0,0,0,0,0,2777,2778,2779,0,0,0,0,0,0,0,0,0,0,0,2783,2784,2785,
0,0,2871,2872,2873,0,0,0,0,0,0,0,0,0,0,0,0,0,0,0,0,0,2790,2791,2792,0,0,0,0,0,0,0,0,0,0,0,0,0,0,0,0,0,0,2790,2791,2792,0,0,0,0,0,0,0,0,5457,5458,5459,2796,2797,2798,
5407,5408,0,0,0,0,0,0,0,0,5560,5561,5562,0,0,0,0,0,0,0,0,0,0,0,0,0,0,0,0,0,0,0,0,0,0,0,0,0,0,0,0,0,0,0,0,0,0,0,0,0,0,0,0,0,0,5457,5458,5459,0,0,
0,5560,5561,5562,0,5407,5408,0,0,0,0,0,0,0,0,5457,5458,5459,0,0,5457,5458,5459,0,0,0,0,0,0,0,0,0,0,0,0,0,0,5407,5408,5407,5408,0,5407,5408,5557,5558,5559,5557,5558,5559,5457,5458,5459,0,0,5457,5458,5459,0,0,
0,0,0,0,5413,5414,5413,5414,5407,5408,0,0,0,5407,5408,0,0,5457,5458,5459,0,0,0,0,0,0,0,0,0,0,0,0,0,0,5457,5458,5459,0,0,0,5407,5408,0,0,0,0,0,0,0,0,0,0,5457,5458,5459,0,0,5457,5458,5459,
0,0,0,0,0,0,0,0,0,0,0,0,0,0,0,0,0,0,0,0,0,0,0,0,0,0,0,0,0,0,0,0,0,0,0,0,0,0,0,0,0,0,0,0,0,0,0,0,0,0,0,0,0,0,0,0,0,0,0,0
</data>
 </layer>
 <layer id="17" name="05c_above_player" width="60" height="40">
  <data encoding="csv">
0,0,0,0,0,0,0,0,0,0,0,0,0,0,0,0,0,0,0,0,0,0,0,0,0,0,0,0,0,0,0,0,0,0,0,0,0,0,0,0,0,0,0,0,0,0,0,0,0,0,0,0,0,0,0,0,0,0,0,0,
0,0,0,0,0,0,0,0,0,0,0,0,0,0,0,0,0,0,0,0,0,0,0,0,0,0,0,0,0,0,0,0,0,0,0,0,0,0,0,0,0,0,0,0,0,0,0,0,0,0,0,0,0,0,0,0,0,0,0,0,
0,0,0,0,0,0,0,0,0,0,0,0,0,0,0,0,0,0,0,0,0,0,0,0,0,0,0,0,0,0,0,0,0,0,0,0,0,0,0,0,0,0,0,0,0,0,0,0,0,0,0,0,0,0,0,0,0,0,0,0,
0,0,0,0,0,0,0,0,0,0,0,0,0,0,0,0,0,0,0,0,0,0,0,0,0,0,0,0,0,0,0,0,0,0,0,0,0,0,0,0,0,0,0,0,0,0,0,0,0,0,0,0,0,0,0,0,0,0,0,0,
0,0,0,0,0,0,0,0,0,0,0,0,0,0,0,0,0,0,0,0,0,0,0,0,0,0,0,0,0,0,0,0,0,0,0,0,0,0,0,0,0,0,0,0,0,0,0,0,0,0,0,0,0,0,0,0,0,0,0,0,
0,0,0,0,0,0,0,0,0,0,0,0,0,0,0,0,0,0,0,0,0,0,0,0,0,0,0,0,0,0,0,0,0,0,0,0,0,0,0,0,0,0,0,0,0,0,0,0,0,0,0,0,0,0,0,0,0,0,0,0,
0,0,0,0,0,0,0,0,0,0,0,0,0,0,0,0,0,0,0,0,0,0,0,0,0,0,0,0,0,0,0,0,0,0,0,0,0,0,0,0,0,0,0,0,0,0,0,0,0,0,0,0,0,0,0,0,0,0,0,0,
0,0,0,0,0,0,0,0,0,0,0,0,0,0,0,0,0,0,0,0,0,0,0,0,0,0,0,0,0,0,0,0,0,0,0,0,0,0,0,0,0,0,0,0,0,0,0,0,0,0,0,0,0,0,0,0,0,0,0,0,
0,0,0,0,0,0,0,0,0,0,0,0,0,0,0,0,0,0,0,0,0,0,0,0,0,0,0,0,0,0,0,0,0,0,0,0,0,0,0,0,0,0,0,0,0,0,0,0,0,0,0,0,0,0,0,0,0,0,0,0,
0,0,0,0,0,0,0,0,0,0,0,0,0,0,0,0,0,0,0,0,0,0,0,0,0,0,0,0,0,0,0,0,0,0,0,0,0,0,0,0,0,0,0,0,0,0,0,0,0,0,0,0,0,0,0,0,0,0,0,0,
0,0,0,0,0,0,0,0,0,0,0,0,0,0,0,0,0,0,0,0,0,0,0,0,0,0,0,0,0,0,0,0,0,0,0,0,0,0,0,0,0,0,0,0,0,0,0,0,0,0,0,0,0,0,0,0,0,0,0,0,
0,0,0,0,0,0,0,0,0,0,0,0,0,0,0,0,0,0,0,0,0,0,0,0,0,0,0,0,0,0,0,0,0,0,0,0,0,0,0,0,0,0,0,0,0,0,0,0,0,0,0,0,0,0,0,0,0,0,0,0,
0,0,0,0,0,0,0,0,0,0,0,0,0,0,0,0,0,0,0,0,0,0,0,0,0,0,0,0,0,0,0,0,0,0,0,0,0,0,0,0,0,0,0,0,0,0,0,0,0,0,0,0,0,0,0,0,0,0,0,0,
0,0,0,0,0,0,0,0,0,0,0,0,0,0,0,0,0,0,0,0,0,0,0,0,0,0,0,0,0,0,0,0,0,0,0,0,0,0,0,0,0,0,0,0,0,0,0,0,0,0,0,0,0,0,0,0,0,0,0,0,
0,0,0,0,0,0,0,0,0,0,0,0,0,0,0,0,0,0,0,0,0,0,0,0,0,0,0,0,0,0,0,0,0,0,0,0,0,0,0,0,0,0,0,0,0,0,0,0,0,0,0,0,0,0,0,0,0,0,0,0,
0,0,0,0,0,0,0,0,0,0,0,0,0,0,0,0,0,0,0,0,0,0,0,0,0,0,0,0,0,0,0,0,0,0,0,0,0,0,0,0,0,0,0,0,0,0,0,0,0,0,0,0,0,0,0,0,0,0,0,0,
0,0,0,0,0,0,0,0,0,0,0,0,0,0,0,0,0,0,0,0,0,0,0,0,0,0,0,0,0,0,0,0,0,0,0,0,0,0,0,0,0,0,0,0,0,0,0,0,0,0,0,0,0,0,0,0,0,0,0,0,
0,0,0,0,0,0,0,0,0,0,0,0,0,0,0,0,0,0,0,0,0,0,0,0,0,0,0,0,0,0,0,0,0,0,0,0,0,0,0,0,0,0,0,0,0,0,0,0,0,0,0,0,0,0,0,0,0,0,0,0,
0,0,0,0,0,0,0,0,0,0,0,0,0,0,0,0,0,0,0,0,0,0,0,0,0,0,0,0,0,0,0,0,0,0,0,0,0,0,0,0,0,0,0,0,0,0,0,0,0,0,0,0,0,0,0,0,0,0,0,0,
0,0,0,0,0,0,0,0,0,0,0,0,0,0,0,0,0,0,0,0,0,0,0,0,0,0,0,0,0,0,0,0,0,0,0,0,0,0,0,0,0,0,0,0,0,0,0,0,0,0,0,0,0,0,0,0,0,0,0,0,
0,0,0,0,0,0,0,0,0,0,0,0,0,0,0,0,0,0,0,0,0,0,0,0,0,0,0,0,0,0,0,0,0,0,0,0,0,0,0,0,0,0,0,0,0,0,0,0,0,0,0,0,0,0,0,0,0,0,0,0,
0,0,0,0,0,0,0,0,0,0,0,0,0,0,0,0,0,0,0,0,0,0,0,0,0,0,0,0,0,0,0,0,0,0,0,0,0,0,0,0,0,0,0,0,0,0,0,0,0,0,0,0,0,0,0,0,0,0,0,0,
0,0,0,0,0,0,0,0,0,0,0,0,0,0,0,0,0,0,0,0,0,0,0,0,0,0,0,0,0,0,0,0,0,0,0,0,0,0,0,0,0,0,0,0,0,0,0,0,0,0,0,0,0,0,0,0,0,0,0,0,
0,0,0,0,0,0,0,0,0,0,0,0,0,0,0,0,0,0,0,0,0,0,0,0,0,0,0,0,0,0,0,0,0,0,0,0,0,0,0,0,0,0,0,0,0,0,0,0,0,0,0,0,0,0,0,0,0,0,0,0,
0,0,0,0,0,0,0,0,0,0,0,0,0,0,0,0,0,0,0,0,0,0,0,0,0,0,0,0,0,0,0,0,0,0,0,0,0,0,0,0,0,0,0,0,0,0,0,0,0,0,0,0,0,0,0,0,0,0,0,0,
0,0,0,0,0,0,0,0,0,0,0,0,0,0,0,0,0,0,0,0,0,0,0,0,0,0,0,0,0,0,0,0,0,0,0,0,0,0,0,0,0,0,0,0,0,0,0,0,0,0,0,0,0,0,0,0,0,0,0,0,
0,0,0,0,0,0,0,0,0,0,0,0,0,0,0,0,0,0,0,0,0,0,0,0,0,0,0,0,0,0,0,0,0,0,0,0,0,0,0,0,0,0,0,0,0,0,0,0,0,0,0,0,0,0,0,0,0,0,0,0,
0,0,0,0,0,0,0,0,0,0,0,0,0,0,0,0,0,0,0,0,0,0,0,0,0,0,0,0,0,0,0,0,0,0,0,0,0,0,0,0,0,0,0,0,0,0,0,0,0,0,0,0,0,0,0,0,0,0,0,0,
0,0,0,0,0,0,0,0,0,0,0,0,0,0,0,0,0,0,0,0,0,0,0,0,0,0,0,0,0,0,0,0,0,0,0,0,0,0,0,0,0,0,0,0,0,0,0,0,0,0,0,0,0,0,0,0,0,0,0,0,
0,0,0,0,0,0,0,0,0,0,0,0,0,0,0,0,0,0,0,0,0,0,0,0,0,0,0,0,0,0,0,0,0,0,0,0,0,0,0,0,0,0,0,0,0,0,0,0,0,0,0,0,0,0,0,0,0,0,0,0,
0,0,0,0,0,0,0,0,0,0,0,0,0,0,0,0,0,0,0,0,0,0,0,0,0,0,0,0,0,0,0,0,0,0,0,0,0,0,0,0,0,0,0,0,0,0,0,0,0,0,0,0,0,0,0,0,0,0,0,0,
0,0,0,0,0,0,0,0,0,0,0,0,0,0,0,0,0,0,0,0,0,0,0,0,0,0,0,0,0,0,0,0,0,0,0,0,0,0,0,0,0,0,0,0,0,0,0,0,0,0,0,0,0,0,0,0,0,0,0,0,
0,0,0,0,0,0,0,0,0,0,0,0,0,0,0,0,0,0,0,0,0,0,0,0,0,0,0,0,0,0,0,0,0,0,0,0,0,0,0,0,0,0,0,0,0,0,0,0,0,0,0,0,0,0,0,0,0,0,0,0,
0,0,0,0,0,0,0,0,0,0,0,0,0,0,0,0,0,0,0,0,0,0,0,0,0,0,0,0,0,0,0,0,0,0,0,0,0,0,0,0,0,0,0,0,0,0,0,0,0,0,0,0,0,0,0,0,0,0,0,0,
0,0,0,0,0,0,0,0,0,0,0,0,0,0,0,0,0,0,0,0,0,0,0,0,0,0,0,0,0,0,0,0,0,0,0,0,0,0,0,0,0,0,0,0,0,0,0,0,0,0,0,0,0,0,0,0,0,0,0,0,
0,0,0,0,0,0,0,0,0,0,0,0,0,0,0,0,0,0,0,0,0,0,0,0,0,0,0,0,0,0,0,0,0,0,0,0,0,0,0,0,0,0,0,0,0,0,0,0,0,0,0,0,0,0,0,0,0,0,0,0,
0,0,0,0,0,0,0,0,0,0,0,0,0,0,0,0,0,0,0,0,0,0,0,0,0,0,0,0,0,0,0,0,0,0,0,0,0,0,0,0,0,0,0,0,0,0,0,0,0,0,0,0,0,0,0,0,0,0,0,0,
0,0,0,0,0,0,0,0,0,0,0,0,0,0,0,0,0,0,0,0,0,0,0,0,0,0,0,0,0,0,0,0,0,0,0,0,0,0,0,0,0,0,0,0,0,0,0,0,0,0,0,0,0,0,0,0,0,0,0,0,
0,0,0,0,0,0,0,0,0,0,0,0,0,0,0,0,0,0,0,0,0,0,0,0,0,0,0,0,0,0,0,0,0,0,0,0,0,0,0,0,0,0,0,0,0,0,0,0,0,0,0,0,0,0,0,0,0,0,0,0,
0,0,0,0,0,0,0,0,0,0,0,0,0,0,0,0,0,0,0,0,0,0,0,0,0,0,0,0,0,0,0,0,0,0,0,0,0,0,0,0,0,0,0,0,0,0,0,0,0,0,0,0,0,0,0,0,0,0,0,0
</data>
 </layer>
 <layer id="18" name="89_rule_anchor" width="60" height="40">
  <data encoding="csv">
0,0,0,0,0,0,0,0,0,0,0,0,0,0,0,0,0,0,0,0,0,0,0,0,0,0,0,0,0,0,0,0,0,0,0,0,0,0,0,0,0,0,0,0,0,0,0,0,0,0,0,0,0,0,0,0,0,0,0,0,
0,0,0,0,0,0,0,0,0,0,0,0,0,0,0,0,0,0,0,0,0,0,0,0,0,0,0,0,0,0,0,0,0,0,0,0,0,0,0,0,0,0,0,0,0,0,0,0,0,0,0,0,0,0,0,0,0,0,0,0,
0,0,0,0,0,0,0,0,0,0,0,0,0,0,0,0,0,0,0,0,0,0,0,0,0,0,0,0,0,0,0,0,0,0,0,0,0,0,0,0,0,0,0,0,0,0,0,0,0,0,0,0,0,0,0,0,0,0,0,0,
0,0,0,0,0,0,0,0,0,0,0,0,0,0,0,0,0,0,0,0,0,0,0,0,0,0,0,0,0,0,0,0,0,0,0,0,0,0,0,0,0,0,0,0,0,0,0,0,0,0,0,0,0,0,0,0,0,0,0,0,
0,0,0,0,0,0,0,0,0,0,0,0,0,0,0,0,0,0,0,0,0,0,0,0,0,0,0,0,0,0,0,0,0,0,0,0,0,0,0,0,0,0,0,0,0,0,0,0,0,0,0,0,0,0,0,0,0,0,0,0,
0,0,0,0,0,0,0,0,0,0,0,0,0,0,0,0,0,0,0,0,0,0,0,0,0,0,0,0,0,0,0,0,0,0,0,0,0,0,0,0,0,0,0,0,0,0,0,0,0,0,0,0,0,0,0,0,0,0,0,0,
0,0,0,0,0,0,0,0,0,0,0,0,0,0,0,0,0,0,0,0,0,0,0,0,0,0,0,0,0,0,0,0,0,0,0,0,0,0,0,0,0,0,0,0,0,0,0,0,0,0,0,0,0,0,0,0,0,0,0,0,
0,0,0,0,0,0,0,0,0,0,0,0,0,0,0,0,0,0,0,0,0,0,0,0,0,0,0,0,0,0,0,0,0,0,0,0,0,0,0,0,0,0,0,0,0,0,0,0,0,0,0,0,0,0,0,0,0,0,0,0,
0,0,0,0,0,0,0,0,0,0,0,0,0,0,0,0,0,0,0,0,0,0,0,0,0,0,0,0,0,0,0,0,0,0,0,0,0,0,0,0,0,0,0,0,0,0,0,0,0,0,0,0,0,0,0,0,0,0,0,0,
0,0,0,0,0,0,0,0,0,0,0,0,0,0,0,0,0,0,0,0,0,0,0,0,0,0,0,0,0,0,0,0,0,0,0,0,0,0,0,0,0,0,0,0,0,0,0,0,0,0,0,0,0,0,0,0,0,0,0,0,
0,0,0,0,0,0,0,0,0,0,0,0,0,0,0,0,0,0,0,0,0,0,0,0,0,0,0,0,0,0,0,0,0,0,0,0,0,0,0,0,0,0,0,0,0,0,0,0,0,0,0,0,0,0,0,0,0,0,0,0,
0,0,0,0,0,0,0,0,0,0,0,0,0,0,0,0,0,0,0,0,0,0,0,0,0,0,0,0,0,0,0,0,0,0,0,0,0,0,0,0,0,0,0,0,0,0,0,0,0,0,0,0,0,0,0,0,0,0,0,0,
0,0,0,0,0,0,0,0,0,0,0,0,0,0,0,0,0,0,0,0,0,0,0,0,0,0,0,0,0,0,0,0,0,0,0,0,0,0,0,0,0,0,0,0,0,0,0,0,0,0,0,0,0,0,0,0,0,0,0,0,
0,0,0,0,0,0,0,0,0,0,0,0,0,0,0,0,0,0,0,0,0,0,0,0,0,0,0,0,0,0,0,0,0,0,0,0,0,0,0,0,0,0,0,0,0,0,0,0,0,0,0,0,0,0,0,0,0,0,0,0,
0,0,0,0,0,0,0,0,0,0,0,0,0,0,0,0,0,0,0,0,0,0,0,0,0,0,0,0,0,0,0,0,0,0,0,0,0,0,0,0,0,0,0,0,0,0,0,0,0,0,0,0,0,0,0,0,0,0,0,0,
0,0,0,0,0,0,0,0,0,0,0,0,0,0,0,0,0,0,0,0,0,0,0,0,0,0,0,0,0,0,0,0,0,0,0,0,0,0,0,0,0,0,0,0,0,0,0,0,0,0,0,0,0,0,0,0,0,0,0,0,
0,0,0,0,0,0,0,0,0,0,0,0,0,0,0,0,0,0,0,0,0,0,0,0,0,0,0,0,0,0,0,0,0,0,0,0,0,0,0,0,0,0,0,0,0,0,0,0,0,0,0,0,0,0,0,0,0,0,0,0,
0,0,0,0,0,0,0,0,0,0,0,0,0,0,0,0,0,0,0,0,0,0,0,0,0,0,0,0,0,0,0,0,0,0,0,0,0,0,0,0,0,0,0,0,0,0,0,0,0,0,0,0,0,0,0,0,0,0,0,0,
0,0,0,0,0,0,0,0,0,0,0,0,0,0,0,0,0,0,0,0,0,0,0,0,0,0,0,0,0,0,0,0,0,0,0,0,0,0,0,0,0,0,0,0,0,0,0,0,0,0,0,0,0,0,0,0,0,0,0,0,
0,0,0,0,0,0,0,0,0,0,0,0,0,0,0,0,0,0,0,0,0,0,0,0,0,0,0,0,0,0,0,0,0,0,0,0,0,0,0,0,0,0,0,0,0,0,0,0,0,0,0,0,0,0,0,0,0,0,0,0,
0,0,0,0,0,0,0,0,0,0,0,0,0,0,0,0,0,0,0,0,0,0,0,0,0,0,0,0,0,0,0,0,0,0,0,0,0,0,0,0,0,0,0,0,0,0,0,0,0,0,0,0,0,0,0,0,0,0,0,0,
0,0,0,0,0,0,0,0,0,0,0,0,0,0,0,0,0,0,0,0,0,0,0,0,0,0,0,0,0,0,0,0,0,0,0,0,0,0,0,0,0,0,0,0,0,0,0,0,0,0,0,0,0,0,0,0,0,0,0,0,
0,0,0,0,0,0,0,0,0,0,0,0,0,0,0,0,0,0,0,0,0,0,0,0,0,0,0,0,0,0,0,0,0,0,0,0,0,0,0,0,0,0,0,0,0,0,0,0,0,0,0,0,0,0,0,0,0,0,0,0,
0,0,0,0,0,0,0,0,0,0,0,0,0,0,0,0,0,0,0,0,0,0,0,0,0,0,0,0,0,0,0,0,0,0,0,0,0,0,0,0,0,0,0,0,0,0,0,0,0,0,0,0,0,0,0,0,0,0,0,0,
0,0,0,0,0,0,0,0,0,0,0,0,0,0,0,0,0,0,0,0,0,0,0,0,0,0,0,0,0,0,0,0,0,0,0,0,0,0,0,0,0,0,0,0,0,0,0,0,0,0,0,0,0,0,0,0,0,0,0,0,
0,0,0,0,0,0,0,0,0,0,0,0,0,0,0,0,0,0,0,0,0,0,0,0,0,0,0,0,0,0,0,0,0,0,0,0,0,0,0,0,0,0,0,0,0,0,0,0,0,0,0,0,0,0,0,0,0,0,0,0,
0,0,0,0,0,0,0,0,0,0,0,0,0,0,0,0,0,0,0,0,0,0,0,0,0,0,0,0,0,0,0,0,0,0,0,0,0,0,0,0,0,0,0,0,0,0,0,0,0,0,0,0,0,0,0,0,0,0,0,0,
0,0,0,0,0,0,0,0,0,0,0,0,0,0,0,0,0,0,0,0,0,0,0,0,0,0,0,0,0,0,0,0,0,0,0,0,0,0,0,0,0,0,0,0,0,0,0,0,0,0,0,0,0,0,0,0,0,0,0,0,
0,0,0,0,0,0,0,0,0,0,0,0,0,0,0,0,0,0,0,0,0,0,0,0,0,0,0,0,0,0,0,0,0,0,0,0,0,0,0,0,0,0,0,0,0,0,0,0,0,0,0,0,0,0,0,0,0,0,0,0,
0,0,0,0,0,0,0,0,0,0,0,0,0,0,0,0,0,0,0,0,0,0,0,0,0,0,0,0,0,0,0,0,0,0,0,0,0,0,0,0,0,0,0,0,0,0,0,0,0,0,0,0,0,0,0,0,0,0,0,0,
0,0,0,0,0,0,0,0,0,0,0,0,0,0,0,0,0,0,0,0,0,0,0,0,0,0,0,0,0,0,0,0,0,0,0,0,0,0,0,0,0,0,0,0,0,0,0,0,0,0,0,0,0,0,0,0,0,0,0,0,
0,0,0,0,0,0,0,0,0,0,0,0,0,0,0,0,0,0,0,0,0,0,0,0,0,0,0,0,0,0,0,0,0,0,0,0,0,0,0,0,0,0,0,0,0,0,0,0,0,0,0,0,0,0,0,0,0,0,0,0,
0,0,0,0,0,0,0,0,0,0,0,0,0,0,0,0,0,0,0,0,0,0,0,0,0,0,0,0,0,0,0,0,0,0,0,0,0,0,0,0,0,0,0,0,0,0,0,0,0,0,0,0,0,0,0,0,0,0,0,0,
0,0,0,0,0,0,0,0,0,0,0,0,0,0,0,0,0,0,0,0,0,0,0,0,0,0,0,0,0,0,0,0,0,0,0,0,0,0,0,0,0,0,0,0,0,0,0,0,0,0,0,0,0,0,0,0,0,0,0,0,
0,0,0,0,0,0,0,0,0,0,0,0,0,0,0,0,0,0,0,0,0,0,0,0,0,0,0,0,0,0,0,0,0,0,0,0,0,0,0,0,0,0,0,0,0,0,0,0,0,0,0,0,0,0,0,0,0,0,0,0,
0,0,0,0,0,0,0,0,0,0,0,0,0,0,0,0,0,0,0,0,0,0,0,0,0,0,0,0,0,0,0,0,0,0,0,0,0,0,0,0,0,0,0,0,0,0,0,0,0,0,0,0,0,0,0,0,0,0,0,0,
0,0,0,0,0,0,0,0,0,0,0,0,0,0,0,0,0,0,0,0,0,0,0,0,0,0,0,0,0,0,0,0,0,0,0,0,0,0,0,0,0,0,0,0,0,0,0,0,0,0,0,0,0,0,0,0,0,0,0,0,
0,0,0,0,0,0,0,0,0,0,0,0,0,0,0,0,0,0,0,0,0,0,0,0,0,0,0,0,0,0,0,0,0,0,0,0,0,0,0,0,0,0,0,0,0,0,0,0,0,0,0,0,0,0,0,0,0,0,0,0,
0,0,0,0,0,0,0,0,0,0,0,0,0,0,0,0,0,0,0,0,0,0,0,0,0,0,0,0,0,0,0,0,0,0,0,0,0,0,0,0,0,0,0,0,0,0,0,0,0,0,0,0,0,0,0,0,0,0,0,0,
0,0,0,0,0,0,0,0,0,0,0,0,0,0,0,0,0,0,0,0,0,0,0,0,0,0,0,0,0,0,0,0,0,0,0,0,0,0,0,0,0,0,0,0,0,0,0,0,0,0,0,0,0,0,0,0,0,0,0,0
</data>
 </layer>
 <objectgroup id="4" name="90_collisions">
  <object id="3772" name="coll_tree" type="collision" x="272" y="560" width="16" height="16">
   <properties>
    <property name="solid" type="bool" value="true"/>
   </properties>
  </object>
  <object id="3773" name="coll_tree" type="collision" x="208" y="512" width="16" height="16">
   <properties>
    <property name="solid" type="bool" value="true"/>
   </properties>
  </object>
  <object id="3774" name="coll_tree" type="collision" x="112" y="560" width="16" height="16">
   <properties>
    <property name="solid" type="bool" value="true"/>
   </properties>
  </object>
  <object id="3775" name="coll_tree" type="collision" x="144" y="432" width="16" height="16">
   <properties>
    <property name="solid" type="bool" value="true"/>
   </properties>
  </object>
  <object id="3776" name="coll_tree" type="collision" x="240" y="368" width="16" height="16">
   <properties>
    <property name="solid" type="bool" value="true"/>
   </properties>
  </object>
  <object id="3777" name="coll_tree" type="collision" x="80" y="288" width="16" height="16">
   <properties>
    <property name="solid" type="bool" value="true"/>
   </properties>
  </object>
  <object id="3778" name="coll_tree" type="collision" x="80" y="144" width="16" height="16">
   <properties>
    <property name="solid" type="bool" value="true"/>
   </properties>
  </object>
  <object id="3779" name="coll_tree" type="collision" x="288" y="112" width="16" height="16">
   <properties>
    <property name="solid" type="bool" value="true"/>
   </properties>
  </object>
  <object id="3780" name="coll_tree" type="collision" x="368" y="16" width="16" height="16">
   <properties>
    <property name="solid" type="bool" value="true"/>
   </properties>
  </object>
  <object id="3781" name="coll_tree" type="collision" x="400" y="176" width="16" height="16">
   <properties>
    <property name="solid" type="bool" value="true"/>
   </properties>
  </object>
  <object id="3782" name="coll_tree" type="collision" x="464" y="272" width="16" height="16">
   <properties>
    <property name="solid" type="bool" value="true"/>
   </properties>
  </object>
  <object id="3783" name="coll_tree" type="collision" x="320" y="208" width="16" height="16">
   <properties>
    <property name="solid" type="bool" value="true"/>
   </properties>
  </object>
  <object id="3784" name="coll_tree" type="collision" x="432" y="400" width="16" height="16">
   <properties>
    <property name="solid" type="bool" value="true"/>
   </properties>
  </object>
  <object id="3785" name="coll_tree" type="collision" x="560" y="368" width="16" height="16">
   <properties>
    <property name="solid" type="bool" value="true"/>
   </properties>
  </object>
  <object id="3786" name="coll_tree" type="collision" x="592" y="160" width="16" height="16">
   <properties>
    <property name="solid" type="bool" value="true"/>
   </properties>
  </object>
  <object id="3787" name="coll_tree" type="collision" x="464" y="80" width="16" height="16">
   <properties>
    <property name="solid" type="bool" value="true"/>
   </properties>
  </object>
  <object id="3788" name="coll_tree" type="collision" x="560" y="48" width="16" height="16">
   <properties>
    <property name="solid" type="bool" value="true"/>
   </properties>
  </object>
  <object id="3789" name="coll_tree" type="collision" x="672" y="48" width="16" height="16">
   <properties>
    <property name="solid" type="bool" value="true"/>
   </properties>
  </object>
  <object id="3790" name="coll_tree" type="collision" x="832" y="176" width="16" height="16">
   <properties>
    <property name="solid" type="bool" value="true"/>
   </properties>
  </object>
  <object id="3791" name="coll_tree" type="collision" x="880" y="80" width="16" height="16">
   <properties>
    <property name="solid" type="bool" value="true"/>
   </properties>
  </object>
  <object id="3792" name="coll_tree" type="collision" x="928" y="192" width="16" height="16">
   <properties>
    <property name="solid" type="bool" value="true"/>
   </properties>
  </object>
  <object id="3793" name="coll_tree" type="collision" x="896" y="432" width="16" height="16">
   <properties>
    <property name="solid" type="bool" value="true"/>
   </properties>
  </object>
  <object id="3800" name="coll_tree" type="collision" x="768" y="432" width="16" height="16">
   <properties>
    <property name="solid" type="bool" value="true"/>
   </properties>
  </object>
  <object id="3801" name="coll_tree" type="collision" x="608" y="512" width="16" height="16">
   <properties>
    <property name="solid" type="bool" value="true"/>
   </properties>
  </object>
  <object id="3802" name="coll_tree" type="collision" x="704" y="592" width="16" height="16">
   <properties>
    <property name="solid" type="bool" value="true"/>
   </properties>
  </object>
  <object id="3803" name="coll_tree" type="collision" x="928" y="592" width="16" height="16">
   <properties>
    <property name="solid" type="bool" value="true"/>
   </properties>
  </object>
  <object id="3804" name="coll_tree" type="collision" x="848" y="544" width="16" height="16">
   <properties>
    <property name="solid" type="bool" value="true"/>
   </properties>
  </object>
  <object id="3805" name="coll_tree" type="collision" x="368" y="592" width="16" height="16">
   <properties>
    <property name="solid" type="bool" value="true"/>
   </properties>
  </object>
  <object id="3806" name="coll_tree" type="collision" x="768" y="272" width="16" height="16">
   <properties>
    <property name="solid" type="bool" value="true"/>
   </properties>
  </object>
  <object id="3807" name="coll_tree" type="collision" x="160" y="256" width="16" height="16">
   <properties>
    <property name="solid" type="bool" value="true"/>
   </properties>
  </object>
  <object id="3808" name="coll_tree" type="collision" x="400" y="288" width="16" height="16">
   <properties>
    <property name="solid" type="bool" value="true"/>
   </properties>
  </object>
  <object id="3809" name="coll_tree" type="collision" x="832" y="176" width="16" height="16">
   <properties>
    <property name="solid" type="bool" value="true"/>
   </properties>
  </object>
  <object id="3810" name="coll_tree" type="collision" x="672" y="48" width="16" height="16">
   <properties>
    <property name="solid" type="bool" value="true"/>
   </properties>
  </object>
  <object id="3811" name="coll_tree" type="collision" x="560" y="48" width="16" height="16">
   <properties>
    <property name="solid" type="bool" value="true"/>
   </properties>
  </object>
  <object id="3812" name="coll_tree" type="collision" x="368" y="16" width="16" height="16">
   <properties>
    <property name="solid" type="bool" value="true"/>
   </properties>
  </object>
  <object id="3813" name="coll_tree" type="collision" x="80" y="144" width="16" height="16">
   <properties>
    <property name="solid" type="bool" value="true"/>
   </properties>
  </object>
  <object id="3814" name="coll_tree" type="collision" x="288" y="112" width="16" height="16">
   <properties>
    <property name="solid" type="bool" value="true"/>
   </properties>
  </object>
  <object id="3815" name="coll_tree" type="collision" x="272" y="560" width="16" height="16">
   <properties>
    <property name="solid" type="bool" value="true"/>
   </properties>
  </object>
  <object id="3816" name="coll_tree" type="collision" x="464" y="272" width="16" height="16">
   <properties>
    <property name="solid" type="bool" value="true"/>
   </properties>
  </object>
  <object id="3817" name="coll_tree" type="collision" x="560" y="368" width="16" height="16">
   <properties>
    <property name="solid" type="bool" value="true"/>
   </properties>
  </object>
  <object id="3818" name="coll_tree" type="collision" x="928" y="192" width="16" height="16">
   <properties>
    <property name="solid" type="bool" value="true"/>
   </properties>
  </object>
  <object id="3819" name="coll_tree" type="collision" x="768" y="432" width="16" height="16">
   <properties>
    <property name="solid" type="bool" value="true"/>
   </properties>
  </object>
  <object id="3820" name="coll_tree" type="collision" x="928" y="592" width="16" height="16">
   <properties>
    <property name="solid" type="bool" value="true"/>
   </properties>
  </object>
  <object id="3821" name="coll_tree" type="collision" x="704" y="464" width="16" height="16">
   <properties>
    <property name="solid" type="bool" value="true"/>
   </properties>
  </object>
  <object id="3822" name="coll_tree" type="collision" x="544" y="544" width="16" height="16">
   <properties>
    <property name="solid" type="bool" value="true"/>
   </properties>
  </object>
  <object id="3823" name="coll_tree" type="collision" x="752" y="176" width="16" height="16">
   <properties>
    <property name="solid" type="bool" value="true"/>
   </properties>
  </object>
  <object id="3824" name="coll_tree" type="collision" x="352" y="96" width="16" height="16">
   <properties>
    <property name="solid" type="bool" value="true"/>
   </properties>
  </object>
  <object id="3825" name="coll_tree" type="collision" x="224" y="64" width="16" height="16">
   <properties>
    <property name="solid" type="bool" value="true"/>
   </properties>
  </object>
  <object id="3826" name="coll_tree" type="collision" x="144" y="64" width="16" height="16">
   <properties>
    <property name="solid" type="bool" value="true"/>
   </properties>
  </object>
  <object id="3827" name="coll_tree" type="collision" x="48" y="400" width="16" height="16">
   <properties>
    <property name="solid" type="bool" value="true"/>
   </properties>
  </object>
  <object id="3828" name="coll_tree" type="collision" x="48" y="592" width="16" height="16">
   <properties>
    <property name="solid" type="bool" value="true"/>
   </properties>
  </object>
  <object id="3829" name="coll_bush" type="collision" x="832" y="624" width="48" height="16">
   <properties>
    <property name="entity_id" value="bush"/>
    <property name="solid" type="bool" value="true"/>
   </properties>
  </object>
  <object id="3830" name="coll_bush" type="collision" x="880" y="608" width="48" height="16">
   <properties>
    <property name="entity_id" value="bush"/>
    <property name="solid" type="bool" value="true"/>
   </properties>
  </object>
  <object id="3831" name="coll_bush" type="collision" x="912" y="624" width="48" height="16">
   <properties>
    <property name="entity_id" value="bush"/>
    <property name="solid" type="bool" value="true"/>
   </properties>
  </object>
  <object id="3832" name="coll_bush" type="collision" x="800" y="608" width="48" height="16">
   <properties>
    <property name="entity_id" value="bush"/>
    <property name="solid" type="bool" value="true"/>
   </properties>
  </object>
  <object id="3833" name="coll_bush" type="collision" x="752" y="608" width="48" height="32">
   <properties>
    <property name="entity_id" value="bush"/>
    <property name="solid" type="bool" value="true"/>
   </properties>
  </object>
  <object id="3834" name="coll_bush" type="collision" x="704" y="608" width="48" height="32">
   <properties>
    <property name="entity_id" value="bush"/>
    <property name="solid" type="bool" value="true"/>
   </properties>
  </object>
  <object id="3835" name="coll_bush" type="collision" x="672" y="608" width="32" height="16">
   <properties>
    <property name="entity_id" value="bush"/>
    <property name="solid" type="bool" value="true"/>
   </properties>
  </object>
  <object id="3836" name="coll_bush" type="collision" x="640" y="624" width="32" height="16">
   <properties>
    <property name="entity_id" value="bush"/>
    <property name="solid" type="bool" value="true"/>
   </properties>
  </object>
  <object id="3837" name="coll_bush" type="collision" x="592" y="608" width="32" height="16">
   <properties>
    <property name="entity_id" value="bush"/>
    <property name="solid" type="bool" value="true"/>
   </properties>
  </object>
  <object id="3838" name="coll_bush" type="collision" x="624" y="608" width="32" height="16">
   <properties>
    <property name="entity_id" value="bush"/>
    <property name="solid" type="bool" value="true"/>
   </properties>
  </object>
  <object id="3839" name="coll_bush" type="collision" x="544" y="624" width="48" height="16">
   <properties>
    <property name="entity_id" value="bush"/>
    <property name="solid" type="bool" value="true"/>
   </properties>
  </object>
  <object id="3840" name="coll_bush" type="collision" x="528" y="592" width="48" height="32">
   <properties>
    <property name="entity_id" value="bush"/>
    <property name="solid" type="bool" value="true"/>
   </properties>
  </object>
  <object id="3841" name="coll_bush" type="collision" x="416" y="592" width="48" height="32">
   <properties>
    <property name="entity_id" value="bush"/>
    <property name="solid" type="bool" value="true"/>
   </properties>
  </object>
  <object id="3842" name="coll_bush" type="collision" x="368" y="608" width="48" height="32">
   <properties>
    <property name="entity_id" value="bush"/>
    <property name="solid" type="bool" value="true"/>
   </properties>
  </object>
  <object id="3843" name="coll_bush" type="collision" x="320" y="608" width="48" height="16">
   <properties>
    <property name="entity_id" value="bush"/>
    <property name="solid" type="bool" value="true"/>
   </properties>
  </object>
  <object id="3844" name="coll_bush" type="collision" x="272" y="624" width="48" height="16">
   <properties>
    <property name="entity_id" value="bush"/>
    <property name="solid" type="bool" value="true"/>
   </properties>
  </object>
  <object id="3845" name="coll_bush" type="collision" x="240" y="608" width="48" height="16">
   <properties>
    <property name="entity_id" value="bush"/>
    <property name="solid" type="bool" value="true"/>
   </properties>
  </object>
  <object id="3846" name="coll_bush" type="collision" x="208" y="624" width="32" height="16">
   <properties>
    <property name="entity_id" value="bush"/>
    <property name="solid" type="bool" value="true"/>
   </properties>
  </object>
  <object id="3847" name="coll_bush" type="collision" x="128" y="624" width="32" height="16">
   <properties>
    <property name="entity_id" value="bush"/>
    <property name="solid" type="bool" value="true"/>
   </properties>
  </object>
  <object id="3848" name="coll_bush" type="collision" x="80" y="608" width="32" height="16">
   <properties>
    <property name="entity_id" value="bush"/>
    <property name="solid" type="bool" value="true"/>
   </properties>
  </object>
  <object id="3849" name="coll_bush" type="collision" x="0" y="592" width="32" height="16">
   <properties>
    <property name="entity_id" value="bush"/>
    <property name="solid" type="bool" value="true"/>
   </properties>
  </object>
  <object id="3850" name="coll_bush" type="collision" x="16" y="528" width="32" height="16">
   <properties>
    <property name="entity_id" value="bush"/>
    <property name="solid" type="bool" value="true"/>
   </properties>
  </object>
  <object id="3851" name="coll_bush" type="collision" x="0" y="464" width="32" height="16">
   <properties>
    <property name="entity_id" value="bush"/>
    <property name="solid" type="bool" value="true"/>
   </properties>
  </object>
  <object id="3852" name="coll_bush" type="collision" x="0" y="384" width="32" height="16">
   <properties>
    <property name="entity_id" value="bush"/>
    <property name="solid" type="bool" value="true"/>
   </properties>
  </object>
  <object id="3853" name="coll_bush" type="collision" x="0" y="304" width="32" height="16">
   <properties>
    <property name="entity_id" value="bush"/>
    <property name="solid" type="bool" value="true"/>
   </properties>
  </object>
  <object id="3854" name="coll_bush" type="collision" x="48" y="16" width="32" height="16">
   <properties>
    <property name="entity_id" value="bush"/>
    <property name="solid" type="bool" value="true"/>
   </properties>
  </object>
  <object id="3855" name="coll_bush" type="collision" x="96" y="0" width="32" height="16">
   <properties>
    <property name="entity_id" value="bush"/>
    <property name="solid" type="bool" value="true"/>
   </properties>
  </object>
  <object id="3856" name="coll_bush" type="collision" x="176" y="0" width="32" height="16">
   <properties>
    <property name="entity_id" value="bush"/>
    <property name="solid" type="bool" value="true"/>
   </properties>
  </object>
  <object id="3857" name="coll_bush" type="collision" x="224" y="0" width="32" height="16">
   <properties>
    <property name="entity_id" value="bush"/>
    <property name="solid" type="bool" value="true"/>
   </properties>
  </object>
  <object id="3858" name="coll_bush" type="collision" x="320" y="0" width="32" height="16">
   <properties>
    <property name="entity_id" value="bush"/>
    <property name="solid" type="bool" value="true"/>
   </properties>
  </object>
  <object id="3859" name="coll_bush" type="collision" x="416" y="0" width="32" height="16">
   <properties>
    <property name="entity_id" value="bush"/>
    <property name="solid" type="bool" value="true"/>
   </properties>
  </object>
  <object id="3860" name="coll_bush" type="collision" x="528" y="16" width="32" height="16">
   <properties>
    <property name="entity_id" value="bush"/>
    <property name="solid" type="bool" value="true"/>
   </properties>
  </object>
  <object id="3861" name="coll_bush" type="collision" x="592" y="32" width="32" height="16">
   <properties>
    <property name="entity_id" value="bush"/>
    <property name="solid" type="bool" value="true"/>
   </properties>
  </object>
  <object id="3862" name="coll_bush" type="collision" x="720" y="16" width="32" height="16">
   <properties>
    <property name="entity_id" value="bush"/>
    <property name="solid" type="bool" value="true"/>
   </properties>
  </object>
  <object id="3863" name="coll_bush" type="collision" x="800" y="32" width="32" height="16">
   <properties>
    <property name="entity_id" value="bush"/>
    <property name="solid" type="bool" value="true"/>
   </properties>
  </object>
  <object id="3864" name="coll_bush" type="collision" x="912" y="16" width="32" height="16">
   <properties>
    <property name="entity_id" value="bush"/>
    <property name="solid" type="bool" value="true"/>
   </properties>
  </object>
  <object id="3865" name="coll_bush" type="collision" x="928" y="64" width="32" height="16">
   <properties>
    <property name="entity_id" value="bush"/>
    <property name="solid" type="bool" value="true"/>
   </properties>
  </object>
  <object id="3866" name="coll_bush" type="collision" x="928" y="96" width="32" height="16">
   <properties>
    <property name="entity_id" value="bush"/>
    <property name="solid" type="bool" value="true"/>
   </properties>
  </object>
  <object id="3867" name="coll_bush" type="collision" x="912" y="240" width="32" height="16">
   <properties>
    <property name="entity_id" value="bush"/>
    <property name="solid" type="bool" value="true"/>
   </properties>
  </object>
  <object id="3868" name="coll_bush" type="collision" x="928" y="352" width="32" height="16">
   <properties>
    <property name="entity_id" value="bush"/>
    <property name="solid" type="bool" value="true"/>
   </properties>
  </object>
  <object id="3869" name="coll_bush" type="collision" x="928" y="400" width="32" height="16">
   <properties>
    <property name="entity_id" value="bush"/>
    <property name="solid" type="bool" value="true"/>
   </properties>
  </object>
  <object id="3870" name="coll_bush" type="collision" x="928" y="464" width="32" height="16">
   <properties>
    <property name="entity_id" value="bush"/>
    <property name="solid" type="bool" value="true"/>
   </properties>
  </object>
  <object id="3872" name="coll_bush" type="collision" x="928" y="512" width="32" height="16">
   <properties>
    <property name="entity_id" value="bush"/>
    <property name="solid" type="bool" value="true"/>
   </properties>
  </object>
  <object id="3873" name="coll_bush" type="collision" x="912" y="544" width="48" height="32">
   <properties>
    <property name="entity_id" value="bush"/>
    <property name="solid" type="bool" value="true"/>
   </properties>
  </object>
  <object id="3876" name="coll_bush" type="collision" x="880" y="592" width="48" height="16">
   <properties>
    <property name="entity_id" value="bush"/>
    <property name="solid" type="bool" value="true"/>
   </properties>
  </object>
  <object id="3877" name="coll_bush" type="collision" x="864" y="576" width="48" height="16">
   <properties>
    <property name="entity_id" value="bush"/>
    <property name="solid" type="bool" value="true"/>
   </properties>
  </object>
  <object id="3879" name="coll_bush" type="collision" x="880" y="528" width="48" height="16">
   <properties>
    <property name="entity_id" value="bush"/>
    <property name="solid" type="bool" value="true"/>
   </properties>
  </object>
  <object id="3880" name="coll_bush" type="collision" x="928" y="480" width="48" height="32">
   <properties>
    <property name="entity_id" value="bush"/>
    <property name="solid" type="bool" value="true"/>
   </properties>
  </object>
  <object id="3881" name="coll_bush" type="collision" x="912" y="432" width="48" height="32">
   <properties>
    <property name="entity_id" value="bush"/>
    <property name="solid" type="bool" value="true"/>
   </properties>
  </object>
  <object id="3882" name="coll_bush" type="collision" x="944" y="416" width="32" height="16">
   <properties>
    <property name="entity_id" value="bush"/>
    <property name="solid" type="bool" value="true"/>
   </properties>
  </object>
  <object id="3885" name="coll_bush" type="collision" x="928" y="368" width="48" height="32">
   <properties>
    <property name="entity_id" value="bush"/>
    <property name="solid" type="bool" value="true"/>
   </properties>
  </object>
  <object id="3886" name="coll_bush" type="collision" x="896" y="320" width="48" height="32">
   <properties>
    <property name="entity_id" value="bush"/>
    <property name="solid" type="bool" value="true"/>
   </properties>
  </object>
  <object id="3887" name="coll_bush" type="collision" x="912" y="256" width="48" height="32">
   <properties>
    <property name="entity_id" value="bush"/>
    <property name="solid" type="bool" value="true"/>
   </properties>
  </object>
  <object id="3888" name="coll_bush" type="collision" x="896" y="208" width="48" height="32">
   <properties>
    <property name="entity_id" value="bush"/>
    <property name="solid" type="bool" value="true"/>
   </properties>
  </object>
  <object id="3890" name="coll_bush" type="collision" x="160" y="592" width="48" height="32">
   <properties>
    <property name="entity_id" value="bush"/>
    <property name="solid" type="bool" value="true"/>
   </properties>
  </object>
  <object id="3891" name="coll_bush" type="collision" x="16" y="608" width="48" height="32">
   <properties>
    <property name="entity_id" value="bush"/>
    <property name="solid" type="bool" value="true"/>
   </properties>
  </object>
  <object id="3892" name="coll_bush" type="collision" x="96" y="624" width="32" height="16">
   <properties>
    <property name="entity_id" value="bush"/>
    <property name="solid" type="bool" value="true"/>
   </properties>
  </object>
  <object id="3893" name="coll_bush" type="collision" x="64" y="624" width="32" height="16">
   <properties>
    <property name="entity_id" value="bush"/>
    <property name="solid" type="bool" value="true"/>
   </properties>
  </object>
  <object id="3894" name="coll_bush" type="collision" x="288" y="16" width="32" height="16">
   <properties>
    <property name="entity_id" value="bush"/>
    <property name="solid" type="bool" value="true"/>
   </properties>
  </object>
  <object id="3895" name="coll_bush" type="collision" x="256" y="16" width="32" height="16">
   <properties>
    <property name="entity_id" value="bush"/>
    <property name="solid" type="bool" value="true"/>
   </properties>
  </object>
  <object id="3897" name="coll_bush" type="collision" x="208" y="0" width="32" height="16">
   <properties>
    <property name="entity_id" value="bush"/>
    <property name="solid" type="bool" value="true"/>
   </properties>
  </object>
  <object id="3898" name="coll_bush" type="collision" x="64" y="0" width="32" height="16">
   <properties>
    <property name="entity_id" value="bush"/>
    <property name="solid" type="bool" value="true"/>
   </properties>
  </object>
  <object id="3899" name="coll_bush" type="collision" x="32" y="0" width="32" height="16">
   <properties>
    <property name="entity_id" value="bush"/>
    <property name="solid" type="bool" value="true"/>
   </properties>
  </object>
  <object id="3900" name="coll_bush" type="collision" x="0" y="32" width="48" height="16">
   <properties>
    <property name="entity_id" value="bush"/>
    <property name="solid" type="bool" value="true"/>
   </properties>
  </object>
  <object id="3901" name="coll_bush" type="collision" x="0" y="48" width="48" height="32">
   <properties>
    <property name="entity_id" value="bush"/>
    <property name="solid" type="bool" value="true"/>
   </properties>
  </object>
  <object id="3902" name="coll_bush" type="collision" x="32" y="80" width="48" height="32">
   <properties>
    <property name="entity_id" value="bush"/>
    <property name="solid" type="bool" value="true"/>
   </properties>
  </object>
  <object id="3903" name="coll_bush" type="collision" x="16" y="112" width="48" height="32">
   <properties>
    <property name="entity_id" value="bush"/>
    <property name="solid" type="bool" value="true"/>
   </properties>
  </object>
  <object id="3904" name="coll_bush" type="collision" x="0" y="144" width="48" height="32">
   <properties>
    <property name="entity_id" value="bush"/>
    <property name="solid" type="bool" value="true"/>
   </properties>
  </object>
  <object id="3905" name="coll_bush" type="collision" x="48" y="176" width="48" height="32">
   <properties>
    <property name="entity_id" value="bush"/>
    <property name="solid" type="bool" value="true"/>
   </properties>
  </object>
  <object id="3906" name="coll_bush" type="collision" x="0" y="208" width="48" height="32">
   <properties>
    <property name="entity_id" value="bush"/>
    <property name="solid" type="bool" value="true"/>
   </properties>
  </object>
  <object id="3908" name="coll_bush" type="collision" x="16" y="240" width="48" height="32">
   <properties>
    <property name="entity_id" value="bush"/>
    <property name="solid" type="bool" value="true"/>
   </properties>
  </object>
  <object id="3910" name="coll_bush" type="collision" x="16" y="272" width="48" height="32">
   <properties>
    <property name="entity_id" value="bush"/>
    <property name="solid" type="bool" value="true"/>
   </properties>
  </object>
  <object id="3911" name="coll_bush" type="collision" x="-16" y="320" width="48" height="32">
   <properties>
    <property name="entity_id" value="bush"/>
    <property name="solid" type="bool" value="true"/>
   </properties>
  </object>
  <object id="3912" name="coll_bush" type="collision" x="-16" y="352" width="48" height="32">
   <properties>
    <property name="entity_id" value="bush"/>
    <property name="solid" type="bool" value="true"/>
   </properties>
  </object>
  <object id="3913" name="coll_bush" type="collision" x="80" y="32" width="48" height="32">
   <properties>
    <property name="entity_id" value="bush"/>
    <property name="solid" type="bool" value="true"/>
   </properties>
  </object>
  <object id="3914" name="coll_bush" type="collision" x="384" y="16" width="48" height="32">
   <properties>
    <property name="entity_id" value="bush"/>
    <property name="solid" type="bool" value="true"/>
   </properties>
  </object>
  <object id="3915" name="coll_bush" type="collision" x="448" y="0" width="48" height="32">
   <properties>
    <property name="entity_id" value="bush"/>
    <property name="solid" type="bool" value="true"/>
   </properties>
  </object>
  <object id="3916" name="coll_bush" type="collision" x="496" y="32" width="48" height="32">
   <properties>
    <property name="entity_id" value="bush"/>
    <property name="solid" type="bool" value="true"/>
   </properties>
  </object>
  <object id="3917" name="coll_bush" type="collision" x="560" y="-16" width="48" height="32">
   <properties>
    <property name="entity_id" value="bush"/>
    <property name="solid" type="bool" value="true"/>
   </properties>
  </object>
  <object id="3918" name="coll_bush" type="collision" x="608" y="0" width="48" height="32">
   <properties>
    <property name="entity_id" value="bush"/>
    <property name="solid" type="bool" value="true"/>
   </properties>
  </object>
  <object id="3920" name="coll_bush" type="collision" x="688" y="48" width="48" height="32">
   <properties>
    <property name="entity_id" value="bush"/>
    <property name="solid" type="bool" value="true"/>
   </properties>
  </object>
  <object id="3921" name="coll_bush" type="collision" x="736" y="32" width="48" height="32">
   <properties>
    <property name="entity_id" value="bush"/>
    <property name="solid" type="bool" value="true"/>
   </properties>
  </object>
  <object id="3923" name="coll_bush" type="collision" x="768" y="0" width="48" height="32">
   <properties>
    <property name="entity_id" value="bush"/>
    <property name="solid" type="bool" value="true"/>
   </properties>
  </object>
  <object id="3924" name="coll_bush" type="collision" x="832" y="0" width="48" height="32">
   <properties>
    <property name="entity_id" value="bush"/>
    <property name="solid" type="bool" value="true"/>
   </properties>
  </object>
  <object id="3925" name="coll_bush" type="collision" x="880" y="-16" width="48" height="32">
   <properties>
    <property name="entity_id" value="bush"/>
    <property name="solid" type="bool" value="true"/>
   </properties>
  </object>
  <object id="3926" name="coll_bush" type="collision" x="928" y="32" width="48" height="32">
   <properties>
    <property name="entity_id" value="bush"/>
    <property name="solid" type="bool" value="true"/>
   </properties>
  </object>
  <object id="3930" name="coll_bush" type="collision" x="896" y="80" width="48" height="16">
   <properties>
    <property name="entity_id" value="bush"/>
    <property name="solid" type="bool" value="true"/>
   </properties>
  </object>
  <object id="3931" name="coll_bush" type="collision" x="896" y="112" width="48" height="32">
   <properties>
    <property name="entity_id" value="bush"/>
    <property name="solid" type="bool" value="true"/>
   </properties>
  </object>
  <object id="3932" name="coll_bush" type="collision" x="880" y="144" width="48" height="32">
   <properties>
    <property name="entity_id" value="bush"/>
    <property name="solid" type="bool" value="true"/>
   </properties>
  </object>
  <object id="3933" name="coll_bush" type="collision" x="864" y="176" width="48" height="32">
   <properties>
    <property name="entity_id" value="bush"/>
    <property name="solid" type="bool" value="true"/>
   </properties>
  </object>
  <object id="3934" name="coll_bush" type="collision" x="624" y="48" width="48" height="32">
   <properties>
    <property name="entity_id" value="bush"/>
    <property name="solid" type="bool" value="true"/>
   </properties>
  </object>
  <object id="3935" name="coll_bush" type="collision" x="16" y="432" width="48" height="32">
   <properties>
    <property name="entity_id" value="bush"/>
    <property name="solid" type="bool" value="true"/>
   </properties>
  </object>
  <object id="3936" name="coll_bush" type="collision" x="-16" y="400" width="48" height="32">
   <properties>
    <property name="entity_id" value="bush"/>
    <property name="solid" type="bool" value="true"/>
   </properties>
  </object>
  <object id="3937" name="coll_bush" type="collision" x="32" y="480" width="48" height="32">
   <properties>
    <property name="entity_id" value="bush"/>
    <property name="solid" type="bool" value="true"/>
   </properties>
  </object>
  <object id="3938" name="coll_bush" type="collision" x="0" y="512" width="48" height="16">
   <properties>
    <property name="entity_id" value="bush"/>
    <property name="solid" type="bool" value="true"/>
   </properties>
  </object>
  <object id="3939" name="coll_bush" type="collision" x="-16" y="544" width="48" height="16">
   <properties>
    <property name="entity_id" value="bush"/>
    <property name="solid" type="bool" value="true"/>
   </properties>
  </object>
  <object id="3940" name="coll_bush" type="collision" x="-16" y="560" width="48" height="32">
   <properties>
    <property name="entity_id" value="bush"/>
    <property name="solid" type="bool" value="true"/>
   </properties>
  </object>
 </objectgroup>
 <objectgroup id="6" name="91_npcs"/>
 <objectgroup id="7" name="92_objects"/>
 <objectgroup id="9" name="93_triggers">
  <object id="3944" template="../templates/objects/trigger.tx" name="trigger_town_01" x="480" y="624" width="32" height="16">
   <properties>
    <property name="prompt" value="E - Go to town"/>
    <property name="target_map" value="town_01"/>
    <property name="target_spawn_id" value="spawn_from_forest"/>
    <property name="target_state" value="zone_select"/>
    <property name="trigger_id" value="enter_town_01"/>
    <property name="trigger_type" value=" state_transition"/>
   </properties>
  </object>
  <object id="3945" template="../templates/objects/trigger.tx" x="944" y="288" width="16" height="32"/>
  <object id="3947" template="../templates/objects/trigger.tx" name="trigger_combat_gobelin" x="144" y="528" width="48" height="32">
   <properties>
    <property name="prompt" value="E - Start a fight"/>
    <property name="trigger_id" value="trigger_combat_gobelin"/>
    <property name="trigger_type" value="combat"/>
    <property name="zone_id" value="forest_young_goblin_trail"/>
   </properties>
  </object>
 </objectgroup>
 <objectgroup id="10" name="94_spawns">
  <object id="3942" template="../templates/objects/futur_spawn.tx" name="spawn_from_town" x="496" y="624">
   <properties>
    <property name="facing" value="north"/>
    <property name="map_id" value="forest_01"/>
    <property name="spawn_id" value="spawn_from_town"/>
   </properties>
  </object>
  <object id="3943" template="../templates/objects/futur_spawn.tx" x="944" y="304"/>
 </objectgroup>
 <objectgroup id="11" name="95_npc_paths"/>
</map>
