<?xml version="1.0" encoding="UTF-8"?>
<map version="1.10" tiledversion="1.12.1" orientation="orthogonal" renderorder="right-down" width="80" height="100" tilewidth="16" tileheight="16" infinite="0" nextlayerid="17" nextobjectid="1091">
 <tileset firstgid="1" source="../tilesets/pixel_crawler_walls.tsx"/>
 <tileset firstgid="2101" source="../tilesets/pixel_crawler_floors.tsx"/>
 <tileset firstgid="2751" source="../tilesets/pixel_crawler_trees.tsx"/>
 <tileset firstgid="2907" source="../tilesets/water.tsx"/>
 <tileset firstgid="3532" source="../tilesets/pixe_crawlers_doors.tsx"/>
 <tileset firstgid="4157" source="../tilesets/house_tileset.tsx"/>
 <tileset firstgid="4782" source="../tilesets/pixel_crawler_roofs.tsx"/>
 <tileset firstgid="5407" source="../tilesets/pixel_crawler_building_shadows.tsx"/>
 <tileset firstgid="6032" source="../tilesets/pixel_crawler_vegetation.tsx"/>
 <layer id="8" name="00_test" width="80" height="100">
  <data encoding="csv">
0,0,0,0,0,0,0,0,0,0,0,0,0,0,0,0,0,0,0,0,0,0,0,0,0,0,0,0,0,0,0,0,0,0,0,0,0,0,0,0,0,0,0,0,0,0,0,0,0,0,0,0,0,0,0,0,0,0,0,0,0,0,0,0,0,0,0,0,0,0,0,0,0,0,0,0,0,0,0,0,
0,0,0,0,0,0,0,0,0,0,0,0,0,0,0,0,0,0,0,0,0,0,0,0,0,0,0,0,0,0,0,0,0,0,0,0,0,0,0,0,0,0,0,0,0,0,0,0,0,0,0,0,0,0,0,0,0,0,0,0,0,0,0,0,0,0,0,0,0,0,0,0,0,0,0,0,0,0,0,0,
0,0,0,0,0,0,0,0,0,0,0,0,0,0,0,0,0,0,0,0,0,0,0,0,0,0,0,0,0,0,0,0,0,0,0,0,0,0,0,0,0,0,0,0,0,0,0,0,0,0,0,0,0,0,0,0,0,0,0,0,0,0,0,0,0,0,0,0,0,0,0,0,0,0,0,0,0,0,0,0,
0,0,0,0,0,0,0,0,0,0,0,0,0,0,0,0,0,0,0,0,0,0,0,0,0,0,0,0,0,0,0,0,0,0,0,0,0,0,0,0,0,0,0,0,0,0,0,0,0,0,0,0,0,0,0,0,0,0,0,0,0,0,0,0,0,0,0,0,0,0,0,0,0,0,0,0,0,0,0,0,
0,0,0,0,0,0,0,0,0,0,0,0,0,0,0,0,0,0,0,0,0,0,0,0,0,0,0,0,0,0,0,0,0,0,0,0,0,0,0,0,0,0,0,0,0,0,0,0,0,0,0,0,0,0,0,0,0,0,0,0,0,0,0,0,0,0,0,0,0,0,0,0,0,0,0,0,0,0,0,0,
0,0,0,0,0,0,0,0,0,0,0,0,0,0,0,0,0,0,0,0,0,0,0,0,0,0,0,0,0,0,0,0,0,0,0,0,0,0,0,0,0,0,0,0,0,0,0,0,0,0,0,0,0,0,0,0,0,0,0,0,0,0,0,0,0,0,0,0,0,0,0,0,0,0,0,0,0,0,0,0,
0,0,0,0,0,0,0,0,0,0,0,0,0,0,0,0,0,0,0,0,0,0,0,0,0,0,0,0,0,0,0,0,0,0,0,0,0,0,0,0,0,0,0,0,0,0,0,0,0,0,0,0,0,0,0,0,0,0,0,0,0,0,0,0,0,0,0,0,0,0,0,0,0,0,0,0,0,0,0,0,
0,0,0,0,0,0,0,0,0,0,0,0,0,0,0,0,0,0,0,0,0,0,0,0,0,0,0,0,0,0,0,0,0,0,0,0,0,0,0,0,0,0,0,0,0,0,0,0,0,0,0,0,0,0,0,0,0,0,0,0,0,0,0,0,0,0,0,0,0,0,0,0,0,0,0,0,0,0,0,0,
0,0,0,0,0,0,0,0,0,0,0,0,0,0,0,0,0,0,0,0,0,0,0,0,0,0,0,0,0,0,0,0,0,0,0,0,0,0,0,0,0,0,0,0,0,0,0,0,0,0,0,0,0,0,0,0,0,0,0,0,0,0,0,0,0,0,0,0,0,0,0,0,0,0,0,0,0,0,0,0,
0,0,0,0,0,0,0,0,0,0,0,0,0,0,0,0,0,0,0,0,0,0,0,0,0,0,0,0,0,0,0,0,0,0,0,0,0,0,0,0,0,0,0,0,0,0,0,0,0,0,0,0,0,0,0,0,0,0,0,0,0,0,0,0,0,0,0,0,0,0,0,0,0,0,0,0,0,0,0,0,
0,0,0,0,0,0,0,0,0,0,0,0,0,0,0,0,0,0,0,0,0,0,0,0,0,0,0,0,0,0,0,0,0,0,0,0,0,0,0,0,0,0,0,0,0,0,0,0,0,0,0,0,0,0,0,0,0,0,0,0,0,0,0,0,0,0,0,0,0,0,0,0,0,0,0,0,0,0,0,0,
0,0,0,0,0,0,0,0,0,0,0,0,0,0,0,0,0,0,0,0,0,0,0,0,0,0,0,0,0,0,0,0,0,0,0,0,0,0,0,0,0,0,0,0,0,0,0,0,0,0,0,0,0,0,0,0,0,0,0,0,0,0,0,0,0,0,0,0,0,0,0,0,0,0,0,0,0,0,0,0,
0,0,0,0,0,0,0,0,0,0,0,0,0,0,0,0,0,0,0,0,0,0,0,0,0,0,0,0,0,0,0,0,0,0,0,0,0,0,0,0,0,0,0,0,0,0,0,0,0,0,0,0,0,0,0,0,0,0,0,0,0,0,0,0,0,0,0,0,0,0,0,0,0,0,0,0,0,0,0,0,
0,0,0,0,0,0,0,0,0,0,0,0,0,0,0,0,0,0,0,0,0,0,0,0,0,0,0,0,0,0,0,0,0,0,0,0,0,0,0,0,0,0,0,0,0,0,0,0,0,0,0,0,0,0,0,0,0,0,0,0,0,0,0,0,0,0,0,0,0,0,0,0,0,0,0,0,0,0,0,0,
0,0,0,0,0,0,0,0,0,0,0,0,0,0,0,0,0,0,0,0,0,0,0,0,0,0,0,0,0,0,0,0,0,0,0,0,0,0,0,0,0,0,0,0,0,0,0,0,0,0,0,0,0,0,0,0,0,0,0,0,0,0,0,0,0,0,0,0,0,0,0,0,0,0,0,0,0,0,0,0,
0,0,0,0,0,0,0,0,0,0,0,0,0,0,0,0,0,0,0,0,0,0,0,0,0,0,0,0,0,0,0,0,0,0,0,0,0,0,0,0,0,0,0,0,0,0,0,0,0,0,0,0,0,0,0,0,0,0,0,0,0,0,0,0,0,0,0,0,0,0,0,0,0,0,0,0,0,0,0,0,
0,0,0,0,0,0,0,0,0,0,0,0,0,0,0,0,0,0,0,0,0,0,0,0,0,0,0,0,0,0,0,0,0,0,0,0,0,0,0,0,0,0,0,0,0,0,0,0,0,0,0,0,0,0,0,0,0,0,0,0,0,0,0,0,0,0,0,0,0,0,0,0,0,0,0,0,0,0,0,0,
0,0,0,0,0,0,0,0,0,0,0,0,0,0,0,0,0,0,0,0,0,0,0,0,0,0,0,0,0,0,0,0,0,0,0,0,0,0,0,0,0,0,0,0,0,0,0,0,0,0,0,0,0,0,0,0,0,0,0,0,0,0,0,0,0,0,0,0,0,0,0,0,0,0,0,0,0,0,0,0,
0,0,0,0,0,0,0,0,0,0,0,0,0,0,0,0,0,0,0,0,0,0,0,0,0,0,0,0,0,0,0,0,0,0,0,0,0,0,0,0,0,0,0,0,0,0,0,0,0,0,0,0,0,0,0,0,0,0,0,0,0,0,0,0,0,0,0,0,0,0,0,0,0,0,0,0,0,0,0,0,
0,0,0,0,0,0,0,0,0,0,0,0,0,0,0,0,0,0,0,0,0,0,0,0,0,0,0,0,0,0,0,0,0,0,0,0,0,0,0,0,0,0,0,0,0,0,0,0,0,0,0,0,0,0,0,0,0,0,0,0,0,0,0,0,0,0,0,0,0,0,0,0,0,0,0,0,0,0,0,0,
0,0,0,0,0,0,0,0,0,0,0,0,0,0,0,0,0,0,0,0,0,0,0,0,0,0,0,0,0,0,0,0,0,0,0,0,0,0,0,0,0,0,0,0,0,0,0,0,0,0,0,0,0,0,0,0,0,0,0,0,0,0,0,0,0,0,0,0,0,0,0,0,0,0,0,0,0,0,0,0,
0,0,0,0,0,0,0,0,0,0,0,0,0,0,0,0,0,0,0,0,0,0,0,0,0,0,0,0,0,0,0,0,0,0,0,0,0,0,0,0,0,0,0,0,0,0,0,0,0,0,0,0,0,0,0,0,0,0,0,0,0,0,0,0,0,0,0,0,0,0,0,0,0,0,0,0,0,0,0,0,
0,0,0,0,0,0,0,0,0,0,0,0,0,0,0,0,0,0,0,0,0,0,0,0,0,0,0,0,0,0,0,0,0,0,0,0,0,0,0,0,0,0,0,0,0,0,0,0,0,0,0,0,0,0,0,0,0,0,0,0,0,0,0,0,0,0,0,0,0,0,0,0,0,0,0,0,0,0,0,0,
0,0,0,0,0,0,0,0,0,0,0,0,0,0,0,0,0,0,0,0,0,0,0,0,0,0,0,0,0,0,0,0,0,0,0,0,0,0,0,0,0,0,0,0,0,0,0,0,0,0,0,0,0,0,0,0,0,0,0,0,0,0,0,0,0,0,0,0,0,0,0,0,0,0,0,0,0,0,0,0,
0,0,0,0,0,0,0,0,0,0,0,0,0,0,0,0,0,0,0,0,0,0,0,0,0,0,0,0,0,0,0,0,0,0,0,0,0,0,0,0,0,0,0,0,0,0,0,0,0,0,0,0,0,0,0,0,0,0,0,0,0,0,0,0,0,0,0,0,0,0,0,0,0,0,0,0,0,0,0,0,
0,0,0,0,0,0,0,0,0,0,0,0,0,0,0,0,0,0,0,0,0,0,0,0,0,0,0,0,0,0,0,0,0,0,0,0,0,0,0,0,0,0,0,0,0,0,0,0,0,0,0,0,0,0,0,0,0,0,0,0,0,0,0,0,0,0,0,0,0,0,0,0,0,0,0,0,0,0,0,0,
0,0,0,0,0,0,0,0,0,0,0,0,0,0,0,0,0,0,0,0,0,0,0,0,0,0,0,0,0,0,0,0,0,0,0,0,0,0,0,0,0,0,0,0,0,0,0,0,0,0,0,0,0,0,0,0,0,0,0,0,0,0,0,0,0,0,0,0,0,0,0,0,0,0,0,0,0,0,0,0,
0,0,0,0,0,0,0,0,0,0,0,0,0,0,0,0,0,0,0,0,0,0,0,0,0,0,0,0,0,0,0,0,0,0,0,0,0,0,0,0,0,0,0,0,0,0,0,0,0,0,0,0,0,0,0,0,0,0,0,0,0,0,0,0,0,0,0,0,0,0,0,0,0,0,0,0,0,0,0,0,
0,0,0,0,0,0,0,0,0,0,0,0,0,0,0,0,0,0,0,0,0,0,0,0,0,0,0,0,0,0,0,0,0,0,0,0,0,0,0,0,0,0,0,0,0,0,0,0,0,0,0,0,0,0,0,0,0,0,0,0,0,0,0,0,0,0,0,0,0,0,0,0,0,0,0,0,0,0,0,0,
0,0,0,0,0,0,0,0,0,0,0,0,0,0,0,0,0,0,0,0,0,0,0,0,0,0,0,0,0,0,0,0,0,0,0,0,0,0,0,0,0,0,0,0,0,0,0,0,0,0,0,0,0,0,0,0,0,0,0,0,0,0,0,0,0,0,0,0,0,0,0,0,0,0,0,0,0,0,0,0,
0,0,0,0,0,0,0,0,0,0,0,0,0,0,0,0,0,0,0,0,0,0,0,0,0,0,0,0,0,0,0,0,0,0,0,0,0,0,0,0,0,0,0,0,0,0,0,0,0,0,0,0,0,0,0,0,0,0,0,0,0,0,0,0,0,0,0,0,0,0,0,0,0,0,0,0,0,0,0,0,
0,0,0,0,0,0,0,0,0,0,0,0,0,0,0,0,0,0,0,0,0,0,0,0,0,0,0,0,0,0,0,0,0,0,0,0,0,0,0,0,0,0,0,0,0,0,0,0,0,0,0,129,0,0,0,0,0,0,0,0,0,0,0,0,0,0,0,0,0,0,0,0,0,0,0,0,0,0,0,0,
0,0,0,0,0,0,0,0,0,0,0,0,0,0,0,0,0,0,0,0,0,0,0,0,0,0,0,0,0,0,0,0,0,0,0,0,0,0,0,0,0,0,0,0,0,0,0,0,0,0,0,0,0,0,0,0,0,0,0,0,0,0,0,0,0,0,0,0,0,0,0,0,0,0,0,0,0,0,0,0,
0,0,0,0,0,0,0,0,0,0,0,0,0,0,0,0,0,0,0,0,0,0,0,0,0,0,0,0,0,0,0,0,0,0,0,0,0,0,0,0,0,0,0,0,0,0,0,0,0,0,0,0,0,0,0,0,0,0,0,0,0,0,0,0,0,0,0,0,0,0,0,0,0,0,0,0,0,0,0,0,
0,0,0,0,0,0,0,0,0,0,0,0,0,0,0,0,0,0,0,0,0,0,0,0,0,0,0,0,0,0,0,0,0,0,0,0,0,0,0,0,0,0,0,0,0,0,0,0,0,0,0,0,0,0,0,0,0,0,0,0,0,0,0,0,0,0,0,0,0,0,0,0,0,0,0,0,0,0,0,0,
0,0,0,0,0,0,0,0,0,0,0,0,0,0,0,0,0,0,0,0,0,0,0,0,0,0,0,0,0,0,0,0,0,0,0,0,0,0,0,0,0,0,0,0,0,0,0,0,0,0,0,0,0,0,0,0,0,0,0,0,0,0,0,0,0,0,0,0,0,0,0,0,0,0,0,0,0,0,0,0,
0,0,0,0,0,0,0,0,0,0,0,0,0,0,0,0,0,0,0,0,0,0,0,0,0,0,0,0,0,0,0,0,0,0,0,0,0,0,0,0,0,0,0,0,0,0,0,0,0,0,0,0,0,0,0,0,0,0,0,0,0,0,0,0,0,0,0,0,0,0,0,0,0,0,0,0,0,0,0,0,
0,0,0,0,0,0,0,0,0,0,0,0,0,0,0,0,0,0,0,0,0,0,0,0,0,0,0,0,0,0,0,0,0,0,0,0,0,0,0,0,0,0,0,0,0,0,0,0,0,0,0,0,0,0,0,0,0,0,0,0,0,0,0,0,0,0,0,0,0,0,0,0,0,0,0,0,0,0,0,0,
0,0,0,0,0,0,0,0,0,0,0,0,0,0,0,0,0,0,0,0,0,0,0,0,0,0,0,0,0,0,0,0,0,0,0,0,0,0,0,0,0,0,0,0,0,0,0,0,0,0,0,0,0,0,0,0,0,0,0,0,0,0,0,0,0,0,0,0,0,0,0,0,0,0,0,0,0,0,0,0,
0,0,0,0,0,0,0,0,0,0,0,0,0,0,0,0,0,0,0,0,0,0,0,0,0,0,0,0,0,0,0,0,0,0,0,0,0,0,0,0,0,0,0,0,0,0,0,0,0,0,0,0,0,0,0,0,0,0,0,0,0,0,0,0,0,0,0,0,0,0,0,0,0,0,0,0,0,0,0,0,
0,0,0,0,0,0,0,0,0,0,0,0,0,0,0,0,0,0,0,0,0,0,0,0,0,0,0,0,0,0,0,0,0,0,0,0,0,0,0,0,0,0,0,0,0,0,0,0,0,0,0,0,0,0,0,0,0,0,0,0,0,0,0,0,0,0,0,0,0,0,0,0,0,0,0,0,0,0,0,0,
0,0,0,0,0,0,0,0,0,0,0,0,0,0,0,0,0,0,0,0,0,0,0,0,0,0,0,0,0,0,0,0,0,0,0,0,0,0,0,0,0,0,0,0,0,0,0,0,0,0,0,0,0,0,0,0,0,0,0,0,0,0,0,0,0,0,0,0,0,0,0,0,0,0,0,0,0,0,0,0,
0,0,0,0,0,0,0,0,0,0,0,0,0,0,0,0,0,0,0,0,0,0,0,0,0,0,0,0,0,0,0,0,0,0,0,0,0,0,0,0,0,0,0,0,0,0,0,0,0,0,0,0,0,0,0,0,0,0,0,0,0,0,0,0,0,0,0,0,0,0,0,0,0,0,0,0,0,0,0,0,
0,0,0,0,0,0,0,0,0,0,0,0,0,0,0,0,0,0,0,0,0,0,0,0,0,0,0,0,0,0,0,0,0,0,0,0,0,0,0,0,0,0,0,0,0,0,0,0,0,0,0,0,0,0,0,0,0,0,0,0,0,0,0,0,0,0,0,0,0,0,0,0,0,0,0,0,0,0,0,0,
0,0,0,0,0,0,0,0,0,0,0,0,0,0,0,0,0,0,0,0,0,0,0,0,0,0,0,0,0,0,0,0,0,0,0,0,0,0,0,0,0,0,0,0,0,0,0,0,0,0,0,0,0,0,0,0,0,0,0,0,0,0,0,0,0,0,0,0,0,0,0,0,0,0,0,0,0,0,0,0,
0,0,0,0,0,0,0,0,0,0,0,0,0,0,0,0,0,0,0,0,0,0,0,0,0,0,0,0,0,0,0,0,0,0,0,0,0,0,0,0,0,0,0,0,0,0,0,0,0,0,0,0,0,0,0,0,0,0,0,0,0,0,0,0,0,0,0,0,0,0,0,0,0,0,0,0,0,0,0,0,
0,0,0,0,0,0,0,0,0,0,0,0,0,0,0,0,0,0,0,0,0,0,0,0,0,0,0,0,0,0,0,0,0,0,0,0,0,0,0,0,0,0,0,0,0,0,0,0,0,0,0,0,0,0,0,0,0,0,0,0,0,0,0,0,0,0,0,0,0,0,0,0,0,0,0,0,0,0,0,0,
0,0,0,0,0,0,0,0,0,0,0,0,0,0,0,0,0,0,0,0,0,0,0,0,0,0,0,0,0,0,0,0,0,0,0,0,0,0,0,0,0,0,0,0,0,0,0,0,0,0,0,0,0,0,0,0,0,0,0,0,0,0,0,0,0,0,0,0,0,0,0,0,0,0,0,0,0,0,0,0,
0,0,0,0,0,0,0,0,0,0,0,0,0,0,0,0,0,0,0,0,0,0,0,0,0,0,0,0,0,0,0,0,0,0,0,0,0,0,0,0,0,0,0,0,0,0,0,0,0,0,0,0,0,0,0,0,0,0,0,0,0,0,0,0,0,0,0,0,0,0,0,0,0,0,0,0,0,0,0,0,
0,0,0,0,0,0,0,0,0,0,0,0,0,0,0,0,0,0,0,0,0,0,0,0,0,0,0,0,0,0,0,0,0,0,0,0,0,0,0,0,0,0,0,0,0,0,0,0,0,0,0,0,0,0,0,0,0,0,0,0,0,0,0,0,0,0,0,0,0,0,0,0,0,0,0,0,0,0,0,0,
0,0,0,0,0,0,0,0,0,0,0,0,0,0,0,0,0,0,0,0,0,0,0,0,0,0,0,0,0,0,0,0,0,0,0,0,0,0,0,0,0,0,0,0,0,0,0,0,0,0,0,0,0,0,0,0,0,0,0,0,0,0,0,0,0,0,0,0,0,0,0,0,0,0,0,0,0,0,0,0,
0,0,0,0,0,0,0,0,0,0,0,0,0,0,0,0,0,0,0,0,0,0,0,0,0,0,0,0,0,0,0,0,0,0,0,0,0,0,0,0,0,0,0,0,0,0,0,0,0,0,0,0,0,0,0,0,0,0,0,0,0,0,0,0,0,0,0,0,0,0,0,0,0,0,0,0,0,0,0,0,
0,0,0,0,0,0,0,0,0,0,0,0,0,0,0,0,0,0,0,0,0,0,0,0,0,0,0,0,0,0,0,0,0,0,0,0,0,0,0,0,0,0,0,0,0,0,0,0,0,0,0,0,0,0,0,0,0,0,0,0,0,0,0,0,0,0,0,0,0,0,0,0,0,0,0,0,0,0,0,0,
0,0,0,0,0,0,0,0,0,0,0,0,0,0,0,0,0,0,0,0,0,0,0,0,0,0,0,0,0,0,0,0,0,0,0,0,0,0,0,0,0,0,0,0,0,0,0,0,0,0,0,0,0,0,0,0,0,0,0,0,0,0,0,0,0,0,0,0,0,0,0,0,0,0,0,0,0,0,0,0,
0,0,0,0,0,0,0,0,0,0,0,0,0,0,0,0,0,0,0,0,0,0,0,0,0,0,0,0,0,0,0,0,0,0,0,0,0,0,0,0,0,0,0,0,0,0,0,0,0,0,0,0,0,0,0,0,0,0,0,0,0,0,0,0,0,0,0,0,0,0,0,0,0,0,0,0,0,0,0,0,
0,0,0,0,0,0,0,0,0,0,0,0,0,0,0,0,0,0,0,0,0,0,0,0,0,0,0,0,0,0,0,0,0,0,0,0,0,0,0,0,0,0,0,0,0,0,0,0,0,0,0,0,0,0,0,0,0,0,0,0,0,0,0,0,0,0,0,0,0,0,0,0,0,0,0,0,0,0,0,0,
0,0,0,0,0,0,0,0,0,0,0,0,0,0,0,0,0,0,0,0,0,0,0,0,0,0,0,0,0,0,0,0,0,0,0,0,0,0,0,0,0,0,0,0,0,0,0,0,0,0,0,0,0,0,0,0,0,0,0,0,0,0,0,0,0,0,0,0,0,0,0,0,0,0,0,0,0,0,0,0,
0,0,0,0,0,0,0,0,0,0,0,0,0,0,0,0,0,0,0,0,0,0,0,0,0,0,0,0,0,0,0,0,0,0,0,0,0,0,0,0,0,0,0,0,0,0,0,0,0,0,0,0,0,0,0,0,0,0,0,0,0,0,0,0,0,0,0,0,0,0,0,0,0,0,0,0,0,0,0,0,
0,0,0,0,0,0,0,0,0,0,0,0,0,0,0,0,0,0,0,0,0,0,0,0,0,0,0,0,0,0,0,0,0,0,0,0,0,0,0,0,0,0,0,0,0,0,0,0,0,0,0,0,0,0,0,0,0,0,0,0,0,0,0,0,0,0,0,0,0,0,0,0,0,0,0,0,0,0,0,0,
0,0,0,0,0,0,0,0,0,0,0,0,0,0,0,0,0,0,0,0,0,0,0,0,0,0,0,0,0,0,0,0,0,0,0,0,0,0,0,0,0,0,0,0,0,0,0,0,0,0,0,0,0,0,0,0,0,0,0,0,0,0,0,0,0,0,0,0,0,0,0,0,0,0,0,0,0,0,0,0,
0,0,0,0,0,0,0,0,0,0,0,0,0,0,0,0,0,0,0,0,0,0,0,0,0,0,0,0,0,0,0,0,0,0,0,0,0,0,0,0,0,0,0,0,0,0,0,0,0,0,0,0,0,0,0,0,0,0,0,0,0,0,0,0,0,0,0,0,0,0,0,0,0,0,0,0,0,0,0,0,
0,0,0,0,0,0,0,0,0,0,0,0,0,0,0,0,0,0,0,0,0,0,0,0,0,0,0,0,0,0,0,0,0,0,0,0,0,0,0,0,0,0,0,0,0,0,0,0,0,0,0,0,0,0,0,0,0,0,0,0,0,0,0,0,0,0,0,0,0,0,0,0,0,0,0,0,0,0,0,0,
0,0,0,0,0,0,0,0,0,0,0,0,0,0,0,0,0,0,0,0,0,0,0,0,0,0,0,0,0,0,0,0,0,0,0,0,0,0,0,0,0,0,0,0,0,0,0,0,0,0,0,0,0,0,0,0,0,0,0,0,0,0,0,0,0,0,0,0,0,0,0,0,0,0,0,0,0,0,0,0,
0,0,0,0,0,0,0,0,0,0,0,0,0,0,0,0,0,0,0,0,0,0,0,0,0,0,0,0,0,0,0,0,0,0,0,0,0,0,0,0,0,0,0,0,0,0,0,0,0,0,0,0,0,0,0,0,0,0,0,0,0,0,0,0,0,0,0,0,0,0,0,0,0,0,0,0,0,0,0,0,
0,0,0,0,0,0,0,0,0,0,0,0,0,0,0,0,0,0,0,0,0,0,0,0,0,0,0,0,0,0,0,0,0,0,0,0,0,0,0,0,0,0,0,0,0,0,0,0,0,0,0,0,0,0,0,0,0,0,0,0,0,0,0,0,0,0,0,0,0,0,0,0,0,0,0,0,0,0,0,0,
0,0,0,0,0,0,0,0,0,0,0,0,0,0,0,0,0,0,0,0,0,0,0,0,0,0,0,0,0,0,0,0,0,0,0,0,0,0,0,0,0,0,0,0,0,0,0,0,0,0,0,0,0,0,0,0,0,0,0,0,0,0,0,0,0,0,0,0,0,0,0,0,0,0,0,0,0,0,0,0,
0,0,0,0,0,0,0,0,0,0,0,0,0,0,0,0,0,0,0,0,0,0,0,0,0,0,0,0,0,0,0,0,0,0,0,0,0,0,0,0,0,0,0,0,0,0,0,0,0,0,0,0,0,0,0,0,0,0,0,0,0,0,0,0,0,0,0,0,0,0,0,0,0,0,0,0,0,0,0,0,
0,0,0,0,0,0,0,0,0,0,0,0,0,0,0,0,0,0,0,0,0,0,0,0,0,0,0,0,0,0,0,0,0,0,0,0,0,0,0,0,0,0,0,0,0,0,0,0,0,0,0,0,0,0,0,0,0,0,0,0,0,0,0,0,0,0,0,0,0,0,0,0,0,0,0,0,0,0,0,0,
0,0,0,0,0,0,0,0,0,0,0,0,0,0,0,0,0,0,0,0,0,0,0,0,0,0,0,0,0,0,0,0,0,0,0,0,0,0,0,0,0,0,0,0,0,0,0,0,0,0,0,0,0,0,0,0,0,0,0,0,0,0,0,0,0,0,0,0,0,0,0,0,0,0,0,0,0,0,0,0,
0,0,0,0,0,0,0,0,0,0,0,0,0,0,0,0,0,0,0,0,0,0,0,0,0,0,0,0,0,0,0,0,0,0,0,0,0,0,0,0,0,0,0,0,0,0,0,0,0,0,0,0,0,0,0,0,0,0,0,0,0,0,0,0,0,0,0,0,0,0,0,0,0,0,0,0,0,0,0,0,
0,0,0,0,0,0,0,0,0,0,0,0,0,0,0,0,0,0,0,0,0,0,0,0,0,0,0,0,0,0,0,0,0,0,0,0,0,0,0,0,0,0,0,0,0,0,0,0,0,0,0,0,0,0,0,0,0,0,0,0,0,0,0,0,0,0,0,0,0,0,0,0,0,0,0,0,0,0,0,0,
0,0,0,0,0,0,0,0,0,0,0,0,0,0,0,0,0,0,0,0,0,0,0,0,0,0,0,0,0,0,0,0,0,0,0,0,0,0,0,0,0,0,0,0,0,0,0,0,0,0,0,0,0,0,0,0,0,0,0,0,0,0,0,0,0,0,0,0,0,0,0,0,0,0,0,0,0,0,0,0,
0,0,0,0,0,0,0,0,0,0,0,0,0,0,0,0,0,0,0,0,0,0,0,0,0,0,0,0,0,0,0,0,0,0,0,0,0,0,0,0,0,0,0,0,0,0,0,0,0,0,0,0,0,0,0,0,0,0,0,0,0,0,0,0,0,0,0,0,0,0,0,0,0,0,0,0,0,0,0,0,
0,0,0,0,0,0,0,0,0,0,0,0,0,0,0,0,0,0,0,0,0,0,0,0,0,0,0,0,0,0,0,0,0,0,0,0,0,0,0,0,0,0,0,0,0,0,0,0,0,0,0,0,0,0,0,0,0,0,0,0,0,0,0,0,0,0,0,0,0,0,0,0,0,0,0,0,0,0,0,0,
0,0,0,0,0,0,0,0,0,0,0,0,0,0,0,0,0,0,0,0,0,0,0,0,0,0,0,0,0,0,0,0,0,0,0,0,0,0,0,0,0,0,0,0,0,0,0,0,0,0,0,0,0,0,0,0,0,0,0,0,0,0,0,0,0,0,0,0,0,0,0,0,0,0,0,0,0,0,0,0,
0,0,0,0,0,0,0,0,0,0,0,0,0,0,0,0,0,0,0,0,0,0,0,0,0,0,0,0,0,0,0,0,0,0,0,0,0,0,0,0,0,0,0,0,0,0,0,0,0,0,0,0,0,0,0,0,0,0,0,0,0,0,0,0,0,0,0,0,0,0,0,0,0,0,0,0,0,0,0,0,
0,0,0,0,0,0,0,0,0,0,0,0,0,0,0,0,0,0,0,0,0,0,0,0,0,0,0,0,0,0,0,0,0,0,0,0,0,0,0,0,0,0,0,0,0,0,0,0,0,0,0,0,0,0,0,0,0,0,0,0,0,0,0,0,0,0,0,0,0,0,0,0,0,0,0,0,0,0,0,0,
0,0,0,0,0,0,0,0,0,0,0,0,0,0,0,0,0,0,0,0,0,0,0,0,0,0,0,0,0,0,0,0,0,0,0,0,0,0,0,0,0,0,0,0,0,0,0,0,0,0,0,0,0,0,0,0,0,0,0,0,0,0,0,0,0,0,0,0,0,0,0,0,0,0,0,0,0,0,0,0,
0,0,0,0,0,0,0,0,0,0,0,0,0,0,0,0,0,0,0,0,0,0,0,0,0,0,0,0,0,0,0,0,0,0,0,0,0,0,0,0,0,0,0,0,0,0,0,0,0,0,0,0,0,0,0,0,0,0,0,0,0,0,0,0,0,0,0,0,0,0,0,0,0,0,0,0,0,0,0,0,
0,0,0,0,0,0,0,0,0,0,0,0,0,0,0,0,0,0,0,0,0,0,0,0,0,0,0,0,0,0,0,0,0,0,0,0,0,0,0,0,0,0,0,0,0,0,0,0,0,0,0,0,0,0,0,0,0,0,0,0,0,0,0,0,0,0,0,0,0,0,0,0,0,0,0,0,0,0,0,0,
0,0,0,0,0,0,0,0,0,0,0,0,0,0,0,0,0,0,0,0,0,0,0,0,0,0,0,0,0,0,0,0,0,0,0,0,0,0,0,0,0,0,0,0,0,0,0,0,0,0,0,0,0,0,0,0,0,0,0,0,0,0,0,0,0,0,0,0,0,0,0,0,0,0,0,0,0,0,0,0,
0,0,0,0,0,0,0,0,0,0,0,0,0,0,0,0,0,0,0,0,0,0,0,0,0,0,0,0,0,0,0,0,0,0,0,0,0,0,0,0,0,0,0,0,0,0,0,0,0,0,0,0,0,0,0,0,0,0,0,0,0,0,0,0,0,0,0,0,0,0,0,0,0,0,0,0,0,0,0,0,
0,0,0,0,0,0,0,0,0,0,0,0,0,0,0,0,0,0,0,0,0,0,0,0,0,0,0,0,0,0,0,0,0,0,0,0,0,0,0,0,0,0,0,0,0,0,0,0,0,0,0,0,0,0,0,0,0,0,0,0,0,0,0,0,0,0,0,0,0,0,0,0,0,0,0,0,0,0,0,0,
0,0,0,0,0,0,0,0,0,0,0,0,0,0,0,0,0,0,0,0,0,0,0,0,0,0,0,0,0,0,0,0,0,0,0,0,0,0,0,0,0,0,0,0,0,0,0,0,0,0,0,0,0,0,0,0,0,0,0,0,0,0,0,0,0,0,0,0,0,0,0,0,0,0,0,0,0,0,0,0,
0,0,0,0,0,0,0,0,0,0,0,0,0,0,0,0,0,0,0,0,0,0,0,0,0,0,0,0,0,0,0,0,0,0,0,0,0,0,0,0,0,0,0,0,0,0,0,0,0,0,0,0,0,0,0,0,0,0,0,0,0,0,0,0,0,0,0,0,0,0,0,0,0,0,0,0,0,0,0,0,
0,0,0,0,0,0,0,0,0,0,0,0,0,0,0,0,0,0,0,0,0,0,0,0,0,0,0,0,0,0,0,0,0,0,0,0,0,0,0,0,0,0,0,0,0,0,0,0,0,0,0,0,0,0,0,0,0,0,0,0,0,0,0,0,0,0,0,0,0,0,0,0,0,0,0,0,0,0,0,0,
0,0,0,0,0,0,0,0,0,0,0,0,0,0,0,0,0,0,0,0,0,0,0,0,0,0,0,0,0,0,0,0,0,0,0,0,0,0,0,0,0,0,0,0,0,0,0,0,0,0,0,0,0,0,0,0,0,0,0,0,0,0,0,0,0,0,0,0,0,0,0,0,0,0,0,0,0,0,0,0,
0,0,0,0,0,0,0,0,0,0,0,0,0,0,0,0,0,0,0,0,0,0,0,0,0,0,0,0,0,0,0,0,0,0,0,0,0,0,0,0,0,0,0,0,0,0,0,0,0,0,0,0,0,0,0,0,0,0,0,0,0,0,0,0,0,0,0,0,0,0,0,0,0,0,0,0,0,0,0,0,
0,0,0,0,0,0,0,0,0,0,0,0,0,0,0,0,0,0,0,0,0,0,0,0,0,0,0,0,0,0,0,0,0,0,0,0,0,0,0,0,0,0,0,0,0,0,0,0,0,0,0,0,0,0,0,0,0,0,0,0,0,0,0,0,0,0,0,0,0,0,0,0,0,0,0,0,0,0,0,0,
0,0,0,0,0,0,0,0,0,0,0,0,0,0,0,0,0,0,0,0,0,0,0,0,0,0,0,0,0,0,0,0,0,0,0,0,0,0,0,0,0,0,0,0,0,0,0,0,0,0,0,0,0,0,0,0,0,0,0,0,0,0,0,0,0,0,0,0,0,0,0,0,0,0,0,0,0,0,0,0,
0,0,0,0,0,0,0,0,0,0,0,0,0,0,0,0,0,0,0,0,0,0,0,0,0,0,0,0,0,0,0,0,0,0,0,0,0,0,0,0,0,0,0,0,0,0,0,0,0,0,0,0,0,0,0,0,0,0,0,0,0,0,0,0,0,0,0,0,0,0,0,0,0,0,0,0,0,0,0,0,
0,0,0,0,0,0,0,0,0,0,0,0,0,0,0,0,0,0,0,0,0,0,0,0,0,0,0,0,0,0,0,0,0,0,0,0,0,0,0,0,0,0,0,0,0,0,0,0,0,0,0,0,0,0,0,0,0,0,0,0,0,0,0,0,0,0,0,0,0,0,0,0,0,0,0,0,0,0,0,0,
0,0,0,0,0,0,0,0,0,0,0,0,0,0,0,0,0,0,0,0,0,0,0,0,0,0,0,0,0,0,0,0,0,0,0,0,0,0,0,0,0,0,0,0,0,0,0,0,0,0,0,0,0,0,0,0,0,0,0,0,0,0,0,0,0,0,0,0,0,0,0,0,0,0,0,0,0,0,0,0,
0,0,0,0,0,0,0,0,0,0,0,0,0,0,0,0,0,0,0,0,0,0,0,0,0,0,0,0,0,0,0,0,0,0,0,0,0,0,0,0,0,0,0,0,0,0,0,0,0,0,0,0,0,0,0,0,0,0,0,0,0,0,0,0,0,0,0,0,0,0,0,0,0,0,0,0,0,0,0,0,
0,0,0,0,0,0,0,0,0,0,0,0,0,0,0,0,0,0,0,0,0,0,0,0,0,0,0,0,0,0,0,0,0,0,0,0,0,0,0,0,0,0,0,0,0,0,0,0,0,0,0,0,0,0,0,0,0,0,0,0,0,0,0,0,0,0,0,0,0,0,0,0,0,0,0,0,0,0,0,0,
0,0,0,0,0,0,0,0,0,0,0,0,0,0,0,0,0,0,0,0,0,0,0,0,0,0,0,0,0,0,0,0,0,0,0,0,0,0,0,0,0,0,0,0,0,0,0,0,0,0,0,0,0,0,0,0,0,0,0,0,0,0,0,0,0,0,0,0,0,0,0,0,0,0,0,0,0,0,0,0,
0,0,0,0,0,0,0,0,0,0,0,0,0,0,0,0,0,0,0,0,0,0,0,0,0,0,0,0,0,0,0,0,0,0,0,0,0,0,0,0,0,0,0,0,0,0,0,0,0,0,0,0,0,0,0,0,0,0,0,0,0,0,0,0,0,0,0,0,0,0,0,0,0,0,0,0,0,0,0,0,
0,0,0,0,0,0,0,0,0,0,0,0,0,0,0,0,0,0,0,0,0,0,0,0,0,0,0,0,0,0,0,0,0,0,0,0,0,0,0,0,0,0,0,0,0,0,0,0,0,0,0,0,0,0,0,0,0,0,0,0,0,0,0,0,0,0,0,0,0,0,0,0,0,0,0,0,0,0,0,0,
0,0,0,0,0,0,0,0,0,0,0,0,0,0,0,0,0,0,0,0,0,0,0,0,0,0,0,0,0,0,0,0,0,0,0,0,0,0,0,0,0,0,0,0,0,0,0,0,0,0,0,0,0,0,0,0,0,0,0,0,0,0,0,0,0,0,0,0,0,0,0,0,0,0,0,0,0,0,0,0,
0,0,0,0,0,0,0,0,0,0,0,0,0,0,0,0,0,0,0,0,0,0,0,0,0,0,0,0,0,0,0,0,0,0,0,0,0,0,0,0,0,0,0,0,0,0,0,0,0,0,0,0,0,0,0,0,0,0,0,0,0,0,0,0,0,0,0,0,0,0,0,0,0,0,0,0,0,0,0,0
</data>
 </layer>
 <layer id="2" name="01_ground" width="80" height="100">
  <data encoding="csv">
2352,2352,2352,2352,2352,2352,2352,2352,2352,2352,2352,2352,2352,2352,2352,2352,2352,2352,2352,2352,2352,2352,2352,2352,2352,2352,2352,2352,2352,2352,2352,2352,2352,2352,2352,2352,2352,2352,2352,2352,2352,2352,2352,2352,2352,2352,2352,2352,2959,2961,2962,2907,2937,2962,2957,2959,2352,2352,2352,2352,2352,2352,2352,2352,2352,2352,2352,2352,2352,2352,2352,2352,2352,2352,2352,2352,2352,2352,2352,2352,
2352,2352,2352,2352,2352,2352,2352,2352,2352,2352,2352,2352,2352,2352,2352,2352,2352,2352,2352,2352,2352,2352,2352,2352,2352,2352,2352,2352,2352,2352,2352,2352,2352,2352,2352,2352,2352,2352,2352,2352,2352,2352,2352,2352,2352,2352,2352,2352,2959,2961,2911,3007,3011,2962,2957,2959,2352,2352,2352,2353,2352,2352,2353,2354,2353,2352,2354,2354,2354,2353,2352,2354,2352,2353,2354,2352,2352,2352,2352,2352,
2352,2352,2352,2352,2352,2352,2352,2352,2352,2352,2352,2352,2352,2352,2352,2352,2352,2352,2352,2352,2352,2352,2352,2352,2352,2352,2352,2352,2352,2352,2352,2352,2352,2354,2353,2354,2352,2352,2352,2352,2352,2352,2352,2352,2352,2352,2352,2352,2959,2961,2912,2962,2911,2962,2957,2959,2352,2352,2352,2352,2354,2354,2352,2353,2352,2353,2353,2352,2353,2354,2353,2353,2352,2354,2353,2353,2354,2352,2352,2352,
2352,2352,2352,2352,2352,2352,2352,2352,2352,2352,2352,2352,2352,2352,2352,2352,2352,2352,2352,2352,2352,2352,2352,2352,2352,2352,2352,2352,2352,2352,2352,2352,2352,2353,2354,2354,2352,2352,2352,2352,2353,2353,2353,2352,2352,2352,2352,2352,2959,2961,2962,2962,2962,2962,2957,2959,2352,2352,2352,2352,2352,2352,2353,2354,2353,2353,2352,2354,2352,2353,2354,2354,2352,2354,2352,2352,2352,2352,2352,2352,
2352,2352,2352,2352,2352,2352,2352,2352,2352,2352,2352,2352,2352,2352,2352,2352,2352,2352,2352,2352,2352,2352,2352,2352,2352,2352,2352,2352,2352,2352,2352,2352,2353,2354,2352,2353,2354,2352,2353,2354,2353,2352,2353,2353,2352,2352,2352,2352,2959,2961,2962,2962,2962,2962,2957,2959,2352,2352,2352,2352,2353,2354,2353,2354,2354,2354,2354,2352,2353,2353,2352,2353,2353,2352,2352,2352,2352,2352,2352,2352,
2352,2352,2352,2352,2352,2352,2352,2352,2352,2352,2352,2352,2352,2352,2959,2959,2959,2959,2959,2959,2352,2352,2352,2352,2352,2352,2352,2352,2352,2352,2352,2352,2353,2354,2354,2353,2353,2352,2353,2353,2352,2354,2354,2352,2352,2352,2352,2352,2959,2961,2962,2962,2962,2962,2957,2959,2352,2352,2352,2353,2354,2354,2354,2352,2352,2352,2353,2354,2352,2354,2353,2354,2352,2354,2353,2354,2353,2352,2352,2352,
2352,2352,2352,2352,2352,2352,2352,2352,2352,2352,2352,2352,2352,2959,2959,2985,3009,3009,2983,2959,2959,2352,2352,2352,2352,2352,2352,2352,2352,2352,2352,2352,2353,2353,2353,2354,2352,2354,2354,2354,2353,2352,2352,2352,2352,2352,2352,2352,2959,2961,2962,2962,2962,2962,2957,2959,2959,2352,2352,2352,2352,2352,2352,2352,2352,2352,2353,2352,2352,2353,2354,2353,2353,2352,2354,2354,2352,2352,2352,2352,
2352,2352,2352,2352,2352,2352,2352,2352,2352,2352,2352,2352,2959,2959,2985,3010,2962,2962,3008,3009,2983,2959,2959,2352,2352,2352,2352,2352,2352,2352,2354,2352,2353,2354,2352,2352,2352,2353,2352,2352,2352,2352,2352,2352,2352,2352,2352,2352,2959,2961,2962,2962,2962,2962,3008,2983,2959,2959,2959,2352,2352,2352,2352,2352,2352,2352,2352,2352,2352,2352,2352,2352,2352,2352,2352,2352,2352,2352,2352,2352,
2352,2352,2352,2352,2352,2352,2352,2352,2352,2352,2352,2959,2959,2985,3010,2962,2962,2962,2962,2962,3008,2983,2959,2352,2352,2352,2352,2352,2352,2352,2352,2353,2353,2352,2352,2352,2352,2352,2352,2352,2352,2352,2352,2352,2352,2352,2352,2352,2959,2935,2910,2962,2962,2962,2962,3008,3009,2983,2959,2959,2959,2959,2959,2959,2959,2959,2959,2352,2352,2352,2352,2352,2352,2352,2352,2352,2352,2352,2352,2352,
2352,2352,2352,2352,2352,2352,2352,2352,2352,2352,2352,2959,2985,3010,2962,2962,2962,2962,2962,2962,2962,2957,2959,2352,2352,2352,2352,2352,2352,2352,2352,2353,2352,2352,2352,2352,2352,2352,2352,2352,2352,2352,2352,2352,2352,2352,2352,2352,2959,2959,2961,2962,2962,2962,2962,2962,2962,3008,3009,3009,3009,3009,3009,3009,3009,2983,2959,2959,2959,2959,2959,2959,2959,2959,2959,2959,2959,2959,2959,2959,
2352,2352,2352,2352,2352,2352,2352,2352,2352,2352,2352,2959,2961,2962,2962,2962,2962,2962,2962,2962,2962,2957,2959,2352,2352,2352,2352,2352,2352,2353,2352,2352,2352,2352,2352,2352,2352,2352,2352,2352,2352,2352,2352,2352,2352,2352,2352,2352,2352,2352,2961,2962,2962,2962,2962,2962,2962,2962,2962,2962,2962,2962,2962,2962,2962,3008,3009,3009,3009,3009,3009,3009,3009,3009,3009,3009,3009,3009,2983,2959,
2352,2352,2352,2352,2352,2352,2352,2352,2352,2352,2352,2959,2961,2962,2962,2962,2962,2962,2962,2962,2962,2957,2959,2352,2352,2352,2352,2352,2354,2354,2352,2352,2352,2352,2352,2352,2352,2352,2352,2352,2352,2352,2352,2352,2352,2352,2352,2352,2352,2352,2961,2962,2962,2962,2962,2962,2962,2962,2962,2962,2962,2962,2962,2962,2962,2962,2962,2962,2962,2962,2962,2962,2962,2962,2962,2962,2962,2962,3008,3009,
2352,2352,2352,2352,2352,2352,2352,2352,2352,2352,2352,2959,2961,2962,2962,2962,2962,2962,2962,2908,2909,2933,2959,2352,2352,2352,2352,2352,2352,2352,2353,2352,2352,2352,2352,2352,2352,2352,2352,2352,2352,2352,2352,2352,2352,2352,2352,2352,2352,2352,2961,2962,2962,2962,2962,2962,2962,2962,2962,2962,2962,2962,2962,2962,2962,2962,2962,2962,2962,2962,2962,2962,2962,2962,2962,2962,2962,2962,2962,2962,
2352,2352,2352,2352,2352,2352,2352,2352,2352,2352,2352,2959,2935,2909,2909,2909,2909,2909,2909,2933,2959,2959,2959,2352,2352,2352,2352,2352,2352,2353,2352,2352,2352,2352,2352,2352,2352,2352,2352,2352,2352,2352,2352,2352,2352,2352,2352,2352,2352,2352,2961,2962,2962,2962,2962,2962,2962,2962,2962,2962,2962,2962,2962,2962,2962,2962,2962,2962,2962,2962,2962,2962,2962,2962,2962,2962,2962,2962,2962,2962,
2352,2352,2352,2352,2352,2352,2352,2352,2352,2352,2352,2959,2959,2959,2959,2959,2959,2959,2959,2959,2959,2352,2352,2352,2352,2352,2352,2352,2353,2354,2352,2352,2352,2352,2352,2352,2352,2352,2352,2352,2352,2352,2352,2352,2352,2352,2352,2352,2352,2959,2961,2962,2962,2962,2962,2962,2908,2909,2909,2909,2910,2962,2962,2962,2962,2962,2962,2962,2962,2962,2962,2962,2962,2962,2962,2962,2962,2962,2962,2962,
2352,2352,2352,2352,2352,2352,2352,2352,2352,2352,2352,2352,2352,2352,2352,2352,2352,2352,2352,2352,2352,2352,2352,2352,2352,2352,2352,2352,2354,2352,2352,2352,2352,2352,2352,2352,2352,2352,2352,2352,2352,2352,2352,2352,2352,2352,2352,2352,2352,2959,2961,2962,2962,2962,2962,2908,2933,2959,2959,2959,2935,2909,2909,2909,2909,2909,2909,2909,2909,2909,2909,2909,2909,2910,2962,2962,2962,2908,2909,2909,
2352,2352,2352,2352,2352,2352,2352,2352,2352,2352,2352,2352,2352,2352,2352,2352,2352,2352,2352,2352,2352,2352,2352,2352,2352,2352,2352,2352,2354,2354,2352,2352,2352,2352,2352,2352,2352,2352,2352,2352,2352,2352,2352,2352,2352,2352,2352,2352,2352,2959,2935,2910,2962,2962,2962,2957,2959,2959,2352,2959,2959,2959,2959,2959,2959,2959,2959,2959,2959,2959,2959,2959,2959,2935,2909,2909,2909,2933,2959,2959,
2352,2352,2352,2352,2352,2352,2352,2352,2352,2352,2352,2352,2352,2352,2352,2352,2352,2352,2352,2352,2352,2352,2352,2352,2352,2352,2352,2352,2354,2352,2352,2352,2352,2352,2352,2352,2352,2352,2352,2352,2352,2352,2352,2352,2352,2352,2352,2352,2352,2959,2959,2961,2962,2962,2962,2957,2959,2352,2352,2352,2352,2352,2352,2352,2352,2352,2352,2352,2352,2352,2352,2352,2352,2959,2959,2959,2959,2959,2959,2352,
2352,2352,2352,2352,2352,2352,2352,2352,2352,2352,2352,2352,2352,2352,2352,2352,2352,2352,2352,2352,2352,2352,2352,2352,2352,2352,2352,2352,2354,2353,2352,2352,2352,2352,2352,2352,2352,2352,2352,2352,2352,2352,2352,2352,2352,2352,2352,2352,2352,2352,2959,2961,2962,2962,2962,2957,2959,2352,2352,2352,2352,2352,2352,2352,2352,2352,2352,2352,2352,2352,2352,2352,2352,2352,2352,2352,2352,2352,2352,2352,
2352,2352,2352,2352,2352,2352,2352,2352,2352,2352,2352,2352,2352,2352,2352,2352,2352,2352,2352,2352,2352,2352,2352,2352,2352,2352,2352,2352,2354,2354,2352,2352,2352,2352,2352,2352,2352,2352,2352,2352,2352,2352,2352,2352,2352,2352,2352,2352,2352,2352,2959,2961,2962,2962,2962,2957,2959,2352,2352,2352,2352,2352,2352,2352,2352,2352,2352,2352,2352,2352,2352,2352,2352,2352,2352,2352,2352,2352,2352,2352,
2352,2352,2352,2352,2352,2352,2352,2352,2352,2352,2352,2352,2352,2352,2352,2352,2352,2352,2352,2352,2352,2352,2352,2352,2352,2352,2352,2352,2352,2353,2352,2352,2352,2352,2352,2352,2352,2352,2352,2352,2352,2352,2352,2352,2352,2352,2352,2352,2352,2352,2959,2961,2962,2962,2962,2957,2959,2352,2352,2352,2352,2352,2352,2352,2352,2352,2352,2352,2352,2352,2352,2352,2352,2352,2352,2352,2352,2352,2352,2352,
2352,2352,2352,2352,2352,2352,2352,2352,2352,2352,2352,2352,2352,2352,2352,2352,2352,2352,2352,2352,2352,2352,2352,2352,2352,2354,2352,2352,2353,2354,2352,2352,2352,2352,2352,2352,2352,2352,2352,2352,2352,2352,2352,2352,2352,2352,2352,2352,2352,2352,2959,2935,2909,2909,2909,2933,2959,2352,2352,2352,2352,2352,2352,2352,2352,2352,2352,2352,2352,2352,2352,2352,2352,2352,2352,2352,2352,2352,2352,2352,
2352,2352,2352,2352,2352,2352,2352,2352,2352,2352,2352,2352,2352,2352,2352,2352,2352,2352,2352,2352,2352,2352,2352,2352,2352,2353,2354,2352,2354,2354,2352,2352,2352,2352,2352,2352,2352,2352,2352,2352,2352,2352,2352,2352,2352,2352,2352,2352,2352,2352,2352,2959,2959,2959,2959,2959,2959,2352,2352,2352,2352,2352,2352,2352,2352,2352,2352,2352,2352,2352,2352,2352,2352,2352,2352,2352,2352,2352,2352,2352,
2352,2352,2352,2352,2352,2352,2352,2352,2352,2352,2352,2352,2352,2352,2352,2352,2352,2352,2352,2352,2352,2352,2352,2352,2352,2353,2354,2352,2353,2352,2352,2352,2352,2352,2352,2352,2352,2352,2352,2352,2352,2352,2352,2352,2352,2352,2352,2352,2352,2352,2352,2352,2352,2352,2352,2352,2352,2352,2352,2352,2352,2352,2352,2352,2352,2352,2352,2352,2352,2352,2352,2352,2352,2352,2352,2352,2352,2352,2352,2352,
2352,2352,2352,2352,2352,2352,2352,2352,2352,2352,2352,2352,2352,2352,2352,2352,2352,2352,2352,2352,2352,2352,2352,2352,2352,2354,2352,2352,2352,2354,2352,2352,2352,2352,2352,2352,2352,2352,2352,2352,2352,2352,2352,2352,2352,2352,2352,2352,2352,2352,2352,2352,2352,2352,2352,2352,2352,2352,2352,2352,2352,2352,2352,2352,2352,2352,2352,2352,2352,2352,2352,2352,2352,2352,2352,2352,2352,2352,2352,2352,
2352,2352,2352,2352,2352,2352,2352,2352,2352,2352,2352,2352,2352,2352,2352,2352,2352,2352,2352,2352,2352,2352,2352,2352,2352,2353,2352,2352,2352,2352,2352,2352,2352,2352,2352,2352,2352,2352,2352,2352,2352,2352,2352,2352,2352,2352,2352,2352,2352,2352,2352,2352,2352,2352,2352,2352,2352,2352,2352,2352,2352,2352,2352,2352,2352,2352,2352,2352,2352,2352,2352,2352,2352,2352,2352,2352,2352,2352,2352,2352,
2352,2352,2352,2352,2352,2352,2352,2352,2352,2352,2352,2352,2352,2352,2352,2352,2352,2352,2352,2352,2352,2352,2352,2352,2352,2354,2354,2352,2352,2354,2352,2352,2352,2352,2352,2352,2352,2352,2352,2352,2352,2352,2352,2352,2352,2352,2352,2352,2352,2352,2352,2352,2352,2352,2352,2352,2352,2352,2352,2352,2352,2352,2352,2352,2352,2352,2354,2353,2352,2352,2352,2352,2352,2352,2352,2352,2352,2352,2352,2352,
2352,2352,2352,2352,2352,2352,2352,2352,2352,2352,2352,2352,2352,2352,2352,2352,2352,2352,2352,2352,2352,2352,2352,2352,2352,2354,2354,2352,2352,2354,2352,2352,2352,2352,2352,2352,2352,2352,2352,2352,2352,2352,2352,2352,2352,2352,2352,2352,2352,2352,2352,2352,2352,2352,2352,2352,2352,2352,2352,2352,2352,2352,2352,2352,2352,2354,2353,2352,2352,2352,2352,2352,2352,2352,2352,2352,2352,2352,2352,2352,
2352,2352,2352,2352,2352,2352,2352,2352,2352,2352,2352,2352,2352,2352,2352,2352,2352,2352,2352,2352,2352,2352,2352,2352,2352,2352,2353,2352,2353,2354,2352,2352,2352,2352,2352,2352,2352,2352,2352,2352,2352,2352,2352,2352,2352,2352,2352,2352,2352,2352,2352,2352,2352,2352,2352,2352,2352,2352,2352,2352,2352,2352,2354,2353,2353,2354,2354,2352,2352,2352,2352,2352,2352,2352,2352,2352,2352,2352,2352,2352,
2352,2352,2352,2352,2352,2352,2352,2352,2352,2352,2352,2352,2352,2352,2352,2352,2352,2352,2352,2352,2352,2352,2352,2352,2352,2352,2352,2352,2353,2352,2352,2352,2352,2352,2352,2352,2352,2352,2352,2352,2352,2352,2352,2352,2352,2352,2352,2352,2352,2352,2352,2352,2352,2352,2352,2352,2352,2352,2352,2352,2352,2353,2353,2354,2353,2352,2352,2352,2352,2352,2352,2352,2352,2352,2352,2352,2352,2352,2352,2352,
2352,2352,2352,2352,2352,2352,2352,2352,2352,2352,2352,2352,2352,2352,2352,2352,2352,2352,2352,2352,2352,2352,2352,2352,2352,2352,2352,2352,2353,2354,2352,2352,2352,2352,2352,2352,2352,2352,2352,2352,2352,2352,2352,2352,2352,2352,2352,2352,2352,2352,2352,2352,2352,2352,2352,2352,2352,2352,2352,2353,2354,2354,2353,2354,2352,2352,2352,2352,2352,2352,2352,2352,2352,2352,2352,2352,2352,2352,2352,2352,
2352,2352,2352,2352,2352,2352,2352,2352,2352,2352,2352,2352,2352,2352,2352,2352,2352,2352,2352,2352,2352,2352,2352,2352,2352,2353,2353,2352,2354,2352,2354,2352,2352,2352,2352,2352,2352,2352,2352,2352,2352,2352,2352,2352,2352,2352,2352,2352,2352,2352,2352,2352,2352,2352,2352,2353,2354,2352,2353,2354,2354,2352,2352,2352,2352,2352,2352,2352,2352,2352,2352,2352,2352,2352,2352,2352,2352,2352,2352,2352,
2352,2352,2352,2352,2352,2352,2352,2352,2353,2352,2352,2352,2352,2352,2352,2352,2352,2352,2352,2352,2352,2352,2352,2352,2352,2352,2352,2352,2352,2352,2354,2352,2352,2352,2352,2352,2352,2352,2352,2352,2352,2352,2352,2352,2352,2352,2352,2352,2352,2352,2352,2352,2352,2352,2352,2353,2352,2352,2354,2354,2352,2352,2352,2352,2352,2352,2352,2352,2352,2352,2352,2352,2352,2352,2352,2352,2352,2352,2352,2352,
2352,2352,2352,2352,2352,2352,2352,2352,2353,2354,2354,2352,2352,2352,2352,2352,2352,2352,2352,2352,2352,2352,2352,2352,2352,2353,2353,2352,2352,2353,2352,2352,2352,2352,2352,2352,2352,2352,2352,2352,2352,2352,2352,2352,2352,2352,2352,2352,2352,2352,2352,2352,2352,2353,2353,2354,2354,2352,2352,2352,2352,2352,2352,2352,2352,2352,2352,2352,2352,2352,2352,2352,2352,2352,2352,2352,2352,2352,2352,2352,
2352,2352,2352,2352,2352,2352,2353,2354,2353,2354,2352,2353,2352,2352,2352,2352,2352,2352,2352,2352,2352,2352,2352,2352,2352,2352,2354,2352,2352,2353,2352,2352,2352,2352,2352,2352,2352,2352,2352,2352,2352,2352,2352,2352,2352,2352,2352,2352,2352,2352,2352,2354,2354,2352,2353,2354,2352,2352,2352,2352,2352,2352,2352,2352,2352,2352,2352,2352,2352,2352,2352,2352,2352,2352,2352,2352,2352,2352,2352,2352,
2352,2352,2352,2352,2352,2352,2353,2354,2352,2352,2354,2354,2354,2352,2352,2352,2352,2352,2352,2352,2352,2352,2352,2352,2354,2353,2352,2352,2352,2354,2354,2354,2352,2352,2352,2352,2352,2352,2352,2352,2352,2352,2352,2352,2352,2352,2352,2352,2352,2352,2354,2353,2354,2353,2352,2352,2352,2352,2352,2352,2352,2352,2352,2352,2352,2352,2352,2352,2352,2352,2352,2352,2352,2352,2352,2352,2352,2352,2352,2352,
2352,2352,2352,2352,2352,2354,2354,2354,2352,2352,2353,2352,2353,2352,2354,2352,2352,2352,2352,2352,2352,2352,2352,2352,2352,2352,2352,2352,2352,2353,2352,2353,2352,2352,2352,2352,2352,2352,2352,2352,2352,2352,2352,2352,2352,2352,2352,2352,2352,2352,2353,2353,2352,2352,2352,2352,2352,2352,2352,2352,2352,2352,2352,2352,2352,2352,2352,2352,2352,2352,2352,2352,2352,2352,2352,2352,2352,2352,2352,2352,
2352,2352,2352,2352,2353,2354,2352,2354,2352,2352,2352,2352,2353,2354,2354,2352,2352,2352,2352,2352,2352,2352,2352,2352,2353,2352,2352,2352,2352,2352,2353,2352,2352,2352,2352,2352,2352,2352,2352,2352,2352,2352,2352,2352,2352,2352,2352,2352,2352,2354,2353,2354,2352,2352,2352,2352,2352,2352,2352,2352,2352,2352,2352,2352,2352,2352,2352,2352,2352,2352,2352,2352,2352,2352,2352,2352,2352,2352,2352,2352,
2352,2352,2352,2352,2352,2353,2353,2353,2352,2352,2352,2352,2352,2353,2354,2353,2353,2353,2353,2352,2352,2352,2352,2352,2354,2354,2352,2352,2352,2352,2352,2352,2352,2352,2352,2352,2352,2352,2352,2352,2352,2352,2352,2352,2352,2352,2352,2352,2352,2354,2353,2353,2352,2352,2352,2352,2352,2352,2352,2352,2352,2352,2352,2352,2352,2352,2352,2352,2352,2352,2352,2352,2352,2352,2352,2352,2352,2352,2352,2352,
2352,2352,2352,2352,2352,2353,2352,2354,2352,2352,2352,2352,2352,2352,2352,2353,2354,2352,2352,2354,2352,2352,2352,2352,2352,2354,2352,2352,2352,2352,2352,2352,2352,2352,2352,2352,2352,2352,2352,2352,2352,2352,2352,2352,2352,2353,2354,2353,2354,2352,2352,2352,2353,2353,2354,2354,2354,2353,2352,2352,2352,2352,2352,2352,2352,2352,2352,2352,2352,2352,2352,2352,2352,2352,2352,2352,2352,2352,2352,2352,
2352,2352,2352,2352,2353,2354,2353,2353,2352,2352,2352,2352,2352,2352,2352,2352,2354,2354,2354,2352,2352,2352,2352,2352,2354,2352,2352,2352,2352,2352,2352,2352,2352,2352,2352,2352,2352,2352,2352,2354,2354,2352,2352,2354,2353,2354,2353,2354,2353,2354,2354,2352,2354,2353,2354,2354,2352,2352,2353,2353,2352,2352,2353,2353,2352,2352,2352,2352,2352,2352,2352,2352,2352,2352,2352,2352,2352,2352,2352,2352,
2352,2352,2352,2352,2353,2354,2352,2354,2352,2352,2352,2352,2352,2352,2352,2352,2352,2354,2353,2352,2352,2352,2352,2352,2353,2354,2353,2352,2352,2352,2352,2352,2352,2352,2352,2353,2352,2354,2353,2354,2353,2354,2353,2352,2353,2353,2352,2353,2352,2352,2352,2353,2354,2352,2353,2352,2352,2353,2354,2354,2353,2353,2353,2353,2353,2352,2352,2352,2352,2352,2352,2352,2352,2352,2352,2352,2352,2352,2352,2352,
2352,2352,2352,2352,2353,2353,2352,2354,2354,2354,2352,2352,2352,2352,2352,2352,2354,2353,2352,2352,2352,2352,2352,2352,2353,2353,2353,2352,2352,2352,2352,2353,2352,2352,2352,2352,2354,2354,2352,2353,2354,2353,2353,2353,2353,2352,2352,2352,2354,2354,2352,2354,2353,2353,2352,2352,2353,2352,2352,2352,2352,2352,2354,2353,2354,2353,2352,2352,2352,2352,2352,2352,2352,2352,2352,2352,2352,2352,2352,2352,
2352,2352,2352,2352,2352,2353,2352,2354,2352,2354,2352,2352,2352,2352,2352,2352,2353,2354,2352,2352,2352,2352,2352,2352,2352,2352,2354,2352,2352,2354,2353,2352,2352,2353,2354,2354,2354,2352,2352,2352,2352,2352,2352,2352,2352,2352,2352,2352,2352,2352,2352,2353,2352,2352,2354,2353,2353,2353,2354,2354,2353,2353,2352,2354,2354,2353,2354,2352,2352,2352,2352,2352,2352,2352,2352,2352,2352,2352,2352,2352,
2352,2352,2352,2352,2353,2352,2354,2352,2353,2353,2354,2352,2352,2352,2352,2352,2353,2352,2352,2352,2352,2352,2352,2352,2352,2354,2353,2352,2354,2354,2354,2354,2354,2353,2353,2352,2352,2352,2352,2352,2352,2352,2352,2352,2352,2352,2352,2352,2352,2352,2352,2352,2354,2353,2354,2354,2354,2352,2353,2352,2353,2353,2352,2352,2354,2353,2352,2352,2352,2352,2352,2352,2352,2352,2352,2352,2352,2352,2352,2352,
2352,2352,2352,2352,2352,2353,2353,2353,2353,2352,2353,2353,2352,2352,2352,2352,2353,2353,2352,2352,2352,2352,2352,2352,2352,2354,2352,2352,2353,2353,2353,2352,2352,2352,2352,2352,2352,2352,2352,2352,2352,2352,2352,2352,2352,2352,2352,2352,2352,2352,2352,2352,2352,2352,2352,2352,2352,2353,2352,2352,2354,2352,2352,2352,2352,2352,2353,2352,2352,2352,2352,2352,2352,2352,2352,2352,2352,2352,2352,2352,
2352,2352,2352,2352,2354,2352,2353,2354,2352,2352,2354,2354,2353,2352,2352,2352,2354,2352,2352,2352,2352,2352,2352,2352,2353,2353,2352,2352,2352,2352,2352,2352,2352,2352,2352,2352,2352,2352,2352,2352,2352,2352,2352,2352,2352,2352,2352,2352,2352,2352,2352,2352,2352,2352,2352,2352,2352,2352,2352,2352,2353,2352,2352,2352,2352,2352,2353,2352,2352,2352,2352,2352,2352,2352,2352,2352,2352,2352,2352,2352,
2352,2352,2352,2352,2353,2354,2352,2354,2352,2352,2352,2353,2354,2352,2352,2352,2353,2354,2352,2352,2352,2352,2352,2353,2352,2354,2353,2354,2354,2352,2352,2352,2352,2352,2352,2352,2352,2352,2352,2352,2352,2352,2352,2352,2352,2353,2353,2354,2353,2352,2352,2352,2352,2352,2352,2352,2352,2352,2352,2353,2352,2354,2352,2352,2352,2352,2354,2352,2352,2352,2352,2352,2352,2352,2352,2352,2352,2352,2352,2352,
2352,2352,2352,2352,2353,2352,2352,2352,2353,2352,2352,2354,2352,2353,2352,2352,2353,2352,2354,2352,2352,2354,2353,2354,2352,2353,2353,2352,2353,2352,2352,2352,2352,2352,2352,2352,2352,2352,2352,2352,2352,2352,2352,2352,2352,2353,2354,2352,2353,2352,2353,2352,2352,2352,2352,2352,2352,2352,2352,2354,2353,2352,2354,2352,2352,2353,2354,2352,2352,2352,2352,2352,2352,2352,2352,2352,2352,2352,2352,2352,
2352,2352,2352,2352,2354,2352,2352,2352,2352,2352,2352,2354,2354,2354,2353,2352,2352,2354,2354,2352,2352,2353,2353,2353,2354,2352,2352,2352,2352,2352,2352,2352,2352,2352,2352,2352,2352,2352,2352,2352,2352,2352,2353,2352,2354,2354,2352,2352,2354,2354,2354,2352,2352,2352,2352,2352,2352,2352,2352,2352,2352,2352,2352,2352,2352,2354,2353,2352,2352,2352,2352,2352,2352,2352,2352,2352,2352,2352,2352,2352,
2352,2352,2352,2352,2354,2353,2352,2352,2352,2352,2352,2353,2353,2353,2352,2352,2353,2354,2352,2352,2352,2354,2353,2352,2352,2352,2352,2352,2352,2352,2352,2352,2352,2352,2352,2352,2352,2352,2352,2352,2352,2352,2354,2354,2354,2352,2352,2352,2352,2352,2353,2352,2352,2352,2352,2352,2352,2352,2352,2352,2352,2352,2353,2354,2352,2353,2354,2352,2352,2352,2352,2352,2352,2352,2352,2352,2352,2352,2352,2352,
2352,2352,2352,2352,2352,2353,2352,2352,2352,2352,2352,2352,2353,2352,2352,2354,2353,2353,2354,2352,2352,2352,2352,2352,2352,2352,2352,2352,2352,2352,2352,2352,2352,2352,2352,2352,2352,2352,2352,2352,2352,2352,2352,2352,2352,2352,2352,2352,2352,2352,2352,2352,2354,2353,2352,2352,2352,2352,2352,2352,2352,2354,2353,2354,2354,2352,2353,2352,2352,2352,2352,2352,2352,2352,2352,2352,2352,2352,2352,2352,
2352,2352,2352,2352,2353,2353,2352,2352,2352,2352,2352,2352,2353,2353,2352,2354,2352,2352,2352,2353,2352,2354,2354,2352,2354,2352,2352,2353,2352,2352,2352,2352,2352,2352,2352,2352,2354,2352,2352,2352,2352,2352,2354,2352,2352,2352,2352,2352,2352,2352,2352,2354,2352,2352,2353,2352,2352,2352,2352,2352,2352,2352,2353,2353,2352,2353,2354,2352,2352,2352,2352,2352,2352,2352,2352,2352,2352,2352,2352,2352,
2352,2352,2352,2352,2353,2353,2352,2352,2352,2352,2352,2352,2352,2354,2353,2352,2353,2354,2354,2353,2353,2353,2352,2354,2353,2353,2353,2354,2352,2353,2354,2352,2352,2352,2354,2353,2353,2352,2353,2352,2352,2354,2353,2353,2352,2352,2352,2352,2352,2352,2352,2352,2354,2352,2352,2352,2352,2352,2352,2352,2352,2352,2352,2353,2353,2352,2352,2352,2352,2352,2352,2352,2352,2352,2352,2352,2352,2352,2352,2352,
2352,2352,2352,2352,2352,2352,2352,2352,2352,2352,2352,2352,2354,2354,2352,2352,2354,2354,2352,2353,2354,2352,2352,2352,2352,2352,2354,2353,2354,2353,2353,2352,2354,2352,2352,2354,2352,2352,2353,2354,2352,2354,2354,2354,2354,2354,2352,2352,2352,2352,2352,2352,2352,2353,2352,2353,2354,2352,2352,2352,2352,2352,2352,2354,2353,2353,2352,2352,2352,2352,2352,2352,2352,2352,2352,2352,2352,2352,2352,2352,
2352,2352,2352,2352,2353,2353,2352,2352,2352,2352,2352,2353,2352,2354,2352,2352,2352,2352,2354,2354,2353,2352,2352,2352,2352,2352,2352,2352,2352,2352,2352,2353,2354,2352,2353,2354,2354,2353,2354,2354,2352,2352,2352,2353,2352,2354,2353,2352,2352,2352,2352,2352,2352,2352,2353,2354,2353,2353,2352,2352,2352,2352,2352,2352,2352,2352,2352,2352,2352,2352,2352,2352,2352,2352,2352,2352,2352,2352,2352,2352,
2352,2352,2352,2352,2354,2352,2352,2352,2352,2352,2352,2354,2352,2352,2352,2352,2352,2354,2354,2353,2354,2352,2352,2352,2352,2352,2352,2352,2352,2352,2352,2353,2354,2354,2354,2354,2352,2354,2353,2352,2353,2352,2352,2352,2354,2354,2353,2353,2352,2352,2352,2352,2352,2352,2352,2352,2354,2353,2353,2354,2352,2352,2352,2353,2352,2353,2352,2352,2352,2352,2352,2352,2352,2352,2352,2352,2352,2352,2352,2352,
2352,2352,2352,2352,2353,2352,2353,2352,2352,2352,2354,2354,2353,2352,2352,2352,2354,2354,2354,2354,2352,2352,2352,2352,2352,2352,2352,2352,2352,2352,2352,2352,2354,2353,2352,2353,2353,2354,2353,2354,2353,2352,2353,2354,2352,2354,2353,2353,2354,2352,2352,2352,2352,2352,2352,2352,2354,2354,2352,2354,2352,2353,2352,2354,2352,2354,2352,2352,2352,2352,2352,2352,2352,2352,2352,2352,2352,2352,2352,2352,
2352,2352,2352,2352,2352,2353,2354,2352,2352,2352,2352,2353,2352,2352,2352,2352,2353,2352,2352,2352,2354,2352,2352,2352,2352,2352,2352,2352,2352,2354,2352,2353,2354,2354,2354,2352,2352,2352,2352,2352,2353,2354,2352,2352,2353,2352,2353,2354,2352,2354,2353,2352,2352,2352,2352,2352,2353,2352,2354,2354,2354,2354,2354,2353,2354,2352,2352,2352,2352,2352,2352,2352,2352,2352,2352,2352,2352,2352,2352,2352,
2352,2352,2352,2352,2352,2354,2354,2352,2352,2352,2354,2354,2352,2352,2352,2352,2352,2354,2352,2352,2353,2353,2352,2352,2352,2352,2354,2352,2353,2354,2352,2353,2354,2352,2352,2352,2352,2352,2352,2352,2352,2352,2353,2353,2354,2353,2353,2352,2354,2353,2354,2352,2352,2352,2352,2352,2352,2353,2353,2354,2352,2354,2352,2354,2354,2352,2352,2352,2352,2352,2352,2352,2352,2352,2352,2352,2352,2352,2352,2352,
2353,2353,2353,2353,2353,2354,2352,2353,2353,2354,2352,2354,2353,2353,2353,2353,2353,2353,2354,2352,2353,2352,2352,2354,2354,2352,2353,2354,2353,2353,2354,2353,2353,2353,2353,2353,2353,2353,2353,2353,2353,2353,2353,2353,2352,2353,2352,2353,2352,2353,2353,2353,2354,2353,2353,2353,2353,2353,2352,2352,2353,2353,2354,2353,2353,2353,2353,2353,2353,2353,2353,2353,2353,2353,2353,2353,2353,2353,2353,2353,
2353,2353,2353,2353,2353,2354,2352,2353,2353,2352,2353,2354,2353,2353,2353,2353,2353,2353,2354,2353,2352,2352,2354,2354,2354,2353,2352,2352,2353,2352,2354,2353,2353,2353,2353,2353,2353,2353,2353,2353,2353,2353,2353,2353,2353,2353,2353,2353,2354,2353,2354,2352,2354,2353,2354,2353,2352,2352,2353,2354,2353,2354,2353,2353,2353,2353,2353,2353,2353,2353,2353,2353,2353,2353,2353,2353,2353,2353,2353,2353,
2353,2353,2353,2353,2353,2354,2353,2353,2353,2354,2352,2353,2353,2353,2353,2353,2353,2352,2353,2354,2353,2353,2353,2353,2353,2353,2353,2353,2353,2354,2352,2353,2353,2353,2353,2353,2353,2353,2353,2353,2353,2353,2353,2353,2353,2353,2353,2353,2353,2352,2353,2354,2353,2354,2352,2354,2353,2353,2353,2353,2354,2353,2353,2353,2353,2353,2353,2353,2353,2353,2353,2353,2353,2353,2353,2353,2353,2353,2353,2353,
2353,2353,2353,2353,2353,2354,2354,2352,2354,2354,2354,2353,2353,2353,2353,2353,2353,2354,2353,2354,2353,2353,2353,2353,2353,2353,2353,2353,2353,2353,2352,2354,2353,2352,2353,2353,2353,2353,2353,2353,2353,2353,2353,2353,2353,2353,2353,2353,2353,2353,2352,2353,2353,2353,2353,2354,2354,2354,2353,2353,2352,2352,2352,2353,2353,2353,2353,2353,2353,2353,2353,2353,2353,2353,2353,2353,2353,2353,2353,2353,
2353,2353,2353,2353,2353,2354,2353,2354,2352,2352,2353,2353,2353,2353,2353,2353,2353,2353,2353,2353,2353,2353,2353,2353,2353,2353,2353,2353,2353,2354,2353,2352,2352,2354,2354,2352,2354,2352,2352,2353,2353,2353,2353,2353,2353,2353,2353,2353,2353,2353,2353,2353,2353,2354,2353,2352,2352,2353,2353,2353,2353,2352,2352,2353,2353,2353,2353,2353,2353,2353,2353,2353,2353,2353,2353,2353,2353,2353,2353,2353,
2353,2353,2353,2353,2353,2353,2353,2353,2353,2353,2353,2353,2353,2353,2353,2353,2353,2354,2354,2353,2353,2353,2353,2353,2353,2353,2353,2353,2353,2353,2353,2353,2353,2354,2352,2352,2353,2352,2354,2354,2353,2353,2353,2354,2352,2353,2352,2353,2353,2353,2353,2353,2353,2354,2353,2353,2352,2354,2353,2353,2353,2352,2352,2353,2353,2353,2353,2353,2353,2353,2353,2353,2353,2353,2353,2353,2353,2353,2353,2353,
2353,2353,2353,2353,2353,2352,2352,2354,2354,2353,2353,2353,2353,2353,2353,2353,2354,2352,2354,2353,2353,2353,2353,2353,2353,2353,2353,2353,2353,2353,2353,2353,2353,2353,2353,2353,2353,2352,2354,2354,2354,2354,2354,2353,2353,2352,2353,2354,2354,2354,2354,2353,2353,2353,2352,2353,2353,2354,2352,2353,2353,2352,2353,2354,2353,2353,2353,2353,2353,2353,2353,2353,2353,2353,2353,2353,2353,2353,2353,2353,
2353,2353,2353,2353,2353,2352,2353,2353,2354,2352,2353,2353,2353,2353,2353,2353,2354,2352,2354,2353,2353,2353,2353,2353,2353,2353,2353,2353,2353,2353,2353,2353,2353,2353,2353,2353,2353,2353,2353,2353,2353,2353,2353,2353,2353,2352,2354,2352,2353,2354,2354,2353,2354,2354,2352,2354,2352,2352,2354,2352,2353,2353,2354,2352,2353,2353,2353,2353,2353,2353,2353,2353,2353,2353,2353,2353,2353,2353,2353,2353,
2353,2353,2353,2353,2353,2354,2352,2354,2353,2353,2353,2352,2353,2353,2353,2353,2354,2353,2353,2352,2353,2353,2353,2353,2353,2353,2353,2353,2353,2353,2353,2353,2353,2353,2353,2352,2352,2353,2353,2353,2353,2353,2353,2353,2353,2353,2353,2353,2353,2353,2353,2354,2352,2352,2353,2354,2354,2352,2353,2352,2353,2353,2352,2352,2353,2353,2353,2353,2353,2353,2353,2353,2353,2353,2353,2353,2353,2353,2353,2353,
2353,2353,2353,2353,2353,2354,2354,2352,2354,2353,2354,2352,2354,2353,2353,2353,2352,2352,2353,2352,2353,2353,2353,2353,2353,2353,2353,2353,2353,2353,2353,2353,2353,2353,2353,2353,2353,2353,2353,2353,2353,2353,2353,2353,2353,2353,2353,2353,2353,2353,2353,2353,2353,2354,2352,2353,2353,2353,2353,2353,2353,2353,2352,2352,2352,2353,2353,2353,2353,2353,2353,2353,2353,2353,2353,2353,2353,2353,2353,2353,
2353,2353,2353,2353,2353,2352,2354,2352,2353,2353,2352,2354,2352,2353,2353,2352,2353,2352,2352,2353,2352,2352,2353,2353,2353,2353,2353,2353,2353,2353,2353,2353,2353,2353,2353,2352,2354,2353,2353,2352,2354,2354,2352,2354,2352,2354,2353,2353,2354,2352,2353,2354,2352,2352,2352,2353,2353,2353,2352,2353,2352,2353,2353,2354,2352,2353,2353,2353,2353,2353,2353,2353,2353,2353,2353,2353,2353,2353,2353,2353,
2353,2353,2353,2353,2353,2353,2352,2354,2353,2353,2354,2354,2352,2353,2354,2354,2353,2353,2353,2354,2354,2353,2352,2354,2354,2353,2353,2353,2353,2353,2353,2353,2353,2353,2353,2353,2353,2353,2354,2354,2352,2354,2354,2352,2352,2354,2352,2354,2353,2354,2353,2354,2353,2352,2353,2353,2352,2352,2353,2353,2354,2353,2352,2352,2354,2353,2353,2353,2353,2353,2353,2353,2353,2353,2353,2353,2353,2353,2353,2353,
2353,2353,2353,2353,2353,2353,2352,2354,2354,2353,2354,2354,2352,2354,2354,2352,2352,2353,2353,2352,2352,2352,2354,2353,2354,2354,2354,2354,2353,2353,2353,2353,2353,2353,2353,2352,2354,2353,2352,2352,2354,2352,2353,2352,2353,2353,2353,2352,2354,2352,2352,2353,2352,2353,2352,2354,2352,2353,2354,2353,2353,2352,2354,2354,2352,2353,2353,2353,2353,2353,2353,2353,2353,2353,2353,2353,2353,2353,2353,2353,
2353,2353,2353,2353,2353,2354,2353,2352,2352,2354,2353,2352,2354,2354,2353,2353,2352,2354,2353,2353,2353,2353,2353,2353,2354,2352,2353,2352,2354,2352,2353,2353,2353,2353,2353,2352,2353,2352,2353,2353,2354,2352,2352,2353,2352,2354,2354,2354,2352,2353,2352,2353,2352,2354,2352,2354,2353,2352,2353,2354,2354,2354,2352,2352,2353,2353,2353,2353,2353,2353,2353,2353,2353,2353,2353,2353,2353,2353,2353,2353,
2353,2353,2353,2353,2353,2354,2353,2353,2354,2354,2354,2354,2353,2354,2354,2353,2354,2352,2352,2353,2353,2353,2353,2353,2353,2354,2352,2353,2354,2352,2353,2353,2352,2354,2354,2353,2352,2354,2353,2354,2353,2354,2352,2353,2354,2354,2354,2352,2354,2354,2352,2352,2354,2352,2354,2353,2352,2354,2353,2352,2353,2352,2352,2353,2353,2353,2353,2353,2353,2353,2353,2353,2353,2353,2353,2353,2353,2353,2353,2353,
2353,2353,2353,2353,2352,2352,2352,2353,2354,2353,2354,2354,2352,2353,2354,2354,2353,2352,2354,2353,2353,2353,2353,2353,2352,2354,2352,2353,2354,2354,2353,2353,2354,2352,2354,2354,2353,2352,2354,2353,2353,2352,2353,2353,2352,2353,2353,2354,2352,2352,2352,2354,2353,2354,2354,2353,2352,2352,2352,2354,2352,2354,2352,2354,2354,2353,2353,2353,2353,2353,2353,2353,2353,2353,2353,2353,2353,2353,2353,2353,
2353,2353,2353,2353,2352,2352,2352,2353,2354,2353,2354,2354,2354,2354,2352,2354,2352,2352,2354,2352,2353,2353,2353,2353,2352,2352,2353,2353,2354,2353,2353,2353,2352,2352,2352,2352,2352,2353,2353,2354,2354,2352,2353,2353,2352,2352,2354,2353,2354,2353,2353,2354,2353,2353,2352,2353,2353,2353,2354,2352,2352,2353,2352,2353,2353,2353,2353,2353,2353,2353,2353,2353,2353,2353,2353,2353,2353,2353,2353,2353,
2353,2353,2353,2353,2354,2354,2353,2353,2353,2352,2352,2352,2354,2354,2354,2353,2354,2352,2354,2352,2353,2353,2353,2353,2352,2353,2353,2353,2353,2353,2353,2353,2353,2352,2353,2352,2352,2352,2354,2352,2353,2354,2353,2353,2353,2353,2353,2352,2353,2353,2353,2354,2354,2354,2353,2354,2354,2354,2352,2352,2353,2353,2352,2354,2354,2354,2353,2353,2353,2353,2353,2353,2353,2353,2353,2353,2353,2353,2353,2353,
2353,2353,2353,2354,2354,2354,2353,2353,2354,2354,2352,2352,2354,2353,2353,2352,2353,2354,2353,2354,2352,2353,2353,2353,2352,2354,2354,2353,2353,2353,2353,2353,2353,2352,2353,2352,2354,2353,2352,2353,2352,2353,2352,2354,2353,2353,2352,2354,2352,2352,2353,2352,2354,2353,2352,2352,2354,2354,2353,2353,2354,2354,2354,2352,2354,2353,2354,2352,2353,2353,2353,2353,2353,2353,2353,2353,2353,2353,2353,2353,
2353,2353,2353,2353,2352,2352,2353,2353,2352,2352,2352,2352,2352,2353,2352,2353,2353,2352,2352,2352,2354,2353,2352,2353,2352,2353,2354,2354,2353,2353,2353,2353,2353,2354,2354,2353,2354,2352,2353,2352,2353,2353,2352,2353,2354,2354,2354,2354,2353,2354,2352,2353,2352,2353,2353,2353,2354,2353,2353,2354,2353,2354,2353,2353,2353,2354,2352,2354,2352,2352,2353,2352,2353,2353,2353,2353,2353,2353,2353,2353,
2353,2353,2353,2354,2353,2352,2353,2354,2354,2353,2352,2354,2354,2353,2352,2354,2354,2353,2352,2352,2354,2352,2354,2352,2353,2352,2354,2353,2354,2353,2353,2353,2353,2353,2354,2353,2353,2353,2353,2352,2353,2353,2353,2352,2354,2353,2352,2352,2353,2352,2354,2354,2354,2353,2353,2353,2354,2354,2354,2353,2352,2354,2354,2352,2353,2354,2354,2353,2352,2353,2354,2352,2353,2353,2353,2353,2353,2353,2353,2353,
2353,2353,2353,2353,2354,2353,2352,2352,2352,2354,2353,2353,2353,2353,2353,2354,2354,2354,2354,2353,2352,2352,2352,2353,2353,2352,2354,2352,2354,2353,2353,2353,2353,2354,2353,2352,2353,2352,2353,2353,2352,2353,2353,2353,2353,2354,2353,2352,2352,2354,2354,2352,2352,2352,2354,2354,2353,2352,2354,2354,2353,2353,2354,2352,2354,2352,2354,2353,2352,2352,2353,2353,2353,2353,2353,2353,2353,2353,2353,2353,
2353,2353,2353,2352,2354,2352,2352,2354,2352,2352,2354,2353,2352,2353,2353,2352,2354,2354,2353,2353,2354,2353,2352,2354,2352,2352,2354,2353,2353,2354,2354,2354,2352,2353,2354,2352,2353,2352,2353,2353,2352,2353,2353,2353,2352,2354,2352,2353,2354,2353,2354,2352,2353,2352,2352,2354,2353,2353,2353,2353,2353,2352,2353,2352,2353,2353,2354,2354,2354,2352,2353,2353,2353,2353,2353,2353,2353,2353,2353,2353,
2353,2353,2353,2352,2353,2353,2352,2354,2353,2353,2353,2353,2353,2354,2352,2354,2353,2352,2354,2352,2354,2353,2354,2353,2353,2353,2353,2352,2352,2352,2352,2352,2354,2352,2352,2353,2354,2354,2352,2352,2353,2352,2354,2354,2354,2352,2354,2354,2354,2354,2354,2353,2354,2352,2354,2354,2354,2352,2352,2353,2354,2352,2353,2353,2354,2353,2353,2353,2353,2353,2353,2353,2353,2353,2353,2353,2353,2353,2353,2353,
2353,2353,2353,2352,2352,2353,2354,2352,2353,2352,2353,2353,2353,2354,2353,2353,2353,2352,2353,2354,2352,2352,2353,2353,2352,2352,2352,2353,2353,2353,2354,2353,2354,2352,2352,2353,2353,2352,2354,2353,2353,2353,2353,2353,2353,2353,2353,2353,2353,2353,2352,2352,2353,2353,2354,2354,2353,2354,2353,2352,2353,2352,2354,2354,2353,2353,2353,2353,2353,2353,2353,2353,2353,2353,2353,2353,2353,2353,2353,2353,
2353,2353,2353,2352,2353,2352,2353,2352,2352,2352,2353,2353,2353,2352,2353,2352,2352,2354,2352,2354,2354,2354,2353,2353,2353,2353,2353,2353,2353,2353,2353,2353,2354,2353,2354,2354,2354,2353,2354,2352,2353,2353,2353,2353,2353,2353,2353,2353,2354,2352,2353,2352,2353,2352,2354,2352,2352,2352,2353,2354,2353,2352,2352,2354,2353,2353,2353,2353,2353,2353,2353,2353,2353,2353,2353,2353,2353,2353,2353,2353,
2353,2353,2353,2352,2353,2354,2354,2353,2353,2353,2353,2353,2353,2353,2354,2353,2353,2353,2352,2352,2353,2354,2353,2353,2353,2353,2353,2353,2353,2353,2353,2353,2353,2353,2353,2353,2353,2352,2352,2353,2353,2353,2353,2353,2353,2352,2354,2354,2353,2354,2354,2352,2353,2353,2352,2353,2354,2352,2353,2353,2354,2353,2353,2352,2353,2353,2353,2353,2353,2353,2353,2353,2353,2353,2353,2353,2353,2353,2353,2353,
2353,2353,2353,2353,2354,2353,2352,2353,2354,2353,2354,2353,2353,2353,2354,2354,2353,2353,2353,2354,2352,2353,2352,2353,2353,2353,2353,2353,2353,2353,2353,2353,2353,2353,2353,2353,2353,2354,2352,2354,2353,2353,2353,2352,2353,2353,2352,2352,2353,2353,2353,2353,2353,2353,2354,2353,2352,2353,2353,2352,2352,2352,2353,2353,2353,2353,2353,2353,2353,2353,2353,2353,2353,2353,2353,2353,2353,2353,2353,2353,
2353,2353,2353,2353,2353,2352,2353,2353,2352,2354,2352,2354,2352,2353,2354,2354,2352,2353,2353,2353,2353,2352,2354,2353,2353,2353,2353,2353,2353,2353,2353,2353,2353,2353,2352,2352,2354,2354,2354,2353,2353,2352,2354,2354,2352,2352,2353,2353,2353,2353,2353,2353,2353,2354,2354,2354,2353,2353,2352,2354,2354,2353,2353,2353,2353,2353,2353,2353,2353,2353,2353,2353,2353,2353,2353,2353,2353,2353,2353,2353,
2353,2353,2353,2353,2352,2354,2352,2354,2354,2353,2354,2353,2353,2354,2354,2354,2354,2353,2353,2353,2354,2354,2352,2352,2353,2353,2353,2353,2353,2353,2353,2353,2353,2354,2352,2352,2354,2353,2353,2353,2352,2354,2353,2354,2353,2353,2353,2353,2353,2353,2353,2354,2354,2352,2352,2353,2353,2353,2353,2354,2354,2353,2353,2353,2353,2353,2353,2353,2353,2353,2353,2353,2353,2353,2353,2353,2353,2353,2353,2353,
2353,2353,2353,2353,2353,2352,2353,2354,2352,2353,2352,2354,2352,2353,2352,2352,2352,2353,2353,2352,2354,2353,2354,2354,2353,2353,2353,2353,2353,2353,2354,2352,2354,2354,2354,2352,2353,2353,2353,2353,2353,2352,2353,2353,2353,2353,2353,2353,2353,2353,2353,2354,2352,2352,2353,2354,2353,2352,2353,2352,2353,2353,2353,2353,2353,2353,2353,2353,2353,2353,2353,2353,2353,2353,2353,2353,2353,2353,2353,2353,
2353,2353,2353,2353,2353,2352,2352,2352,2353,2354,2352,2352,2354,2353,2353,2353,2354,2354,2354,2352,2354,2354,2353,2352,2353,2353,2353,2354,2354,2352,2352,2353,2352,2353,2353,2353,2353,2353,2353,2353,2354,2354,2354,2352,2353,2353,2353,2353,2353,2353,2353,2354,2354,2354,2353,2352,2353,2352,2353,2353,2353,2353,2353,2353,2353,2353,2353,2353,2353,2353,2353,2353,2353,2353,2353,2353,2353,2353,2353,2353,
2353,2353,2353,2353,2353,2352,2352,2354,2353,2353,2354,2353,2352,2352,2352,2353,2352,2352,2353,2353,2354,2353,2352,2353,2353,2353,2353,2353,2352,2353,2352,2354,2353,2353,2353,2353,2353,2353,2353,2353,2353,2352,2354,2354,2354,2353,2352,2352,2352,2353,2354,2353,2353,2352,2352,2353,2353,2352,2352,2353,2352,2354,2354,2353,2353,2353,2353,2353,2353,2353,2353,2353,2353,2353,2353,2353,2353,2353,2353,2353,
2353,2353,2353,2353,2353,2353,2353,2354,2353,2354,2353,2353,2352,2354,2353,2352,2353,2353,2352,2353,2353,2353,2353,2354,2352,2354,2352,2352,2354,2353,2353,2353,2353,2353,2353,2353,2353,2353,2353,2353,2353,2353,2353,2352,2354,2354,2354,2354,2353,2353,2353,2353,2354,2353,2352,2352,2354,2354,2354,2353,2353,2352,2354,2353,2353,2353,2353,2353,2353,2353,2353,2353,2353,2353,2353,2353,2353,2353,2353,2353,
2353,2353,2353,2352,2352,2353,2353,2354,2353,2354,2352,2353,2352,2354,2352,2352,2353,2354,2353,2353,2353,2352,2353,2354,2352,2353,2353,2353,2353,2353,2353,2353,2352,2354,2354,2354,2352,2354,2353,2353,2354,2354,2354,2354,2354,2353,2354,2354,2354,2354,2354,2353,2352,2353,2354,2352,2352,2352,2353,2353,2353,2353,2353,2353,2353,2353,2353,2353,2353,2353,2353,2353,2353,2353,2353,2353,2353,2353,2353,2353,
2353,2353,2353,2354,2352,2354,2352,2354,2352,2354,2354,2353,2354,2354,2353,2354,2352,2354,2352,2354,2353,2354,2352,2354,2352,2352,2354,2352,2353,2354,2353,2352,2353,2352,2352,2352,2352,2353,2352,2354,2354,2353,2352,2352,2353,2353,2353,2353,2353,2353,2353,2353,2353,2353,2353,2353,2353,2353,2353,2353,2353,2353,2353,2353,2353,2353,2353,2353,2353,2353,2353,2353,2353,2353,2353,2353,2353,2353,2353,2353,
2353,2353,2353,2353,2352,2354,2352,2352,2354,2354,2354,2352,2354,2354,2354,2353,2353,2354,2354,2352,2353,2354,2353,2354,2352,2354,2352,2352,2354,2354,2352,2354,2352,2353,2353,2353,2353,2353,2353,2353,2353,2353,2353,2353,2353,2353,2353,2353,2353,2353,2353,2353,2353,2353,2353,2353,2353,2353,2353,2353,2353,2353,2353,2353,2353,2353,2353,2353,2353,2353,2353,2353,2353,2353,2353,2353,2353,2353,2353,2353,
2353,2353,2353,2353,2353,2353,2353,2353,2353,2352,2353,2352,2354,2352,2353,2352,2354,2353,2353,2353,2353,2353,2353,2353,2353,2353,2353,2353,2353,2353,2353,2353,2353,2353,2353,2353,2353,2353,2353,2353,2353,2353,2353,2353,2353,2353,2353,2353,2353,2353,2353,2353,2353,2353,2353,2353,2353,2353,2353,2353,2353,2353,2353,2353,2353,2353,2353,2353,2353,2353,2353,2353,2353,2353,2353,2353,2353,2353,2353,2353,
2353,2353,2353,2353,2353,2353,2354,2354,2352,2352,2354,2353,2353,2353,2353,2353,2353,2353,2353,2353,2353,2353,2353,2353,2353,2353,2353,2353,2353,2353,2353,2353,2353,2353,2353,2353,2353,2353,2353,2353,2353,2353,2353,2353,2353,2353,2353,2353,2353,2353,2353,2353,2353,2353,2353,2353,2353,2353,2353,2353,2353,2353,2353,2353,2353,2353,2353,2353,2353,2353,2353,2353,2353,2353,2353,2353,2353,2353,2353,2353,
2353,2353,2353,2353,2353,2353,2353,2353,2353,2353,2353,2353,2353,2353,2353,2353,2353,2353,2353,2353,2353,2353,2353,2353,2353,2353,2353,2353,2353,2353,2353,2353,2353,2353,2353,2353,2353,2353,2353,2353,2353,2353,2353,2353,2353,2353,2353,2353,2353,2353,2353,2353,2353,2353,2353,2353,2353,2353,2353,2353,2353,2353,2353,2353,2353,2353,2353,2353,2353,2353,2353,2353,2353,2353,2353,2353,2353,2353,2353,2353
</data>
 </layer>
 <layer id="3" name="02_paths" width="80" height="100">
  <data encoding="csv">
0,0,0,0,0,0,0,0,0,0,0,0,0,0,0,0,0,0,0,0,0,0,0,0,0,0,0,0,0,0,0,0,0,0,0,0,0,2285,2358,2358,2281,0,0,0,0,0,0,0,0,0,0,0,0,0,0,0,0,0,0,0,0,0,0,0,0,0,0,0,0,0,0,0,0,0,0,0,0,0,0,0,
0,0,0,0,0,0,0,0,0,0,0,0,0,0,0,0,0,0,0,0,0,0,0,0,0,0,0,0,0,0,0,0,0,0,0,0,0,2285,2358,2358,2281,0,0,0,0,0,0,0,0,0,0,0,0,0,0,0,0,0,0,0,0,0,0,0,0,0,0,0,0,0,0,0,0,0,0,0,0,0,0,0,
0,0,0,0,0,0,0,0,0,0,0,0,0,0,0,0,0,0,0,0,0,0,0,0,0,0,0,0,0,0,0,0,0,0,0,0,0,2285,2358,2358,2281,0,0,0,0,0,0,0,0,0,0,0,0,0,0,0,0,0,0,0,0,0,0,0,0,0,0,0,0,0,0,0,0,0,0,0,0,0,0,0,
0,0,0,0,0,0,0,0,0,0,0,0,0,0,0,0,0,0,0,0,0,0,0,0,0,0,0,0,0,0,0,0,0,0,0,0,0,2285,2358,2358,2281,0,0,0,0,0,0,0,0,0,0,0,0,0,0,0,0,0,0,0,0,0,0,0,0,0,0,0,0,0,0,0,0,0,0,0,0,0,0,0,
0,0,0,0,0,0,0,0,0,0,0,0,0,0,0,0,0,0,0,0,0,0,0,0,0,0,0,0,0,0,0,0,0,0,0,0,0,2285,2358,2358,2281,0,0,0,0,0,0,0,0,0,0,0,0,0,0,0,0,0,0,0,0,0,0,0,0,0,0,0,0,0,0,0,0,0,0,0,0,0,0,0,
0,0,0,0,0,0,0,0,0,0,0,0,0,0,0,0,0,0,0,0,0,0,0,0,0,0,0,0,0,0,0,0,0,0,0,0,0,2285,2358,2358,2281,0,0,0,0,0,0,0,0,0,0,0,0,0,0,0,0,0,0,0,0,0,0,0,0,0,0,0,0,0,0,0,0,0,0,0,0,0,0,0,
0,0,0,0,0,0,0,0,0,0,0,0,0,0,0,0,0,0,0,0,0,0,0,0,0,0,0,0,0,0,0,0,0,0,0,0,0,2285,2358,2358,2281,0,0,0,0,0,0,0,0,0,0,0,0,0,0,0,0,0,0,0,0,0,0,0,0,0,0,0,0,0,0,0,0,0,0,0,0,0,0,0,
0,0,0,0,0,0,0,0,0,0,0,0,0,0,0,0,0,0,0,0,0,0,0,0,0,0,0,0,0,0,0,0,0,0,0,0,0,2285,2358,2358,2281,0,0,0,0,0,0,0,0,0,0,0,0,0,0,0,0,0,0,0,0,0,0,0,0,0,0,0,0,0,0,0,0,0,0,0,0,0,0,0,
0,0,0,0,0,0,0,0,0,0,0,0,0,0,0,0,0,0,0,0,0,0,0,0,0,0,0,0,0,0,0,0,0,0,0,0,0,2285,2358,2358,2281,0,0,0,0,0,0,0,0,0,0,0,0,0,0,0,0,0,0,0,0,0,0,0,0,0,0,0,0,0,0,0,0,0,0,0,0,0,0,0,
0,0,0,0,0,0,0,0,0,0,0,0,0,0,0,0,0,0,0,0,0,0,0,0,0,0,0,0,0,0,0,0,0,0,0,0,0,2285,2358,2358,2281,0,0,0,0,0,0,0,0,0,0,0,0,0,0,0,0,0,0,0,0,0,0,0,0,0,0,0,0,0,0,0,0,0,0,0,0,0,0,0,
0,0,0,0,0,0,0,0,0,0,0,0,0,0,0,0,0,0,0,0,0,0,0,0,0,0,0,0,0,0,0,0,0,0,0,0,0,2285,2358,2358,2281,0,0,0,0,0,0,0,0,0,0,0,0,0,0,0,0,0,0,0,0,0,0,0,0,0,0,0,0,0,0,0,0,0,0,0,0,0,0,0,
0,0,0,0,0,0,0,0,0,0,0,0,0,0,0,0,0,0,0,0,0,0,0,0,0,0,0,0,0,0,0,0,0,0,0,0,0,2285,2358,2358,2281,0,0,0,0,0,0,0,0,0,0,0,0,0,0,0,0,0,0,0,0,0,0,0,0,0,0,0,0,0,0,0,0,0,0,0,0,0,0,0,
0,0,0,0,0,0,0,0,0,0,0,0,0,0,0,0,0,0,0,0,0,0,0,0,0,0,0,0,0,0,0,0,0,0,0,0,0,2285,2358,2358,2281,0,0,0,0,0,0,0,0,0,0,0,0,0,0,0,0,0,0,0,0,0,0,0,0,0,0,0,0,0,0,0,0,0,0,0,0,0,0,0,
0,0,0,0,0,0,0,0,0,0,0,0,0,0,0,0,0,0,0,0,0,0,0,0,0,0,0,0,0,0,0,0,0,0,0,0,0,2285,2358,2358,2281,0,0,0,0,0,0,0,0,0,0,0,0,0,0,0,0,0,0,0,0,0,0,0,0,0,0,0,0,0,0,0,0,0,0,0,0,0,0,0,
0,0,0,0,0,0,0,0,0,0,0,0,0,0,0,2314,2312,0,2314,2312,0,0,0,0,0,0,0,0,0,0,0,0,0,0,0,0,0,2285,2358,2358,2281,0,0,0,0,0,0,0,0,0,0,0,0,0,0,0,0,0,0,0,0,0,0,0,0,0,0,0,0,0,0,0,0,0,0,0,0,0,0,0,
0,0,0,0,0,0,0,0,0,0,0,0,0,0,0,2290,2286,0,2264,2262,0,0,0,0,0,0,0,0,0,0,0,0,0,0,0,0,0,2285,2358,2358,2281,0,0,0,0,0,0,0,0,0,0,0,0,0,0,0,0,0,0,0,0,0,0,0,0,0,0,0,0,0,0,0,0,0,0,0,0,0,0,0,
0,0,0,0,0,0,0,0,0,0,0,0,0,0,0,2290,2311,2312,0,0,0,0,0,0,0,0,0,0,0,0,0,0,0,0,0,0,0,2285,2358,2358,2281,0,0,0,0,0,0,0,0,0,0,0,0,0,0,0,0,0,0,0,0,0,0,0,0,0,0,0,0,0,0,0,0,0,0,0,0,0,0,0,
0,0,0,0,0,0,0,0,0,0,0,0,0,0,2314,2315,2261,2262,2314,2312,0,0,0,0,0,0,0,0,0,0,0,0,0,0,0,0,0,2285,2358,2358,2281,0,0,0,0,0,0,0,0,0,0,0,0,0,0,0,0,0,0,0,0,0,0,0,0,0,0,0,0,0,0,0,0,0,0,0,0,0,0,0,
0,0,0,0,0,0,0,0,0,0,0,0,0,0,2264,2238,2262,0,2264,2262,0,0,0,0,0,0,0,0,0,0,0,0,0,0,0,0,0,2285,2358,2358,2281,0,0,0,0,0,0,0,0,0,0,0,0,0,0,0,0,0,0,0,0,0,0,0,0,0,0,0,0,0,0,0,0,0,0,0,0,0,0,0,
0,0,0,0,0,0,0,0,0,0,0,0,0,0,0,0,2314,2338,2312,0,0,0,0,0,0,0,0,0,0,0,0,0,0,0,0,0,0,2285,2358,2358,2281,0,0,0,0,0,0,0,0,0,0,0,0,0,0,0,0,0,0,0,0,0,0,0,0,0,0,0,0,0,0,0,0,0,0,0,0,0,0,0,
0,0,0,0,0,0,0,0,0,0,0,0,0,0,2314,2338,2315,2362,2311,2312,0,0,0,0,0,0,0,0,0,0,0,0,0,0,0,0,0,2285,2358,2358,2281,0,0,0,0,0,0,0,0,0,0,0,0,0,0,0,0,0,0,0,0,0,0,0,0,0,0,0,0,0,0,0,0,0,0,0,0,0,0,0,
0,0,0,0,0,0,0,0,0,0,0,0,0,0,2290,2363,2363,2261,2238,2262,0,0,0,0,0,0,0,0,0,0,0,0,0,0,0,0,0,2285,2358,2358,2281,0,0,0,0,0,0,0,0,0,0,0,0,0,0,0,0,0,0,0,0,0,0,0,0,0,0,0,0,0,0,0,0,0,0,0,0,0,0,0,
0,0,0,0,0,0,0,0,0,0,0,0,0,0,2290,2364,2362,2286,0,0,0,0,0,0,0,0,0,0,0,0,0,0,0,0,0,0,0,2285,2358,2358,2281,0,0,0,0,0,0,0,0,0,0,0,0,0,0,0,0,0,0,0,0,0,0,0,0,0,0,0,0,0,0,0,0,0,0,0,0,0,0,0,
0,0,0,0,0,0,0,0,0,0,0,0,0,2314,2339,2364,2363,2337,2338,2312,0,0,0,0,0,0,0,0,0,0,0,0,0,0,0,0,0,2285,2358,2358,2281,0,0,0,0,0,0,0,0,0,0,0,0,0,0,0,0,0,0,0,0,0,0,0,0,0,0,0,0,0,0,0,0,0,0,0,0,0,0,0,
0,0,0,0,0,0,0,0,0,0,0,0,0,2290,2363,2364,2364,2364,2362,2286,0,0,0,0,0,0,0,0,0,0,0,0,0,0,0,0,0,2285,2358,2358,2281,0,0,0,0,0,0,0,0,0,0,0,0,0,0,0,0,0,0,0,0,0,0,0,0,0,0,0,0,0,0,0,0,0,0,0,0,0,0,0,
0,0,0,0,0,0,0,0,0,0,0,0,0,2264,2238,2238,2238,2238,2238,2262,0,0,0,0,0,0,0,0,0,0,0,0,0,0,0,0,0,2285,2358,2358,2281,0,0,0,0,0,0,0,0,0,0,0,0,0,0,0,0,0,0,0,0,0,0,0,0,0,0,0,0,0,0,0,0,0,0,0,0,0,0,0,
2333,2333,2333,2333,2333,2333,2333,2333,2333,2333,2333,2333,2333,2333,2333,2333,2333,2333,2333,2333,2333,2333,2333,2333,2333,2333,2333,2333,2333,2333,2333,2333,2333,2333,2333,2333,2333,2310,2359,2357,2281,0,0,0,0,0,0,0,0,0,0,0,0,0,0,0,0,0,0,0,0,0,0,0,0,0,0,0,0,0,0,0,0,0,0,0,0,0,0,0,
2359,2357,2357,2357,2357,2359,2358,2358,2359,2359,2357,2359,2359,2359,2359,2359,2357,2358,2357,2358,2359,2359,2359,2359,2357,2358,2357,2357,2359,2357,2359,2357,2358,2358,2358,2359,2358,2359,2357,2357,2332,2333,2333,2333,2333,2333,2333,2333,2333,2333,2333,2333,2333,2307,0,0,0,0,0,0,0,0,0,0,0,0,0,0,0,0,0,0,0,0,0,0,0,0,0,0,
2234,2357,2359,2357,2357,2359,2357,2359,2357,2358,2359,2359,2358,2357,2358,2357,2358,2357,2359,2358,2359,2359,2358,2359,2358,2357,2359,2358,2357,2359,2358,2358,2358,2358,2358,2357,2358,2359,2358,2358,2359,2357,2357,2357,2357,2359,2358,2357,2359,2359,2357,2357,2357,2306,2333,2333,2333,2333,2307,0,0,0,0,0,0,0,0,0,0,0,0,0,0,0,0,0,0,0,0,0,
2259,2233,2233,2233,2233,2233,2233,2233,2233,2233,2233,2233,2233,2233,2233,2233,2233,2233,2233,2233,2233,2233,2233,2233,2233,2233,2233,2233,2233,2233,2233,2233,2233,2233,2233,2233,2233,2233,2233,2233,2234,2358,2256,2233,2233,2233,2233,2233,2233,2233,2233,2233,2234,2359,2358,2359,2358,2359,2306,2333,2333,2333,2333,2307,0,0,0,0,0,0,0,0,0,0,0,0,0,0,0,0,
0,0,0,0,0,0,0,0,0,0,0,0,0,0,0,0,0,0,0,0,0,0,0,0,0,0,0,0,0,0,0,0,0,0,0,0,0,0,0,0,2285,2359,2281,0,0,0,0,0,0,0,0,0,2259,2233,2233,2233,2233,2234,2358,2357,2359,2357,2357,2306,2333,2333,2333,2307,0,0,0,0,0,0,0,0,0,0,0,0,
0,0,0,0,0,0,0,0,0,0,0,0,0,0,0,0,0,0,0,0,0,0,0,0,0,0,0,0,0,0,0,0,0,0,0,0,0,0,0,0,2285,2358,2281,0,0,0,0,0,0,0,0,0,0,0,0,0,0,2259,2233,2233,2233,2233,2260,2359,2359,2357,2358,2306,2333,2333,2333,2333,2307,0,0,0,0,0,0,0,
0,0,0,0,0,0,0,0,0,0,0,0,0,0,0,0,0,0,0,0,0,0,0,0,0,0,0,0,0,0,0,0,0,0,0,0,0,0,0,0,2285,2359,2281,0,0,0,0,0,0,0,0,0,0,0,0,0,0,0,0,0,0,0,2259,2233,2233,2233,2260,2358,2359,2358,2357,2359,2306,2333,2333,2333,2333,2307,0,0,
0,0,0,0,0,0,0,0,0,0,0,0,0,0,0,0,0,0,0,0,0,0,0,0,0,0,0,0,0,0,0,0,0,0,0,0,0,0,0,0,2285,2358,2281,0,0,0,0,0,0,0,0,0,0,0,0,0,0,0,0,0,0,0,0,0,0,0,2259,2233,2233,2233,2233,2234,2357,2358,2358,2358,2359,2306,2333,2333,
0,0,0,0,0,0,0,0,0,0,0,0,0,0,0,0,0,0,0,0,0,0,0,0,0,0,0,0,0,0,0,0,0,0,0,0,0,0,0,0,2285,2357,2281,0,0,0,0,0,0,0,0,0,0,0,0,0,0,0,0,0,0,0,0,0,0,0,0,0,0,0,0,2259,2233,2233,2233,2233,2260,2357,2358,2359,
0,0,0,0,0,0,0,0,0,0,0,0,0,0,0,0,0,0,0,0,0,0,0,0,0,0,0,0,0,0,0,0,0,0,0,0,0,0,0,0,2285,2358,2281,0,0,0,0,0,0,0,0,0,0,0,0,0,0,0,0,0,0,0,0,0,0,0,0,0,0,0,0,0,0,0,0,0,2259,2233,2233,2233,
0,0,0,0,0,0,0,0,0,0,0,0,0,0,0,0,0,0,0,0,0,0,0,0,0,0,0,0,0,0,0,0,0,0,0,0,0,0,0,0,2285,2359,2281,0,0,0,0,0,0,0,0,0,0,0,0,0,0,0,0,0,0,0,0,0,0,0,0,0,0,0,0,0,0,0,0,0,0,0,0,0,
0,0,0,0,0,0,0,0,0,0,0,0,0,0,0,0,0,0,0,0,0,0,0,0,0,0,0,2309,2333,2333,2307,0,0,2309,2333,2333,2333,2333,2333,2333,2310,2358,2332,2333,2333,2333,2333,2307,0,0,0,0,0,0,0,0,0,0,0,0,0,0,0,0,0,0,0,0,0,0,0,0,0,0,0,0,0,0,0,0,
0,0,0,0,0,0,0,0,0,0,0,0,0,0,0,0,0,0,0,0,0,0,0,0,0,0,0,2285,2358,2358,2332,2333,2333,2334,2358,2359,2359,2357,2358,2359,2357,2358,2359,2358,2359,2357,2359,2306,2307,0,0,0,0,0,0,0,0,0,0,0,0,0,0,0,0,0,0,0,0,0,0,0,0,0,0,0,0,0,0,0,
0,0,0,0,0,0,0,0,0,0,0,0,0,0,0,0,0,0,0,0,0,0,0,0,0,0,0,2285,2357,2358,2359,2359,2358,2357,2358,2359,2358,2359,2357,2357,2359,2359,2358,2358,2358,2357,2359,2357,2281,0,0,0,0,0,0,0,0,0,0,0,0,0,0,0,0,0,0,0,0,0,0,0,0,0,0,0,0,0,0,0,
0,0,0,0,0,0,0,0,0,0,0,0,0,0,0,0,0,0,0,0,0,0,0,0,0,0,0,2285,2358,2358,2358,2358,2359,2358,2358,2358,2358,2358,2358,2357,2357,2357,2358,2357,2359,2357,2357,2357,2281,0,0,0,0,0,0,0,0,0,0,0,0,0,0,0,0,0,0,0,0,0,0,0,0,0,0,0,0,0,0,0,
0,0,0,0,0,0,0,0,0,0,0,0,0,0,0,0,0,0,0,0,0,0,0,0,0,0,0,2285,2358,2358,2359,2359,2357,2359,2357,2358,2359,2359,2358,2357,2359,2359,2358,2358,2358,2358,2358,2359,2281,0,0,0,0,0,0,0,0,0,0,0,0,0,0,0,0,0,0,0,0,0,0,0,0,0,0,0,0,0,0,0,
0,0,0,0,0,0,0,0,0,0,0,0,0,0,0,0,0,0,0,0,0,0,0,0,0,0,0,2285,2357,2357,2359,2358,2359,2357,2359,2358,2358,2358,2357,2358,2358,2359,2358,2358,2357,2359,2357,2359,2281,0,0,0,0,0,0,0,0,0,0,0,0,0,0,0,0,0,0,0,0,0,0,0,0,0,0,0,0,0,0,0,
0,0,0,0,0,0,0,0,0,0,0,0,0,0,0,0,0,0,0,0,0,0,0,0,0,0,0,2285,2359,2359,2357,2357,2359,2357,2358,2358,2357,2358,2358,2358,2358,2357,2358,2357,2357,2357,2357,2357,2281,0,0,0,0,0,0,0,0,0,0,0,0,0,0,0,0,0,0,0,0,0,0,0,0,0,0,0,0,0,0,0,
0,0,0,0,0,0,0,0,0,0,0,0,0,0,0,0,0,0,0,0,0,0,0,0,0,0,0,2285,2358,2357,2357,2357,2358,2359,2358,2358,2359,2359,2359,2357,2357,2357,2359,2357,2358,2357,2357,2358,2281,0,0,0,0,0,0,0,0,0,0,0,0,0,0,0,0,0,0,0,0,0,0,0,0,0,0,0,0,0,0,0,
0,0,0,0,0,0,0,0,0,0,0,0,0,0,0,0,0,0,0,0,0,0,0,0,0,0,0,2285,2359,2359,2358,2357,2358,2357,2359,2358,2358,2358,2357,2357,2357,2358,2357,2358,2358,2357,2357,2358,2281,0,0,0,0,0,0,0,0,0,0,0,0,0,0,0,0,0,0,0,0,0,0,0,0,0,0,0,0,0,0,0,
0,0,0,0,0,0,0,0,0,0,0,0,0,0,0,0,0,0,0,0,0,0,0,0,0,0,0,2285,2359,2359,2359,2359,2357,2357,2357,2357,2357,2357,2358,2357,2359,2359,2358,2357,2359,2358,2357,2358,2281,0,0,0,0,0,0,0,0,0,0,0,0,0,0,0,0,0,0,0,0,0,0,0,0,0,0,0,0,0,0,0,
0,0,0,0,0,0,0,0,0,0,0,0,0,0,0,0,0,0,0,0,0,0,0,0,0,0,0,2285,2359,2359,2359,2357,2357,2359,2358,2358,2358,2358,2359,2358,2357,2358,2357,2359,2359,2357,2357,2357,2332,2333,2333,2333,2333,2333,2333,2333,2333,2333,2333,2333,2333,2333,2307,0,0,0,0,0,0,0,0,0,0,0,0,0,0,0,0,0,
0,0,0,0,0,0,0,0,0,0,0,0,0,0,0,0,0,0,0,0,0,0,0,0,0,0,0,2285,2359,2358,2359,2359,2358,2358,2357,2358,2359,2359,2358,2358,2358,2357,2357,2359,2358,2358,2358,2359,2357,2357,2357,2359,2357,2357,2359,2357,2359,2359,2358,2358,2357,2358,2281,0,0,0,0,0,0,0,0,0,0,0,0,0,0,0,0,0,
0,0,0,0,0,0,0,0,0,0,0,0,0,0,0,0,0,0,0,0,0,0,0,0,0,0,0,2259,2260,2358,2359,2357,2357,2359,2357,2358,2358,2357,2359,2359,2358,2359,2359,2359,2358,2357,2357,2359,2357,2357,2357,2358,2359,2359,2357,2358,2359,2359,2359,2357,2357,2359,2281,0,0,0,0,0,0,0,0,0,0,0,0,0,0,0,0,0,
0,0,0,0,0,0,0,0,0,0,0,0,0,0,0,0,0,0,0,0,0,0,0,0,0,0,0,0,2259,2233,2233,2233,2233,2233,2233,2233,2233,2233,2233,2233,2233,2233,2233,2233,2233,2233,2233,2260,2359,2359,2256,2233,2233,2233,2233,2233,2233,2233,2233,2233,2233,2233,2257,0,0,0,0,0,0,0,0,0,0,0,0,0,0,0,0,0,
0,0,0,0,0,0,0,0,0,0,0,0,0,0,0,0,0,0,0,0,0,0,0,0,0,0,0,0,0,0,0,0,0,0,0,0,0,0,0,0,0,0,0,0,0,0,0,2285,2357,2359,2281,0,0,0,0,0,0,0,0,0,0,0,0,0,0,0,0,0,0,0,0,0,0,0,0,0,0,0,0,0,
0,0,0,0,0,0,0,0,0,0,0,0,0,0,0,0,0,0,0,0,0,0,0,0,0,0,0,0,0,0,0,0,0,0,0,0,0,0,0,0,0,0,0,0,0,0,0,2285,2357,2359,2281,0,0,0,0,0,0,0,0,0,0,0,0,0,0,0,0,0,0,0,0,0,0,0,0,0,0,0,0,0,
0,0,0,0,0,0,0,0,0,0,0,0,0,0,0,0,0,0,0,0,0,0,0,0,0,0,0,0,0,0,0,0,0,0,0,0,0,0,0,0,0,0,0,0,0,0,0,2285,2359,2359,2281,0,0,0,0,0,0,0,0,0,0,0,0,0,0,0,0,0,0,0,0,0,0,0,0,0,0,0,0,0,
0,0,0,0,0,0,0,0,0,0,0,0,0,0,0,0,0,0,0,0,0,0,0,0,0,0,0,0,0,0,0,0,0,0,0,0,0,0,0,0,0,0,0,0,0,0,0,2285,2357,2359,2281,0,0,0,0,0,0,0,0,0,0,0,0,0,0,0,0,0,0,0,0,0,0,0,0,0,0,0,0,0,
0,0,0,0,0,0,0,0,0,0,0,0,0,0,0,0,0,0,0,0,0,0,0,0,0,0,0,0,0,0,0,0,0,0,0,0,0,0,0,0,0,0,0,0,0,0,0,2285,2359,2359,2281,0,0,0,0,0,0,0,0,0,0,0,0,0,0,0,0,0,0,0,0,0,0,0,0,0,0,0,0,0,
0,0,0,0,0,0,0,0,0,0,0,0,0,0,0,0,0,0,0,0,0,0,0,0,0,0,0,0,0,0,0,0,0,0,0,0,0,0,0,0,0,0,0,0,0,0,0,2285,2357,2358,2281,0,0,0,0,0,0,0,0,0,0,0,0,0,0,0,0,0,0,0,0,0,0,0,0,0,0,0,0,0,
0,0,0,0,0,0,0,0,0,0,0,0,0,0,0,0,0,0,0,0,0,0,0,0,0,0,0,0,0,0,0,0,0,0,0,0,0,0,0,0,0,0,0,0,0,0,0,2285,2359,2358,2306,2307,0,0,0,0,0,0,0,0,0,0,0,0,0,0,0,0,0,0,0,0,0,0,0,0,0,0,0,0,
0,0,0,0,0,0,0,0,0,0,0,0,0,0,0,0,0,0,0,0,0,0,0,0,0,0,0,0,0,0,0,0,0,0,0,0,0,0,0,0,0,0,0,0,0,0,0,2285,2358,2358,2357,2281,0,0,0,0,0,0,0,0,0,0,0,0,0,0,0,0,0,0,0,0,0,0,0,0,0,0,0,0,
0,0,0,0,0,0,0,0,0,0,0,0,0,0,0,0,0,0,0,0,0,0,0,0,0,0,0,0,0,0,0,0,0,0,0,0,0,0,0,0,0,0,0,0,0,0,0,2285,2357,2357,2359,2281,0,0,0,0,0,0,0,0,0,0,0,0,0,0,0,0,0,0,0,0,0,0,0,0,0,0,0,0,
0,0,0,0,0,0,0,0,0,0,0,0,0,0,0,0,0,0,0,0,0,0,0,0,0,0,0,0,0,0,0,0,0,0,0,0,0,0,0,0,0,0,0,0,0,0,0,2285,2359,2359,2359,2281,0,0,0,0,0,0,0,0,0,0,0,0,0,0,0,0,0,0,0,0,0,0,0,0,0,0,0,0,
0,0,0,0,0,0,0,0,0,0,0,0,0,0,0,0,0,0,0,0,0,0,0,0,0,0,0,0,0,0,0,0,0,0,0,0,0,0,0,0,0,0,0,0,0,0,0,2285,2358,2359,2359,2281,0,0,0,0,0,0,0,0,0,0,0,0,0,0,0,0,0,0,0,0,0,0,0,0,0,0,0,0,
0,0,0,0,0,0,0,0,0,0,0,0,0,0,0,0,0,0,0,0,0,0,0,0,0,0,0,0,0,0,0,0,0,0,0,0,0,0,0,0,0,0,0,0,0,0,0,2285,2359,2359,2358,2332,2333,2307,0,0,0,0,0,0,0,0,0,0,0,0,0,0,0,0,0,0,0,0,0,0,0,0,0,0,
0,0,0,0,0,0,0,0,0,0,0,0,0,0,0,0,0,0,0,0,0,0,0,0,0,0,0,0,0,0,0,0,0,0,0,0,0,0,0,0,0,0,0,0,0,0,0,2285,2357,2357,2359,2359,2358,2281,0,0,0,0,0,0,0,0,0,0,0,0,0,0,0,0,0,0,0,0,0,0,0,0,0,0,
0,0,0,0,0,0,0,0,0,0,0,0,0,0,0,0,0,0,0,0,0,0,0,0,0,0,0,0,0,0,0,0,0,0,0,0,0,0,0,0,0,0,0,0,0,0,0,2259,2234,2359,2359,2359,2358,2281,0,0,0,0,0,0,0,0,0,0,0,0,0,0,0,0,0,0,0,0,0,0,0,0,0,0,
0,0,0,0,0,0,0,0,0,0,0,0,0,0,0,0,0,0,0,0,0,0,0,0,0,0,0,0,0,0,0,0,0,0,0,0,0,0,0,0,0,0,0,0,0,0,0,0,2285,2359,2358,2359,2232,2257,0,0,0,0,0,0,0,0,0,0,0,0,0,0,0,0,0,0,0,0,0,0,0,0,0,0,
0,0,0,0,0,0,0,0,0,0,0,0,0,0,0,0,0,0,0,0,0,0,0,0,0,0,0,0,0,0,0,0,0,0,0,0,0,0,0,0,0,0,0,0,0,0,0,0,2285,2359,2256,2233,2257,0,0,0,0,0,0,0,0,0,0,0,0,0,0,0,0,0,0,0,0,0,0,0,0,0,0,0,
0,0,0,0,0,0,0,0,0,0,0,0,0,0,0,0,0,0,0,0,0,0,0,0,0,0,0,0,0,0,0,0,0,0,0,0,0,0,0,0,0,0,0,0,0,0,0,0,2285,2359,2281,0,0,0,0,0,0,0,0,0,0,0,0,0,0,0,0,0,0,0,0,0,0,0,0,0,0,0,0,0,
0,0,0,0,0,0,0,0,0,0,0,0,0,0,0,0,0,0,0,0,0,0,0,0,0,0,0,0,0,0,0,0,0,0,0,0,0,0,0,0,0,0,0,0,0,0,0,0,2285,2358,2281,0,0,0,0,0,0,0,0,0,0,0,0,0,0,0,0,0,0,0,0,0,0,0,0,0,0,0,0,0,
0,0,0,0,0,0,0,0,0,0,0,0,0,0,0,0,0,0,0,0,0,0,0,0,0,0,0,0,0,0,0,0,0,0,0,0,0,0,0,0,0,0,0,0,0,0,0,0,2285,2359,2281,0,0,0,0,0,0,0,0,0,0,0,0,0,0,0,0,0,0,0,0,0,0,0,0,0,0,0,0,0,
0,0,0,0,0,0,0,0,0,0,0,0,0,0,0,0,0,0,0,0,0,0,0,0,0,0,0,0,0,0,0,0,0,0,0,0,0,0,0,0,0,0,0,0,0,0,0,0,2285,2358,2281,0,0,0,0,0,0,0,0,0,0,0,0,0,0,0,0,0,0,0,0,0,0,0,0,0,0,0,0,0,
0,0,0,0,0,0,0,0,0,0,0,0,0,0,0,0,0,0,0,0,0,0,0,0,0,0,0,0,0,0,0,0,0,0,0,0,0,0,0,0,0,0,0,0,0,0,0,0,2285,2358,2281,0,0,0,0,0,0,0,0,0,0,0,0,0,0,0,0,0,0,0,0,0,0,0,0,0,0,0,0,0,
0,0,0,0,0,0,0,0,0,0,0,0,0,0,0,0,0,0,0,0,0,0,0,0,0,0,0,0,0,0,0,0,0,0,0,0,0,0,0,0,0,0,0,0,0,0,0,0,2285,2358,2281,0,0,0,0,0,0,0,0,0,0,0,0,0,0,0,0,0,0,0,0,0,0,0,0,0,0,0,0,0,
0,0,0,0,0,0,0,0,0,0,0,0,0,0,0,0,0,0,0,0,0,0,0,0,0,0,0,0,0,0,0,0,0,0,0,0,0,0,0,0,0,0,0,0,0,0,0,0,2285,2357,2281,0,0,0,0,0,0,0,0,0,0,0,0,0,0,0,0,0,0,0,0,0,0,0,0,0,0,0,0,0,
0,0,0,0,0,0,0,0,0,0,0,0,0,0,0,0,0,0,0,0,0,0,0,0,0,0,0,0,0,0,0,0,0,0,0,0,0,0,0,0,0,0,0,0,0,0,0,0,2285,2357,2281,0,0,0,0,0,0,0,0,0,0,0,0,0,0,0,0,0,0,0,0,0,0,0,0,0,0,0,0,0,
0,0,0,0,0,0,0,0,0,0,0,0,0,0,0,0,0,0,0,0,0,0,0,0,0,0,0,0,0,0,0,0,0,0,0,0,0,0,0,0,0,0,0,0,0,0,0,0,2285,2358,2281,0,0,0,0,0,0,0,0,0,0,0,0,0,0,0,0,0,0,0,0,0,0,0,0,0,0,0,0,0,
0,0,0,0,0,0,0,0,0,0,0,0,0,0,0,0,0,0,0,0,0,0,0,0,0,0,0,0,0,0,0,0,0,0,0,0,0,0,0,0,0,0,0,0,0,0,0,0,2285,2358,2281,0,0,0,0,0,0,0,0,0,0,0,0,0,0,0,0,0,0,0,0,0,0,0,0,0,0,0,0,0,
0,0,0,0,0,0,0,0,0,0,0,0,0,0,0,0,0,0,0,0,0,0,0,0,0,0,0,0,0,0,0,0,0,0,0,0,0,0,0,0,0,0,0,0,0,0,0,0,2285,2358,2281,0,0,0,0,0,0,0,0,0,0,0,0,0,0,0,0,0,0,0,0,0,0,0,0,0,0,0,0,0,
0,0,0,0,0,0,0,0,0,0,0,0,0,0,0,0,0,0,0,0,0,0,0,0,0,0,0,0,0,0,0,0,0,0,0,0,0,0,0,0,0,0,0,0,0,0,0,0,2285,2359,2281,0,0,0,0,0,0,0,0,0,0,0,0,0,0,0,0,0,0,0,0,0,0,0,0,0,0,0,0,0,
0,0,0,0,0,0,0,0,0,0,0,0,0,0,0,0,0,0,0,0,0,0,0,0,0,0,0,0,0,0,0,0,0,0,0,0,0,0,0,0,0,0,0,0,0,0,0,0,2285,2358,2281,0,0,0,0,0,0,0,0,0,0,0,0,0,0,0,0,0,0,0,0,0,0,0,0,0,0,0,0,0,
0,0,0,0,0,0,0,0,0,0,0,0,0,0,0,0,0,0,0,0,0,0,0,0,0,0,0,0,0,0,0,0,0,0,0,0,0,0,0,0,0,0,0,0,0,0,0,0,2285,2359,2281,0,0,0,0,0,0,0,0,0,0,0,0,0,0,0,0,0,0,0,0,0,0,0,0,0,0,0,0,0,
0,0,0,0,0,0,0,0,0,0,0,0,0,0,0,0,0,0,0,0,0,0,0,0,0,0,0,0,0,0,0,0,0,0,0,0,0,0,0,0,0,0,0,0,0,0,0,0,2285,2358,2281,0,0,0,0,0,0,0,0,0,0,0,0,0,0,0,0,0,0,0,0,0,0,0,0,0,0,0,0,0,
0,0,0,0,0,0,0,0,0,0,0,0,0,0,0,0,0,0,0,0,0,0,0,0,0,0,0,0,0,0,0,0,0,0,0,0,0,0,0,0,0,0,0,0,0,0,0,0,2285,2357,2281,0,0,0,0,0,0,0,0,0,0,0,0,0,0,0,0,0,0,0,0,0,0,0,0,0,0,0,0,0,
0,0,0,0,0,0,0,0,0,0,0,0,0,0,0,0,0,0,0,0,0,0,0,0,0,0,0,0,0,0,0,0,0,0,0,0,0,0,0,0,0,0,0,0,0,0,0,0,2285,2357,2281,0,0,0,0,0,0,0,0,0,0,0,0,0,0,0,0,0,0,0,0,0,0,0,0,0,0,0,0,0,
0,0,0,0,0,0,0,0,0,0,0,0,0,0,0,0,0,0,0,0,0,0,0,0,0,0,0,0,0,0,0,0,0,0,0,0,0,0,0,0,0,0,0,0,0,0,0,0,2285,2357,2281,0,0,0,0,0,0,0,0,0,0,0,0,0,0,0,0,0,0,0,0,0,0,0,0,0,0,0,0,0,
0,0,0,0,0,0,0,0,0,0,0,0,0,0,0,0,0,0,0,0,0,0,0,0,0,0,0,0,0,0,0,0,0,0,0,0,0,0,0,0,0,0,0,0,0,0,0,0,2285,2357,2281,0,0,0,0,0,0,0,0,0,0,0,0,0,0,0,0,0,0,0,0,0,0,0,0,0,0,0,0,0,
0,0,0,0,0,0,0,0,0,0,0,0,0,0,0,0,0,0,0,0,0,0,0,0,0,0,0,0,0,0,0,0,0,0,0,0,0,0,0,0,0,0,0,0,0,0,0,0,2285,2359,2281,0,0,0,0,0,0,0,0,0,0,0,0,0,0,0,0,0,0,0,0,0,0,0,0,0,0,0,0,0,
0,0,0,0,0,0,0,0,0,0,0,0,0,0,0,0,0,0,0,0,0,0,0,0,0,0,0,0,0,0,0,0,0,0,0,0,0,0,0,0,0,0,0,0,0,0,0,0,2285,2359,2281,0,0,0,0,0,0,0,0,0,0,0,0,0,0,0,0,0,0,0,0,0,0,0,0,0,0,0,0,0,
0,0,0,0,0,0,0,0,0,0,0,0,0,0,0,0,0,0,0,0,0,0,0,0,0,0,0,0,0,0,0,0,0,0,0,0,0,0,0,0,0,0,0,0,0,0,0,0,2285,2359,2281,0,0,0,0,0,0,0,0,0,0,0,0,0,0,0,0,0,0,0,0,0,0,0,0,0,0,0,0,0,
0,0,0,0,0,0,0,0,0,0,0,0,0,0,0,0,0,0,0,0,0,0,0,0,0,0,0,0,0,0,0,0,0,0,0,0,0,0,0,0,0,0,0,0,0,0,0,0,2285,2357,2281,0,0,0,0,0,0,0,0,0,0,0,0,0,0,0,0,0,0,0,0,0,0,0,0,0,0,0,0,0,
0,0,0,0,0,0,0,0,0,0,0,0,0,0,0,0,0,0,0,0,0,0,0,0,0,0,0,0,0,0,0,0,0,0,0,0,0,0,0,0,0,0,0,0,0,0,0,0,2285,2357,2281,0,0,0,0,0,0,0,0,0,0,0,0,0,0,0,0,0,0,0,0,0,0,0,0,0,0,0,0,0,
0,0,0,0,0,0,0,0,0,0,0,0,0,0,0,0,0,0,0,0,0,0,0,0,0,0,0,0,0,0,0,0,0,0,0,0,0,0,0,0,0,0,0,0,0,0,0,0,2285,2359,2281,0,0,0,0,0,0,0,0,0,0,0,0,0,0,0,0,0,0,0,0,0,0,0,0,0,0,0,0,0,
0,0,0,0,0,0,0,0,0,0,0,0,0,0,0,0,0,0,0,0,0,0,0,0,0,0,0,0,0,0,0,0,0,0,0,0,0,0,0,0,0,0,0,0,0,0,0,0,2285,2358,2281,0,0,0,0,0,0,0,0,0,0,0,0,0,0,0,0,0,0,0,0,0,0,0,0,0,0,0,0,0,
0,0,0,0,0,0,0,0,0,0,0,0,0,0,0,0,0,0,0,0,0,0,0,0,0,0,0,0,0,0,0,0,0,0,0,0,0,0,0,0,0,0,0,0,0,0,0,0,2285,2358,2281,0,0,0,0,0,0,0,0,0,0,0,0,0,0,0,0,0,0,0,0,0,0,0,0,0,0,0,0,0,
0,0,0,0,0,0,0,0,0,0,0,0,0,0,0,0,0,0,0,0,0,0,0,0,0,0,0,0,0,0,0,0,0,0,0,0,0,0,0,0,0,0,0,0,0,0,0,0,2285,2359,2281,0,0,0,0,0,0,0,0,0,0,0,0,0,0,0,0,0,0,0,0,0,0,0,0,0,0,0,0,0,
0,0,0,0,0,0,0,0,0,0,0,0,0,0,0,0,0,0,0,0,0,0,0,0,0,0,0,0,0,0,0,0,0,0,0,0,0,0,0,0,0,0,0,0,0,0,0,0,2285,2358,2281,0,0,0,0,0,0,0,0,0,0,0,0,0,0,0,0,0,0,0,0,0,0,0,0,0,0,0,0,0,
0,0,0,0,0,0,0,0,0,0,0,0,0,0,0,0,0,0,0,0,0,0,0,0,0,0,0,0,0,0,0,0,0,0,0,0,0,0,0,0,0,0,0,0,0,0,0,0,2285,2358,2281,0,0,0,0,0,0,0,0,0,0,0,0,0,0,0,0,0,0,0,0,0,0,0,0,0,0,0,0,0,
0,0,0,0,0,0,0,0,0,0,0,0,0,0,0,0,0,0,0,0,0,0,0,0,0,0,0,0,0,0,0,0,0,0,0,0,0,0,0,0,0,0,0,0,0,0,0,0,2285,2358,2281,0,0,0,0,0,0,0,0,0,0,0,0,0,0,0,0,0,0,0,0,0,0,0,0,0,0,0,0,0,
0,0,0,0,0,0,0,0,0,0,0,0,0,0,0,0,0,0,0,0,0,0,0,0,0,0,0,0,0,0,0,0,0,0,0,0,0,0,0,0,0,0,0,0,0,0,0,0,2285,2359,2281,0,0,0,0,0,0,0,0,0,0,0,0,0,0,0,0,0,0,0,0,0,0,0,0,0,0,0,0,0,
0,0,0,0,0,0,0,0,0,0,0,0,0,0,0,0,0,0,0,0,0,0,0,0,0,0,0,0,0,0,0,0,0,0,0,0,0,0,0,0,0,0,0,0,0,0,0,0,2285,2359,2281,0,0,0,0,0,0,0,0,0,0,0,0,0,0,0,0,0,0,0,0,0,0,0,0,0,0,0,0,0
</data>
 </layer>
 <layer id="2" name="03_decor_low" width="80" height="100">
  <data encoding="csv">
0,0,0,0,0,0,0,0,0,0,0,0,0,0,0,0,0,0,0,0,0,0,0,0,0,0,0,0,0,0,0,0,0,0,0,0,0,0,0,0,0,0,0,0,0,0,0,0,0,0,0,0,0,0,0,0,0,0,0,0,0,0,0,0,0,0,0,0,0,0,0,0,0,0,0,0,0,0,0,0,
0,0,0,0,0,0,0,0,0,0,0,0,0,0,0,0,0,0,0,0,0,0,0,0,0,0,0,0,0,0,0,0,0,0,0,0,0,0,0,0,0,0,0,0,0,0,0,0,0,0,0,0,0,0,0,0,0,0,0,0,0,0,0,0,0,0,0,0,0,0,0,0,0,0,0,0,0,0,0,0,
0,0,0,0,0,0,0,0,0,0,0,0,0,0,0,0,0,0,0,0,0,0,0,0,0,0,0,0,0,0,0,0,0,0,0,0,0,0,0,0,0,0,0,0,0,0,0,0,0,0,0,0,0,0,0,0,0,0,0,0,0,0,0,0,0,0,0,0,0,0,0,0,0,0,0,0,0,0,0,0,
0,0,0,0,0,0,0,0,0,0,0,0,0,0,0,0,0,0,0,0,0,0,0,0,0,0,0,0,0,0,0,0,0,0,0,0,0,0,0,0,0,0,0,0,0,0,0,0,0,0,0,0,0,0,0,0,0,0,0,0,0,0,0,0,0,0,0,0,0,0,0,0,0,0,0,0,0,0,0,0,
0,0,0,0,0,0,0,0,0,0,0,0,0,0,0,0,0,0,0,0,0,0,0,0,0,0,0,0,0,0,0,0,0,0,0,0,0,0,0,0,0,0,0,0,0,0,0,0,0,0,0,0,0,0,0,0,0,0,0,0,0,0,0,0,0,0,0,0,0,0,0,0,0,0,0,0,0,0,0,0,
0,0,0,0,0,0,0,0,0,0,0,0,0,0,0,0,0,0,0,0,0,0,0,0,0,0,0,0,0,0,0,0,0,0,0,0,0,0,0,0,0,0,0,0,0,0,0,0,0,0,0,0,0,0,0,0,0,0,0,0,0,0,0,0,0,0,0,0,0,0,0,0,0,0,0,0,0,0,0,0,
0,0,0,0,0,0,0,0,0,0,0,0,0,0,0,0,0,0,0,0,0,0,0,0,0,0,0,0,0,0,0,0,0,0,0,0,0,0,0,0,0,0,0,0,0,0,0,0,0,0,0,0,0,0,0,0,0,0,0,0,0,0,0,0,0,0,0,0,0,0,0,0,0,0,0,0,0,0,0,0,
0,0,0,0,0,0,0,0,0,0,0,0,0,0,0,0,0,0,0,0,0,0,0,0,0,0,0,0,0,0,0,0,0,0,0,0,0,0,0,0,0,0,0,0,0,0,0,0,0,0,0,0,0,0,0,0,0,0,0,0,0,0,0,0,0,0,0,0,0,0,0,0,0,0,0,0,0,0,0,0,
0,0,0,0,0,0,0,0,0,0,0,0,0,0,0,0,0,0,0,0,0,0,0,0,0,0,0,0,0,0,0,0,0,0,0,0,0,0,0,0,0,0,0,0,0,0,0,0,0,0,0,0,0,0,0,0,0,0,0,0,0,0,0,0,0,0,0,0,0,0,0,0,0,0,0,0,0,0,0,0,
0,0,0,0,0,0,0,0,0,0,0,0,0,0,0,0,0,0,0,0,0,0,0,0,0,0,0,0,0,0,0,0,0,0,0,0,0,0,0,0,0,0,0,0,0,0,0,0,0,0,0,0,0,0,0,0,0,0,0,0,0,0,0,0,0,0,0,0,0,0,0,0,0,0,0,0,0,0,0,0,
0,0,0,0,0,0,0,0,0,0,0,0,0,0,0,0,0,0,0,0,0,0,0,0,0,0,0,0,0,0,0,0,0,0,0,0,0,0,0,0,0,0,0,0,0,0,0,0,0,0,0,0,0,0,0,0,0,0,0,0,0,0,0,0,0,0,0,0,0,0,0,0,0,0,0,0,0,0,0,0,
0,0,0,0,0,0,0,0,0,0,0,0,0,0,0,0,0,0,0,0,0,0,0,0,0,0,0,0,0,0,0,0,0,0,0,0,0,0,0,0,0,0,0,0,0,0,0,0,0,0,0,0,0,0,0,0,0,0,0,0,0,0,0,0,0,0,0,0,0,0,0,0,0,0,0,0,0,0,0,0,
0,0,0,0,0,0,0,0,0,0,0,0,0,0,0,0,0,0,0,0,0,0,0,0,0,0,0,0,0,0,0,0,0,0,0,0,0,0,0,0,0,0,0,0,0,0,0,0,0,0,0,0,0,0,0,0,0,0,0,0,0,0,0,0,0,0,0,0,0,0,0,0,0,0,0,0,0,0,0,0,
0,0,0,0,0,0,0,0,0,0,0,0,0,0,0,0,0,0,0,0,0,0,0,0,0,0,0,0,0,0,0,0,0,0,0,0,0,0,0,0,0,0,0,0,0,0,0,0,0,0,0,0,0,0,0,0,0,0,0,0,0,0,0,0,0,0,0,0,0,0,0,0,0,0,0,0,0,0,0,0,
0,0,0,0,0,0,0,0,0,0,0,0,0,0,0,0,0,0,0,0,0,0,0,0,0,0,0,0,0,0,0,0,0,0,0,0,0,0,0,0,0,0,0,0,0,0,0,0,0,0,0,0,0,0,0,0,0,0,0,0,0,0,0,0,0,0,0,0,0,0,0,0,0,0,0,0,0,0,0,0,
0,0,0,0,0,0,0,0,0,0,0,0,0,0,0,0,0,0,0,0,0,0,0,0,0,0,0,0,0,0,0,0,0,0,0,0,0,0,0,0,0,0,0,0,0,0,0,0,0,0,0,0,0,0,0,0,0,0,0,0,0,0,0,0,0,0,0,0,0,0,0,0,0,0,0,0,0,0,0,0,
0,0,0,0,0,0,0,0,0,0,0,0,0,0,0,0,0,0,0,0,0,0,0,0,0,0,0,0,0,0,0,0,0,0,0,0,0,0,0,0,0,0,0,0,0,0,0,0,0,0,0,0,0,0,0,0,0,0,0,0,0,0,0,0,0,0,0,0,0,0,0,0,0,0,0,0,0,0,0,0,
0,0,0,0,0,0,0,0,0,0,0,0,0,0,0,0,0,0,0,0,0,0,0,0,0,0,0,0,0,0,0,0,0,0,0,0,0,0,0,0,0,0,0,0,0,0,0,0,0,0,0,0,0,0,0,0,0,0,0,0,0,0,0,0,0,0,0,0,0,0,0,0,0,0,0,0,0,0,0,0,
0,0,0,0,0,0,0,0,0,0,0,0,0,0,0,0,0,0,0,0,0,0,0,0,0,0,0,0,0,0,0,0,0,0,0,0,0,0,0,0,0,0,0,0,0,0,0,0,0,0,0,0,0,0,0,0,0,0,0,0,0,0,0,0,0,0,0,0,0,0,0,0,0,0,0,0,0,0,0,0,
0,0,0,0,0,0,0,0,0,0,0,0,0,0,0,0,0,0,0,0,0,0,0,0,0,0,0,0,0,0,0,0,0,0,0,0,0,0,0,0,0,0,63,64,64,63,64,63,63,64,0,0,0,0,0,0,0,0,0,0,0,0,0,0,0,0,0,0,0,0,0,0,0,0,0,0,0,0,0,0,
0,0,0,0,0,0,0,0,0,0,0,0,0,0,0,0,0,0,0,0,0,0,0,0,0,0,0,0,0,0,0,0,0,0,0,0,0,0,0,0,0,0,106,105,106,105,106,106,105,106,0,0,0,0,0,0,0,0,0,0,0,0,0,0,0,0,0,0,0,0,0,0,0,0,0,0,0,0,0,0,
0,0,0,0,0,0,0,0,0,0,0,0,0,0,0,0,0,0,0,0,0,0,0,0,0,0,0,0,0,0,0,0,0,0,0,0,0,0,0,0,0,146,148,147,148,147,148,148,147,148,149,0,0,0,0,0,0,0,0,0,0,0,0,0,0,0,0,0,0,0,0,0,0,0,0,0,0,0,0,0,
0,0,0,0,0,0,0,0,0,0,0,0,0,0,0,0,0,0,0,0,0,0,0,0,0,0,0,0,0,0,0,0,0,0,0,0,0,0,0,0,0,86,87,87,87,87,87,87,87,88,89,0,0,0,0,0,0,0,0,0,0,0,0,0,0,0,0,0,0,0,0,0,0,0,0,0,0,0,0,0,
0,0,0,0,0,0,0,0,0,0,0,0,0,0,0,0,0,0,0,0,0,0,0,0,0,0,0,0,0,0,0,0,0,0,0,0,0,0,0,0,0,86,129,129,129,129,129,129,87,88,131,0,0,0,0,0,0,0,0,0,0,0,0,0,0,0,0,0,0,0,0,0,0,0,0,0,0,0,0,0,
0,0,0,0,0,0,0,0,0,0,0,0,0,0,0,0,0,0,0,0,0,0,0,0,0,0,0,0,0,0,0,0,0,0,0,0,0,0,0,0,0,86,87,88,88,88,88,88,88,88,89,0,0,0,0,0,0,0,0,0,0,0,0,0,0,0,0,0,0,0,0,0,0,0,0,0,0,0,0,0,
0,0,0,0,0,0,0,0,0,0,0,0,0,0,0,0,0,0,0,0,0,0,0,0,0,0,0,0,0,0,0,0,0,0,0,0,0,0,0,0,0,128,129,130,130,130,130,130,130,130,131,0,0,0,0,0,0,0,0,0,0,0,0,0,0,0,0,0,0,0,0,0,0,0,0,0,0,0,0,0,
0,0,0,0,0,0,0,0,0,0,0,0,0,0,0,0,0,0,0,0,0,0,0,0,0,0,0,0,0,0,0,0,0,0,0,0,0,0,0,0,0,2060,2061,2061,2061,2061,2061,2061,2061,2061,2062,0,0,0,0,0,0,0,0,0,0,0,0,0,0,0,0,0,0,0,0,0,0,0,0,0,0,0,0,0,
0,0,0,0,0,0,0,0,0,0,0,0,0,0,0,0,0,0,0,0,0,0,0,0,0,0,0,0,0,0,0,0,0,0,0,0,0,0,0,0,0,0,0,0,0,0,0,0,0,0,0,0,0,0,0,0,0,0,0,0,0,0,0,0,0,0,0,0,0,0,0,0,0,0,0,0,0,0,0,0,
0,0,0,0,0,0,0,0,0,0,0,0,0,0,0,0,0,0,0,0,0,0,0,0,0,0,0,0,0,0,0,0,0,0,0,0,0,0,0,0,0,0,0,0,0,0,0,0,0,0,0,0,0,0,0,0,0,0,0,0,0,0,0,0,0,0,0,0,0,0,0,0,0,0,0,0,0,0,0,0,
0,0,0,0,0,0,0,0,0,0,0,0,0,0,0,0,0,0,0,0,0,0,0,0,0,0,0,0,0,0,0,0,0,0,0,0,0,0,0,0,0,0,0,0,0,0,0,0,0,0,0,0,0,0,0,0,0,0,0,0,0,0,0,0,0,0,0,0,0,0,0,0,0,0,0,0,0,0,0,0,
0,0,0,0,0,0,0,0,0,0,0,0,0,0,0,0,0,0,0,0,0,0,0,0,0,0,0,0,0,0,0,63,64,64,63,64,63,63,64,0,0,0,0,0,0,0,0,0,0,0,0,0,0,0,0,0,0,0,0,0,0,0,0,0,0,0,0,0,0,0,0,0,0,0,0,0,0,0,0,0,
0,0,0,0,0,0,0,0,0,0,0,0,0,0,0,0,0,0,0,0,0,0,0,0,0,0,0,0,0,0,0,106,105,106,105,106,106,105,106,0,0,0,0,0,0,0,0,0,0,0,0,0,0,0,0,0,0,0,0,0,0,0,0,0,0,0,0,0,0,0,0,0,0,0,0,0,0,0,0,0,
0,0,0,0,0,0,0,0,0,0,0,0,0,0,0,0,0,0,0,0,0,0,0,0,0,0,0,0,0,0,146,148,147,148,147,148,148,147,148,149,0,0,0,0,0,0,0,0,0,0,0,0,0,0,0,0,0,0,0,0,0,0,0,0,0,0,0,0,0,0,0,0,0,0,0,0,0,0,0,0,
0,0,0,0,0,0,0,0,0,0,0,0,0,0,0,0,0,0,0,0,0,0,0,0,0,0,0,0,0,0,86,87,87,87,87,87,87,87,88,89,0,0,0,0,0,0,0,0,0,0,0,0,0,0,0,0,0,0,0,0,0,0,0,0,0,0,0,0,0,0,0,0,0,0,0,0,0,0,0,0,
0,0,0,0,0,0,0,0,0,0,0,0,0,0,0,0,0,0,0,0,0,0,0,0,0,0,0,0,0,0,86,129,129,129,129,129,129,87,88,131,0,0,0,0,0,0,0,0,0,0,0,0,0,0,0,0,0,0,0,0,0,0,0,0,0,0,0,0,0,0,0,0,0,0,0,0,0,0,0,0,
0,0,0,0,0,0,0,0,0,0,0,0,0,0,0,0,0,0,0,0,0,0,0,0,0,0,0,0,0,0,86,87,88,88,88,88,88,88,88,89,0,0,0,0,0,0,0,0,0,0,0,0,0,0,0,0,0,0,0,0,0,0,0,0,0,0,0,0,0,0,0,0,0,0,0,0,0,0,0,0,
0,0,0,0,0,0,0,0,0,0,0,0,0,0,0,0,0,0,0,0,0,0,0,0,0,0,0,0,0,0,128,129,130,130,130,130,130,130,130,131,0,0,0,0,0,0,0,0,0,0,0,0,0,0,0,0,0,0,0,0,0,0,0,0,0,0,0,0,0,0,0,0,0,0,0,0,0,0,0,0,
0,0,0,0,0,0,0,0,0,0,0,0,0,0,0,0,0,0,0,0,0,0,0,0,0,0,0,0,0,0,2060,2061,2061,2061,2061,2061,2061,2061,2061,2062,0,0,0,0,0,0,0,0,0,0,0,0,0,0,0,0,0,0,0,0,0,0,0,0,0,0,0,0,0,0,0,0,0,0,0,0,0,0,0,0,
0,0,0,0,0,0,0,0,0,0,0,0,0,0,0,0,0,0,0,0,0,0,0,0,0,0,0,0,0,0,0,0,0,0,0,0,0,0,0,0,0,0,0,0,0,0,0,0,0,0,0,0,0,0,0,0,0,0,0,0,0,0,0,0,0,0,0,0,0,0,0,0,0,0,0,0,0,0,0,0,
0,0,0,0,0,0,0,0,0,0,0,0,0,0,0,0,0,0,0,0,0,0,0,0,0,0,0,0,0,0,0,0,0,0,0,0,0,0,0,0,0,0,0,0,0,0,0,0,0,0,0,0,0,0,0,0,0,0,0,0,0,0,0,0,0,0,0,0,0,0,0,0,0,0,0,0,0,0,0,0,
0,0,0,0,0,0,0,0,0,0,0,0,0,0,0,0,0,0,0,0,0,0,0,0,0,0,0,0,0,0,0,0,0,0,0,0,0,0,0,0,0,0,0,0,0,0,0,0,0,0,0,0,0,0,0,0,0,0,0,0,0,0,0,0,0,0,0,0,0,0,0,0,0,0,0,0,0,0,0,0,
0,0,0,0,0,0,0,0,0,0,0,0,0,0,0,0,0,0,0,0,0,0,0,0,0,0,0,0,0,0,0,0,0,0,0,0,0,0,0,0,0,0,0,0,0,0,0,0,0,0,0,0,0,0,0,0,0,0,0,0,0,0,0,0,0,0,0,0,0,0,0,0,0,0,0,0,0,0,0,0,
0,0,0,0,0,0,0,0,0,0,0,0,0,0,0,0,0,0,0,0,0,0,0,0,0,0,0,0,0,0,0,0,0,0,0,0,0,0,0,0,0,0,0,0,0,0,0,0,0,0,0,0,0,0,0,0,0,0,0,0,0,0,0,0,0,0,0,0,0,0,0,0,0,0,0,0,0,0,0,0,
0,0,0,0,0,0,0,0,0,0,0,0,0,0,0,0,0,0,0,0,0,0,0,0,0,0,0,0,0,0,0,0,0,0,0,0,0,0,0,0,0,0,0,0,0,0,0,0,0,0,0,0,0,0,0,0,0,0,0,0,0,0,0,0,0,0,0,0,0,0,0,0,0,0,0,0,0,0,0,0,
0,0,0,0,0,0,0,0,0,0,0,0,0,0,0,0,0,0,0,0,0,0,0,0,0,0,0,0,0,0,0,0,0,0,0,0,0,0,0,0,0,0,0,0,0,0,0,0,0,0,0,0,0,0,0,0,0,0,0,0,0,0,0,0,0,0,0,0,0,0,0,0,0,0,0,0,0,0,0,0,
0,0,0,0,0,0,0,0,0,0,0,0,0,0,0,0,0,0,0,0,0,0,0,0,0,0,0,0,0,0,0,0,0,0,0,0,0,0,0,0,0,0,0,0,0,0,0,0,0,0,0,0,0,0,0,0,0,0,0,0,0,0,0,0,0,0,0,0,0,0,0,0,0,0,0,0,0,0,0,0,
0,0,0,0,0,0,0,0,0,0,0,0,0,0,0,0,0,0,0,0,0,0,0,0,0,0,0,0,0,0,0,0,0,0,0,0,0,0,0,0,0,0,0,0,0,0,0,0,0,0,0,0,0,0,0,0,0,0,0,0,0,0,0,0,0,0,0,0,0,0,0,0,0,0,0,0,0,0,0,0,
0,0,0,0,0,0,0,0,0,0,0,0,0,0,0,0,0,0,0,0,0,0,0,0,0,0,0,0,0,0,0,0,0,0,0,0,0,0,0,0,0,0,0,0,0,0,0,0,0,0,0,0,0,0,0,0,0,0,0,0,0,0,0,0,0,0,0,0,0,0,0,0,0,0,0,0,0,0,0,0,
0,0,0,0,0,0,0,0,0,0,0,0,0,0,0,0,0,0,0,0,0,0,0,0,0,0,0,0,0,0,0,0,0,0,0,0,0,0,0,0,0,0,0,0,0,0,0,0,0,0,0,0,0,0,0,0,0,0,0,0,0,0,0,0,0,0,0,0,0,0,0,0,0,0,0,0,0,0,0,0,
0,0,0,0,0,0,0,0,0,0,0,0,0,0,0,0,0,0,0,0,0,0,0,0,0,0,0,0,0,0,0,0,0,0,0,0,0,0,0,0,0,0,0,0,0,0,0,0,0,0,0,0,0,0,0,0,0,0,0,0,0,0,0,0,0,0,0,0,0,0,0,0,0,0,0,0,0,0,0,0,
0,0,0,0,0,0,0,0,0,0,0,0,0,0,0,0,0,0,0,0,0,0,0,0,0,0,0,0,0,0,0,0,0,0,0,0,0,0,0,0,0,0,0,0,0,0,0,0,0,0,0,0,0,0,0,0,0,0,0,0,0,0,0,0,0,0,0,0,0,0,0,0,0,0,0,0,0,0,0,0,
0,0,0,0,0,0,0,0,0,0,0,0,0,0,0,0,0,0,0,0,0,0,0,0,0,0,0,0,0,0,0,0,0,0,0,0,0,0,0,0,0,0,0,0,0,0,0,0,0,0,0,0,0,0,0,0,0,0,0,0,0,0,0,0,0,0,0,0,0,0,0,0,0,0,0,0,0,0,0,0,
0,0,0,0,0,0,0,0,0,0,0,0,0,0,0,0,0,0,0,0,0,0,0,0,0,0,0,0,0,0,0,0,0,0,0,0,0,0,0,0,0,0,0,0,0,0,0,0,0,0,0,0,0,0,0,0,0,0,0,0,0,0,0,0,0,0,0,0,0,0,0,0,0,0,0,0,0,0,0,0,
0,0,0,0,0,0,0,0,0,0,0,0,0,0,0,0,0,0,0,0,0,0,0,0,0,0,0,0,0,0,0,0,0,0,0,0,0,0,0,0,0,0,0,0,0,0,0,0,0,0,0,0,0,0,0,0,0,0,0,0,0,0,0,0,0,0,0,0,0,0,0,0,0,0,0,0,0,0,0,0,
0,0,0,0,0,0,0,0,0,0,0,0,0,0,0,0,0,0,0,0,0,0,0,0,0,0,0,0,0,0,0,0,0,0,0,0,0,0,0,0,0,0,0,0,0,0,0,0,0,0,0,0,0,0,0,0,0,0,0,0,0,0,0,0,0,0,0,0,0,0,0,0,0,0,0,0,0,0,0,0,
0,0,0,0,0,0,0,0,0,0,0,0,0,0,0,0,0,0,0,0,0,0,0,0,0,0,0,0,0,0,0,0,0,0,0,0,0,0,0,0,0,0,0,0,0,0,0,0,0,0,0,0,0,0,0,0,0,0,0,0,0,0,0,0,0,0,0,0,0,0,0,0,0,0,0,0,0,0,0,0,
0,0,0,0,0,0,0,0,0,0,0,0,0,0,0,0,0,0,0,0,0,0,0,0,0,0,0,0,0,0,0,0,0,0,0,0,0,0,0,0,0,0,0,0,0,0,0,0,0,0,0,0,0,0,0,0,0,0,0,0,0,0,0,0,0,0,0,0,0,0,0,0,0,0,0,0,0,0,0,0,
0,0,0,0,0,0,0,0,0,0,0,0,0,0,0,0,0,0,0,0,0,0,0,0,0,0,0,0,0,0,0,0,0,0,0,0,0,0,0,0,0,0,0,0,0,0,0,0,0,0,0,0,0,0,0,0,0,0,0,0,0,0,0,0,0,0,0,0,0,0,0,0,0,0,0,0,0,0,0,0,
0,0,0,0,0,0,0,0,0,0,0,0,0,0,0,0,0,0,0,0,0,0,0,0,0,0,0,0,0,0,0,0,0,0,0,0,0,0,0,0,0,0,0,0,0,0,0,0,0,0,0,0,0,0,0,0,0,0,0,0,0,0,0,0,0,0,0,0,0,0,0,0,0,0,0,0,0,0,0,0,
0,0,0,0,0,0,0,0,0,0,0,0,0,0,0,0,0,0,0,0,0,0,0,0,0,0,0,0,0,0,0,0,0,0,0,0,0,0,0,0,0,0,0,0,0,0,0,0,0,0,0,0,0,0,0,0,0,0,0,0,0,0,0,0,0,0,0,0,0,0,0,0,0,0,0,0,0,0,0,0,
0,0,0,0,0,0,0,0,0,0,0,0,0,0,0,0,0,0,0,0,0,0,0,0,0,0,0,0,0,0,0,0,0,0,0,0,0,0,0,0,0,0,0,0,0,0,0,0,0,0,0,0,0,0,0,0,0,0,0,0,0,0,0,0,0,0,0,0,0,0,0,0,0,0,0,0,0,0,0,0,
0,0,0,0,0,0,0,0,0,0,0,0,0,0,0,0,0,0,0,0,0,0,0,0,0,0,0,0,0,0,0,0,0,0,0,0,0,0,0,0,0,0,0,0,0,0,0,0,0,0,0,0,0,0,0,0,0,0,0,0,0,0,0,0,0,0,0,0,0,0,0,0,0,0,0,0,0,0,0,0,
0,0,0,0,0,0,0,0,0,0,0,0,0,0,0,0,0,0,0,0,0,0,0,0,0,0,0,0,0,0,0,0,0,0,0,0,0,0,0,0,0,0,0,0,0,0,0,0,0,0,0,0,0,0,0,0,0,0,0,0,0,0,0,0,0,0,0,0,0,0,0,0,0,0,0,0,0,0,0,0,
0,0,0,0,0,0,0,0,0,0,0,0,0,0,0,0,0,0,0,0,0,0,0,0,0,0,0,0,0,0,0,0,0,0,0,0,0,0,0,0,0,0,0,0,0,0,0,0,0,0,0,0,0,0,0,0,0,0,0,0,0,0,0,0,0,0,0,0,0,0,0,0,0,0,0,0,0,0,0,0,
0,0,0,0,0,0,0,0,0,0,0,0,0,0,0,0,0,0,0,0,0,0,0,0,0,0,0,0,0,0,0,0,0,0,0,0,0,0,0,0,0,0,0,0,0,0,0,0,0,0,0,0,0,0,0,0,0,0,0,0,0,0,0,0,0,0,0,0,0,0,0,0,0,0,0,0,0,0,0,0,
0,0,0,0,0,0,0,0,0,0,0,0,0,0,0,0,0,0,0,0,0,0,0,0,0,0,0,0,0,0,0,0,0,0,0,0,0,0,0,0,0,0,0,0,0,0,0,0,0,0,0,0,0,0,0,0,0,0,0,0,0,0,0,0,0,0,0,0,0,0,0,0,0,0,0,0,0,0,0,0,
0,0,0,0,0,0,0,0,0,0,0,0,0,0,0,0,0,0,0,0,0,0,0,0,0,0,0,0,0,0,0,0,0,0,0,0,0,0,0,0,0,0,0,0,0,0,0,0,0,0,0,0,0,0,0,0,0,0,0,0,0,0,0,0,0,0,0,0,0,0,0,0,0,0,0,0,0,0,0,0,
0,0,0,0,0,0,0,0,0,0,0,0,0,0,0,0,0,0,0,0,0,0,0,0,0,0,0,0,0,0,0,0,0,0,0,0,0,0,0,0,0,0,0,0,0,0,0,0,0,0,0,0,0,0,0,0,0,0,0,0,0,0,0,0,0,0,0,0,0,0,0,0,0,0,0,0,0,0,0,0,
0,0,0,0,0,0,0,0,0,0,0,0,0,0,0,0,0,0,0,0,0,0,0,0,0,0,0,0,0,0,0,0,0,0,0,0,0,0,0,0,0,0,0,0,0,0,0,0,0,0,0,0,0,0,0,0,0,0,0,0,0,0,0,0,0,0,0,0,0,0,0,0,0,0,0,0,0,0,0,0,
0,0,0,0,0,0,0,0,0,0,0,0,0,0,0,0,0,0,0,0,0,0,0,0,0,0,0,0,0,0,0,0,0,0,0,0,0,0,0,0,0,0,0,0,0,0,0,0,0,0,0,0,0,0,0,0,0,0,0,0,0,0,0,0,0,0,0,0,0,0,0,0,0,0,0,0,0,0,0,0,
0,0,0,0,0,0,0,0,0,0,0,0,0,0,0,0,0,0,0,0,0,0,0,0,0,0,0,0,0,0,0,0,0,0,0,0,0,0,0,0,0,0,0,0,0,0,0,0,0,0,0,0,0,0,0,0,0,0,0,0,0,0,0,0,0,0,0,0,0,0,0,0,0,0,0,0,0,0,0,0,
0,0,0,0,0,0,0,0,0,0,0,0,0,0,0,0,0,0,0,0,0,0,0,0,0,0,0,0,0,0,0,0,0,0,0,0,0,0,0,0,0,0,0,0,0,0,0,0,0,0,0,0,0,0,0,0,0,0,0,0,0,0,0,0,0,0,0,0,0,0,0,0,0,0,0,0,0,0,0,0,
0,0,0,0,0,0,0,0,0,0,0,0,0,0,0,0,0,0,0,0,0,0,0,0,0,0,0,0,0,0,0,0,0,0,0,0,0,0,0,0,0,0,0,0,0,0,0,0,0,0,0,0,0,0,0,0,0,0,0,0,0,0,0,0,0,0,0,0,0,0,0,0,0,0,0,0,0,0,0,0,
0,0,0,0,0,0,0,0,0,0,0,0,0,0,0,0,0,0,0,0,0,0,0,0,0,0,0,0,0,0,0,0,0,0,0,0,0,0,0,0,0,0,0,0,0,0,0,0,0,0,0,0,0,0,0,0,0,0,0,0,0,0,0,0,0,0,0,0,0,0,0,0,0,0,0,0,0,0,0,0,
0,0,0,0,0,0,0,0,0,0,0,0,0,0,0,0,0,0,0,0,0,0,0,0,0,0,0,0,0,0,0,0,0,0,0,0,0,0,0,0,0,0,0,0,0,0,0,0,0,0,0,0,0,0,0,0,0,0,0,0,0,0,0,0,0,0,0,0,0,0,0,0,0,0,0,0,0,0,0,0,
0,0,0,0,0,0,0,0,0,0,0,0,0,0,0,0,0,0,0,0,0,0,0,0,0,0,0,0,0,0,0,0,0,0,0,0,0,0,0,0,0,0,0,0,0,0,0,0,0,0,0,0,0,0,0,0,0,0,0,0,0,0,0,0,0,0,0,0,0,0,0,0,0,0,0,0,0,0,0,0,
0,0,0,0,0,0,0,0,0,0,0,0,0,0,0,0,0,0,0,0,0,0,0,0,0,0,0,0,0,0,0,0,0,0,0,0,0,0,0,0,0,0,0,0,0,0,0,0,0,0,0,0,0,0,0,0,0,0,0,0,0,0,0,0,0,0,0,0,0,0,0,0,0,0,0,0,0,0,0,0,
0,0,0,0,0,0,0,0,0,0,0,0,0,0,0,0,0,0,0,0,0,0,0,0,0,0,0,0,0,0,0,0,0,0,0,0,0,0,0,0,0,0,0,0,0,0,0,0,0,0,0,0,0,0,0,0,0,0,0,0,0,0,0,0,0,0,0,0,0,0,0,0,0,0,0,0,0,0,0,0,
0,0,0,0,0,0,0,0,0,0,0,0,0,0,0,0,0,0,0,0,0,0,0,0,0,0,0,0,0,0,0,0,0,0,0,0,0,0,0,0,0,0,0,0,0,0,0,0,0,0,0,0,0,0,0,0,0,0,0,0,0,0,0,0,0,0,0,0,0,0,0,0,0,0,0,0,0,0,0,0,
0,0,0,0,0,0,0,0,0,0,0,0,0,0,0,0,0,0,0,0,0,0,0,0,0,0,0,0,0,0,0,0,0,0,0,0,0,0,0,0,0,0,0,0,0,0,0,0,0,0,0,0,0,0,0,0,0,0,0,0,0,0,0,0,0,0,0,0,0,0,0,0,0,0,0,0,0,0,0,0,
0,0,0,0,0,0,0,0,0,0,0,0,0,0,0,0,0,0,0,0,0,0,0,0,0,0,0,0,0,0,0,0,0,0,0,0,0,0,0,0,0,0,0,0,0,0,0,0,0,0,0,0,0,0,0,0,0,0,0,0,0,0,0,0,0,0,0,0,0,0,0,0,0,0,0,0,0,0,0,0,
0,0,0,0,0,0,0,0,0,0,0,0,0,0,0,0,0,0,0,0,0,0,0,0,0,0,0,0,0,0,0,0,0,0,0,0,0,0,0,0,0,0,0,0,0,0,0,0,0,0,0,0,0,0,0,0,0,0,0,0,0,0,0,0,0,0,0,0,0,0,0,0,0,0,0,0,0,0,0,0,
0,0,0,0,0,0,0,0,0,0,0,0,0,0,0,0,0,0,0,0,0,0,0,0,0,0,0,0,0,0,0,0,0,0,0,0,0,0,0,0,0,0,0,0,0,0,0,0,0,0,0,0,0,0,0,0,0,0,0,0,0,0,0,0,0,0,0,0,0,0,0,0,0,0,0,0,0,0,0,0,
0,0,0,0,0,0,0,0,0,0,0,0,0,0,0,0,0,0,0,0,0,0,0,0,0,0,0,0,0,0,0,0,0,0,0,0,0,0,0,0,0,0,0,0,0,0,0,0,0,0,0,0,0,0,0,0,0,0,0,0,0,0,0,0,0,0,0,0,0,0,0,0,0,0,0,0,0,0,0,0,
0,0,0,0,0,0,0,0,0,0,0,0,0,0,0,0,0,0,0,0,0,0,0,0,0,0,0,0,0,0,0,0,0,0,0,0,0,0,0,0,0,0,0,0,0,0,0,0,0,0,0,0,0,0,0,0,0,0,0,0,0,0,0,0,0,0,0,0,0,0,0,0,0,0,0,0,0,0,0,0,
0,0,0,0,0,0,0,0,0,0,0,0,0,0,0,0,0,0,0,0,0,0,0,0,0,0,0,0,0,0,0,0,0,0,0,0,0,0,0,0,0,0,0,0,0,0,0,0,0,0,0,0,0,0,0,0,0,0,0,0,0,0,0,0,0,0,0,0,0,0,0,0,0,0,0,0,0,0,0,0,
0,0,0,0,0,0,0,0,0,0,0,0,0,0,0,0,0,0,0,0,0,0,0,0,0,0,0,0,0,0,0,0,0,0,0,0,0,0,0,0,0,0,0,0,0,0,0,0,0,0,0,0,0,0,0,0,0,0,0,0,0,0,0,0,0,0,0,0,0,0,0,0,0,0,0,0,0,0,0,0,
0,0,0,0,0,0,0,0,0,0,0,0,0,0,0,0,0,0,0,0,0,0,0,0,0,0,0,0,0,0,0,0,0,0,0,0,0,0,0,0,0,0,0,0,0,0,0,0,0,0,0,0,0,0,0,0,0,0,0,0,0,0,0,0,0,0,0,0,0,0,0,0,0,0,0,0,0,0,0,0,
0,0,0,0,0,0,0,0,0,0,0,0,0,0,0,0,0,0,0,0,0,0,0,0,0,0,0,0,0,0,0,0,0,0,0,0,0,0,0,0,0,0,0,0,0,0,0,0,0,0,0,0,0,0,0,0,0,0,0,0,0,0,0,0,0,0,0,0,0,0,0,0,0,0,0,0,0,0,0,0,
0,0,0,0,0,0,0,0,0,0,0,0,0,0,0,0,0,0,0,0,0,0,0,0,0,0,0,0,0,0,0,0,0,0,0,0,0,0,0,0,0,0,0,0,0,0,0,0,0,0,0,0,0,0,0,0,0,0,0,0,0,0,0,0,0,0,0,0,0,0,0,0,0,0,0,0,0,0,0,0,
0,0,0,0,0,0,0,0,0,0,0,0,0,0,0,0,0,0,0,0,0,0,0,0,0,0,0,0,0,0,0,0,0,0,0,0,0,0,0,0,0,0,0,0,0,0,0,0,0,0,0,0,0,0,0,0,0,0,0,0,0,0,0,0,0,0,0,0,0,0,0,0,0,0,0,0,0,0,0,0,
0,0,0,0,0,0,0,0,0,0,0,0,0,0,0,0,0,0,0,0,0,0,0,0,0,0,0,0,0,0,0,0,0,0,0,0,0,0,0,0,0,0,0,0,0,0,0,0,0,0,0,0,0,0,0,0,0,0,0,0,0,0,0,0,0,0,0,0,0,0,0,0,0,0,0,0,0,0,0,0,
0,0,0,0,0,0,0,0,0,0,0,0,0,0,0,0,0,0,0,0,0,0,0,0,0,0,0,0,0,0,0,0,0,0,0,0,0,0,0,0,0,0,0,0,0,0,0,0,0,0,0,0,0,0,0,0,0,0,0,0,0,0,0,0,0,0,0,0,0,0,0,0,0,0,0,0,0,0,0,0,
0,0,0,0,0,0,0,0,0,0,0,0,0,0,0,0,0,0,0,0,0,0,0,0,0,0,0,0,0,0,0,0,0,0,0,0,0,0,0,0,0,0,0,0,0,0,0,0,0,0,0,0,0,0,0,0,0,0,0,0,0,0,0,0,0,0,0,0,0,0,0,0,0,0,0,0,0,0,0,0,
0,0,0,0,0,0,0,0,0,0,0,0,0,0,0,0,0,0,0,0,0,0,0,0,0,0,0,0,0,0,0,0,0,0,0,0,0,0,0,0,0,0,0,0,0,0,0,0,0,0,0,0,0,0,0,0,0,0,0,0,0,0,0,0,0,0,0,0,0,0,0,0,0,0,0,0,0,0,0,0,
0,0,0,0,0,0,0,0,0,0,0,0,0,0,0,0,0,0,0,0,0,0,0,0,0,0,0,0,0,0,0,0,0,0,0,0,0,0,0,0,0,0,0,0,0,0,0,0,0,0,0,0,0,0,0,0,0,0,0,0,0,0,0,0,0,0,0,0,0,0,0,0,0,0,0,0,0,0,0,0,
0,0,0,0,0,0,0,0,0,0,0,0,0,0,0,0,0,0,0,0,0,0,0,0,0,0,0,0,0,0,0,0,0,0,0,0,0,0,0,0,0,0,0,0,0,0,0,0,0,0,0,0,0,0,0,0,0,0,0,0,0,0,0,0,0,0,0,0,0,0,0,0,0,0,0,0,0,0,0,0,
0,0,0,0,0,0,0,0,0,0,0,0,0,0,0,0,0,0,0,0,0,0,0,0,0,0,0,0,0,0,0,0,0,0,0,0,0,0,0,0,0,0,0,0,0,0,0,0,0,0,0,0,0,0,0,0,0,0,0,0,0,0,0,0,0,0,0,0,0,0,0,0,0,0,0,0,0,0,0,0,
0,0,0,0,0,0,0,0,0,0,0,0,0,0,0,0,0,0,0,0,0,0,0,0,0,0,0,0,0,0,0,0,0,0,0,0,0,0,0,0,0,0,0,0,0,0,0,0,0,0,0,0,0,0,0,0,0,0,0,0,0,0,0,0,0,0,0,0,0,0,0,0,0,0,0,0,0,0,0,0,
0,0,0,0,0,0,0,0,0,0,0,0,0,0,0,0,0,0,0,0,0,0,0,0,0,0,0,0,0,0,0,0,0,0,0,0,0,0,0,0,0,0,0,0,0,0,0,0,0,0,0,0,0,0,0,0,0,0,0,0,0,0,0,0,0,0,0,0,0,0,0,0,0,0,0,0,0,0,0,0
</data>
 </layer>
 <layer id="3" name="04_decor_high" width="80" height="100">
  <data encoding="csv">
0,0,0,0,0,0,0,0,0,0,0,0,0,0,0,0,0,0,0,0,0,0,0,0,0,0,0,0,0,0,0,0,0,2817,2804,2805,2817,0,0,0,0,0,0,0,0,0,0,0,0,2961,2962,2907,2937,2962,2957,2959,0,0,0,0,0,0,0,0,0,0,0,0,0,0,0,0,0,0,0,0,0,0,0,0,
0,0,0,0,0,0,0,0,0,0,0,0,0,0,0,0,0,0,0,0,0,0,0,0,0,0,0,0,0,0,0,0,0,0,2817,2804,2763,0,0,0,0,0,0,0,0,0,0,0,0,2961,2911,3007,3011,2962,2957,2959,0,0,0,0,0,0,0,0,0,0,0,0,0,0,0,0,0,0,0,0,0,0,0,0,
0,0,0,0,0,0,0,0,0,0,0,0,0,0,0,0,0,0,0,0,0,0,0,0,0,0,0,0,0,0,0,0,0,0,0,2817,2776,0,0,0,0,0,0,0,0,0,0,0,0,2961,2912,2962,2911,2962,2957,2959,2809,2810,2811,0,0,0,0,0,0,0,0,0,0,0,0,2809,2810,2811,0,0,0,0,0,0,
0,0,0,0,0,0,0,0,0,0,0,0,0,0,0,0,0,0,0,0,0,0,0,0,0,0,0,0,0,0,0,0,0,0,0,0,0,0,0,0,0,2803,2804,2805,0,0,0,2763,0,2961,2962,2962,2962,2962,2957,2959,0,2823,0,0,0,0,0,0,0,0,0,0,0,0,0,0,2823,0,0,0,0,0,0,0,
0,0,0,0,0,0,0,0,0,0,0,0,0,0,0,0,0,0,0,0,0,0,0,0,0,0,0,0,0,0,0,0,0,0,0,0,0,0,0,0,0,0,2817,0,0,0,0,2776,0,2961,2962,2962,2962,2962,2957,2959,0,0,0,0,0,0,0,0,0,0,2809,2810,2811,0,0,0,0,0,0,0,0,0,0,0,
0,0,0,0,0,0,0,0,0,0,0,0,0,0,0,0,0,0,0,0,0,0,0,0,0,0,0,0,0,0,0,0,0,0,0,2803,2804,2805,0,0,0,0,0,0,0,0,0,0,0,2961,2962,2962,2962,2962,2957,2959,0,0,0,0,0,0,0,0,0,0,0,2823,0,0,0,0,0,0,0,0,0,0,0,0,
0,0,0,0,0,0,0,0,0,0,0,0,0,2959,2959,2985,3009,3009,2983,2959,2959,0,0,0,0,0,0,0,0,0,0,0,0,0,0,0,2817,0,0,0,0,0,0,0,0,0,0,0,0,2961,2962,2962,2962,2962,2957,2959,2959,0,0,2809,2810,2811,0,0,0,0,0,0,0,0,0,0,0,0,0,0,0,0,0,0,
0,0,0,0,0,0,0,0,0,0,0,0,2959,2959,2985,3010,2962,2962,3008,3009,2983,2959,0,0,0,0,0,0,0,0,0,0,0,0,0,0,0,0,0,0,0,2803,2804,2805,0,2763,0,0,0,2961,2962,2962,2962,2962,3008,2983,2959,2959,2959,0,2823,0,0,0,0,0,0,0,0,0,0,0,0,0,0,2809,2810,2811,0,0,
0,0,0,0,0,0,0,0,0,0,0,0,2959,2985,3010,2962,2962,2962,2962,2962,3008,2983,0,0,0,0,0,0,0,0,0,0,0,0,0,0,0,0,0,0,0,0,2817,0,0,2776,0,0,2803,2935,2910,2962,2962,2962,2962,3008,3009,2983,2959,2959,2959,2959,2959,2959,2959,2959,2959,0,0,0,0,0,0,0,0,0,2823,0,0,0,
0,0,0,0,0,0,0,0,0,0,0,0,2985,3010,2962,2962,2962,2962,2962,2962,2962,2957,0,0,0,0,0,0,0,0,0,2806,2807,2808,0,0,0,0,0,0,0,0,0,0,0,0,0,0,0,2959,2961,2962,2962,2962,2962,2962,2962,3008,3009,3009,3009,3009,3009,3009,3009,2983,2959,2959,2959,2959,2959,2959,2959,2959,2959,2959,2959,2959,2959,2959,
0,0,0,0,0,0,0,0,0,0,0,0,2961,2962,2962,2962,2962,2962,2962,2962,2962,2957,0,0,0,0,0,0,0,0,0,0,2820,0,2806,2807,2808,0,0,0,0,0,0,0,0,0,0,0,2763,0,2961,2962,2962,2962,2962,2962,2962,2962,2962,2962,2962,2962,2962,2962,2962,3008,3009,3009,3009,3009,3009,3009,3009,3009,3009,3009,3009,3009,2983,2959,
0,0,0,0,0,0,0,0,0,0,0,0,2961,2962,2962,2962,2962,2962,2962,2962,2962,2957,0,0,0,0,0,0,0,0,0,0,0,0,0,2820,0,0,0,0,2803,2804,2805,0,0,0,0,0,2776,0,2961,2962,2962,2962,2962,2962,2962,2962,2962,2962,2962,2962,2962,2962,2962,2962,2962,2962,2962,2962,2962,2962,2962,2962,2962,2962,2962,2962,3008,3009,
0,0,0,0,0,0,0,0,0,0,0,0,2961,2962,2962,2962,2962,2962,2962,2908,2909,2933,0,0,0,0,0,0,0,0,0,0,0,0,0,0,0,0,0,0,0,2817,0,0,0,0,2763,0,0,0,2961,2962,2962,2962,2962,2962,2962,2962,2962,2962,2962,2962,2962,2962,2962,2962,2962,2962,2962,2962,2962,2962,2962,2962,2962,2962,2962,2962,2962,2962,
0,0,0,0,0,0,0,0,0,0,0,0,2935,2909,2909,2909,2909,2909,2909,2933,2959,2959,0,0,0,0,0,0,0,0,0,0,0,0,0,0,0,0,0,0,0,0,0,0,0,0,2776,0,0,0,2961,2962,2962,2962,2962,2962,2962,2962,2962,2962,2962,2962,2962,2962,2962,2962,2962,2962,2962,2962,2962,2962,2962,2962,2962,2962,2962,2962,2962,2962,
0,0,0,0,0,0,0,0,0,0,0,0,0,0,0,0,0,0,0,0,0,0,0,0,0,0,0,0,0,0,0,0,0,0,0,0,0,0,0,0,0,0,0,0,0,0,0,0,0,2959,2961,2962,2962,2962,2962,2962,2908,2909,2909,2909,2910,2962,2962,2962,2962,2962,2962,2962,2962,2962,2962,2962,2962,2962,2962,2962,2962,2962,2962,2962,
0,0,0,0,0,0,0,0,0,0,0,0,0,0,0,0,0,0,0,0,0,0,0,0,0,0,0,0,0,0,0,0,0,0,0,2806,2807,2808,0,0,0,2803,2804,2805,0,0,0,0,0,2959,2961,2962,2962,2962,2962,2908,2933,2959,2959,2959,2935,2909,2909,2909,2909,2909,2909,2909,2909,2909,2909,2909,2909,2910,2962,2962,2962,2908,2909,2909,
0,0,0,0,0,0,0,0,0,0,0,0,0,0,0,0,0,0,0,0,0,0,0,0,0,0,0,0,0,0,0,0,0,0,0,2763,2820,0,0,0,0,0,2817,0,0,0,0,0,0,2959,2935,2910,2962,2962,2962,2957,2959,2959,2805,2959,2959,2959,2959,2959,2959,2959,2959,2959,2959,2959,2959,2959,2959,2935,2909,2909,2909,2933,2959,2959,
0,0,0,0,0,0,0,0,0,0,0,0,0,0,0,0,0,0,0,0,0,0,0,0,0,0,0,0,0,0,0,0,0,0,0,2776,0,0,0,0,0,2763,0,0,0,0,0,0,0,2959,2959,2961,2962,2962,2962,2957,2959,2817,0,0,0,2803,2804,2805,0,0,0,0,2817,0,0,0,0,2959,2959,2959,2959,2959,2959,0,
0,0,0,0,0,0,0,0,0,0,0,0,0,0,0,0,0,0,0,0,0,0,0,0,0,0,0,0,0,0,0,0,0,0,0,0,0,0,0,0,0,2776,0,0,0,0,0,0,0,0,2959,2961,2962,2962,2962,2957,2959,0,0,0,0,0,2817,0,0,0,0,0,0,0,0,0,0,0,2803,2804,2805,0,0,0,
0,0,0,0,0,0,0,0,0,0,0,0,0,0,0,0,0,0,0,0,0,0,0,0,0,0,0,0,0,0,0,0,2803,2804,2805,0,0,0,0,0,0,0,2763,2803,4267,4270,4269,4270,0,0,2959,2961,2962,2962,2962,2957,2959,0,0,0,0,0,0,0,0,0,0,0,0,0,0,0,0,0,0,2817,0,0,0,0,
0,0,0,0,0,0,0,0,0,0,0,0,0,0,0,0,0,0,0,0,0,0,0,0,0,0,0,0,0,0,0,0,0,2817,0,0,0,0,0,0,0,0,2776,0,4292,4295,4294,4295,0,0,2959,2961,2962,2962,2962,2957,2959,0,0,0,0,0,0,0,0,0,0,0,0,0,0,0,0,0,0,0,0,0,0,0,
0,0,0,0,0,0,0,0,0,0,0,0,0,0,0,0,0,0,0,0,0,0,0,0,0,0,0,0,0,0,0,0,0,0,0,0,0,0,0,0,0,0,0,0,0,0,0,0,0,0,2959,2935,2909,2909,2909,2933,2959,0,0,0,0,0,0,0,0,0,0,0,0,0,0,0,0,0,0,0,0,0,0,0,
0,0,0,0,0,0,0,0,0,0,0,0,0,0,0,0,0,0,0,0,0,0,0,0,0,0,0,0,0,0,0,0,0,2763,0,2803,2804,2805,0,0,0,0,0,0,0,0,0,0,0,0,0,0,0,0,0,0,0,0,0,0,0,0,0,0,0,0,0,0,0,0,0,0,0,0,0,0,0,0,0,0,
0,0,0,0,0,0,0,0,0,0,0,0,0,0,0,0,0,0,0,0,0,0,0,0,0,0,0,0,0,0,0,0,0,2776,0,0,2817,0,0,0,0,0,4182,4183,0,4267,4268,0,4267,4268,0,0,0,0,0,0,0,0,0,0,0,0,0,0,0,0,0,0,0,0,0,0,0,0,0,0,0,0,0,0,
0,0,0,0,0,0,0,0,0,0,0,0,0,0,0,0,0,0,0,0,0,0,0,0,0,0,0,0,0,0,0,0,0,0,0,0,0,0,0,0,0,0,4207,4208,0,4292,4293,0,4292,4293,0,0,0,0,0,0,0,0,0,0,0,0,0,0,0,0,0,0,0,0,0,0,0,0,0,0,0,0,0,0,
0,0,0,0,0,0,0,0,0,0,0,0,0,0,0,0,0,0,0,0,0,0,0,0,0,0,0,0,0,0,0,0,0,0,0,0,0,0,0,0,0,0,4232,4233,0,0,0,0,0,0,0,0,0,0,0,0,0,0,0,0,0,0,0,0,0,0,0,0,0,0,0,0,0,0,0,0,0,0,0,0,
0,0,0,0,0,0,0,0,0,0,0,0,0,0,0,0,0,0,0,0,0,0,0,0,0,0,0,0,0,0,0,0,0,0,0,0,0,0,0,0,0,0,4259,4260,0,0,0,0,0,0,0,0,0,0,0,0,0,0,0,0,0,0,0,0,0,0,0,0,0,0,0,0,0,0,0,0,0,0,0,0,
0,0,0,0,0,0,0,0,0,0,0,0,0,0,0,0,0,0,0,0,0,0,0,0,0,0,0,0,0,0,0,0,0,0,0,0,0,0,0,0,0,0,0,0,0,0,0,0,0,0,0,0,0,0,0,0,0,0,0,0,0,0,0,0,0,0,0,0,0,0,0,0,0,0,0,0,0,0,0,0,
0,0,0,0,0,0,0,0,0,0,0,0,0,0,0,0,0,0,0,0,0,0,0,0,0,0,0,0,0,0,0,0,0,0,0,0,0,0,0,0,0,0,0,0,0,0,0,0,0,0,0,0,0,0,0,0,0,0,0,0,0,0,0,0,0,0,0,0,0,0,0,0,0,0,0,0,0,0,0,0,
0,0,0,0,0,0,0,0,0,0,0,0,0,0,0,0,0,0,0,0,0,0,0,0,0,0,0,0,0,0,0,0,0,0,0,0,0,0,0,0,0,0,0,0,0,0,0,0,0,0,0,0,0,0,0,0,0,0,0,0,0,0,0,0,0,0,0,0,0,0,0,0,0,0,0,0,0,0,0,0,
0,6207,6208,6209,0,0,0,0,0,0,0,0,0,0,0,0,0,0,0,0,0,0,0,0,0,0,0,0,0,0,0,0,0,4267,4270,4269,4270,0,0,0,0,0,0,0,0,0,0,0,0,0,0,0,0,0,0,0,0,0,0,0,0,0,0,0,0,0,0,0,0,0,0,0,0,0,0,0,0,0,0,0,
0,6232,6233,6234,0,0,0,0,0,0,0,0,0,0,0,0,0,0,0,0,0,0,0,0,0,0,0,0,0,0,0,0,0,4292,4295,4294,4295,0,0,0,0,0,0,0,0,0,0,0,0,0,0,0,0,0,0,0,0,0,0,0,0,0,0,0,0,0,0,0,0,0,0,0,0,0,0,0,0,0,0,0,
6207,6208,6209,0,0,0,0,0,0,0,0,0,0,0,0,0,0,0,0,0,0,0,0,0,0,0,0,0,0,0,0,0,0,0,0,0,0,0,0,0,0,0,0,0,0,0,0,0,0,0,0,0,0,0,0,0,0,0,0,0,0,0,0,0,0,0,0,0,0,0,0,0,0,0,0,0,0,0,0,0,
6232,6233,6234,0,0,0,0,0,0,0,0,0,0,0,0,0,0,0,0,0,0,0,0,0,0,0,0,0,0,0,0,0,0,0,0,0,0,0,0,0,0,0,0,0,0,0,0,0,0,0,0,0,0,0,0,0,0,0,0,0,0,0,0,0,0,0,0,0,0,0,0,0,0,0,0,0,0,0,0,0,
6208,6209,0,0,0,0,0,0,0,0,0,0,0,0,0,0,0,0,0,0,0,0,0,0,0,0,0,0,0,0,0,4182,4183,0,4267,4268,0,4267,4268,0,0,0,0,0,0,0,0,0,0,0,0,0,0,0,0,0,0,0,0,0,0,0,0,0,0,0,0,0,0,0,0,0,0,0,0,0,0,0,0,0,
6233,6234,0,0,0,0,0,0,0,0,0,0,0,0,0,0,0,0,0,0,0,0,0,0,0,0,0,0,0,0,0,4207,4208,0,4292,4293,0,4292,4293,0,0,0,0,0,0,0,0,0,0,0,0,0,0,0,0,0,0,0,0,0,0,0,0,0,0,0,0,0,0,0,0,0,0,0,0,0,0,0,0,0,
0,6207,6208,6209,0,0,0,0,0,0,0,0,0,0,0,0,0,0,0,0,0,0,0,0,0,0,0,0,0,0,0,4232,4233,0,0,0,0,0,0,0,0,0,0,0,0,0,0,0,0,0,0,0,0,0,0,0,0,0,0,0,0,0,0,0,0,0,0,0,0,0,0,0,0,0,0,0,0,0,0,0,
0,6232,6233,6234,0,0,0,0,0,0,0,0,0,0,0,0,0,0,0,0,0,0,0,0,0,0,0,0,0,0,0,4259,4260,0,0,0,0,0,0,0,0,0,0,0,0,0,0,0,0,0,0,0,0,0,0,0,0,0,0,0,0,0,0,0,0,0,0,0,0,0,0,0,0,0,0,0,0,0,0,0,
0,6207,6208,6209,0,0,0,0,0,0,0,0,0,0,0,0,0,0,0,0,0,0,0,0,0,0,0,0,0,0,0,0,0,0,0,0,0,0,0,0,0,0,0,0,0,0,0,0,0,0,0,0,0,0,0,0,0,0,0,0,0,0,0,0,0,0,0,0,0,0,0,0,0,0,0,0,0,0,0,0,
0,6232,6233,6234,0,0,0,0,0,0,0,0,0,0,0,0,0,0,0,0,0,0,0,0,0,0,0,0,0,0,0,0,0,0,0,0,0,0,0,0,0,0,0,0,0,0,0,0,0,0,0,0,0,0,0,0,0,0,0,0,0,0,0,0,0,0,0,0,0,0,0,0,0,0,0,0,0,0,0,0,
0,0,0,6207,6208,6209,0,0,0,0,0,0,0,0,0,0,0,0,0,0,0,0,0,0,0,0,0,0,0,0,0,0,0,0,0,0,0,0,0,0,0,0,0,0,0,0,0,0,0,0,0,0,0,0,0,0,0,0,0,0,0,0,0,0,0,0,0,0,0,0,0,0,0,0,0,0,0,0,0,0,
0,0,0,6232,6233,6234,0,0,0,0,0,0,0,0,0,0,0,0,0,0,0,0,0,0,0,0,0,0,0,0,0,0,0,0,0,0,0,0,0,0,0,0,0,0,0,0,0,0,0,0,0,0,0,0,0,0,0,0,0,0,0,0,0,0,0,0,0,0,0,0,0,0,0,0,0,0,0,0,0,0,
6207,6208,6209,0,0,0,0,0,0,0,0,0,0,0,0,0,0,0,0,0,0,0,0,0,0,0,0,0,0,0,0,0,0,0,0,0,0,0,0,0,0,0,0,0,0,0,0,0,0,0,0,0,0,0,0,0,0,0,0,0,0,0,0,0,0,0,0,0,0,0,0,0,0,0,0,0,0,0,0,0,
6232,6233,6234,0,0,0,0,0,0,0,0,0,0,0,0,0,0,0,0,0,0,0,0,0,0,0,0,0,0,0,0,0,0,0,0,0,0,0,0,0,0,0,0,0,0,0,0,0,0,0,0,0,0,0,0,0,0,0,0,0,0,0,0,0,0,0,0,0,0,0,0,0,0,0,0,0,0,0,0,0,
6208,6209,0,0,0,0,0,0,0,0,0,0,0,0,0,0,0,0,0,0,0,0,0,0,0,0,0,0,0,0,0,0,0,0,0,0,0,0,0,0,0,0,0,0,0,0,0,0,0,0,0,0,0,0,0,0,0,0,0,0,0,0,0,0,0,0,0,0,0,0,0,0,0,0,0,0,0,0,0,0,
6233,6234,0,0,0,0,0,0,0,0,0,0,0,0,0,0,0,0,0,0,0,0,0,0,0,0,0,0,0,0,0,0,0,0,0,0,0,0,0,0,0,0,0,0,0,0,0,0,0,0,0,0,0,0,0,0,0,0,0,0,0,0,0,0,0,0,0,0,0,0,0,0,0,0,0,0,0,0,0,0,
0,6207,6208,6209,0,0,0,0,0,0,0,0,0,0,0,0,0,0,0,0,0,0,0,0,0,0,0,0,0,0,0,0,0,0,0,0,0,0,0,0,0,0,0,0,0,0,0,0,0,0,0,0,0,0,0,0,0,0,0,0,0,0,0,0,0,0,0,0,0,0,0,0,0,0,0,0,0,0,0,0,
0,6232,6233,6234,0,0,0,0,0,0,0,0,0,0,0,0,0,0,0,0,0,0,0,0,0,0,0,0,0,0,0,0,0,0,0,0,0,0,0,0,0,0,0,0,0,0,0,0,0,0,0,0,0,0,0,0,0,0,0,0,0,0,2309,2333,2333,2333,2333,2333,2333,2333,2333,2333,2333,2333,2333,2333,2333,2333,2333,2333,
0,0,6207,6208,6209,0,0,0,0,0,0,0,0,0,0,0,0,0,0,0,0,0,0,0,0,0,0,0,0,0,0,0,0,0,0,0,0,0,0,0,0,0,0,0,0,0,0,0,0,0,0,0,0,0,0,0,0,0,0,0,0,2309,2310,2359,2359,2358,2357,2359,2359,2358,2358,2357,2359,2357,2358,2359,2357,2357,2359,2359,
0,0,6232,6233,6234,0,0,0,0,0,0,0,0,0,0,0,0,0,0,0,0,0,0,0,0,0,0,0,0,0,0,0,0,0,0,0,0,0,0,0,0,0,0,0,0,0,0,0,0,0,0,0,0,0,0,0,0,0,0,0,0,2285,2357,2357,2357,2358,2359,2359,2358,2359,2357,2359,2357,2358,2357,2358,2359,2358,2359,2357,
6208,6209,0,0,0,0,0,0,0,0,0,0,0,0,0,0,0,0,0,0,0,0,0,0,0,0,0,0,0,0,0,0,0,0,0,0,0,0,0,0,0,0,0,0,0,0,0,0,0,0,0,0,0,0,0,0,0,0,0,0,0,2259,2233,2233,2233,2233,2233,2233,2233,2233,2233,2233,2233,2233,2233,2233,2233,2233,2233,2233,
6233,6234,0,0,0,0,0,0,0,0,0,0,0,0,0,0,0,0,0,0,0,0,0,0,0,0,0,0,0,0,0,0,0,0,0,0,0,0,0,0,0,0,0,0,0,0,0,0,0,0,0,0,0,0,0,0,0,0,0,0,0,0,0,0,0,0,0,0,0,0,0,0,0,0,0,0,0,0,0,0,
0,6207,6208,6209,0,0,0,0,0,0,0,0,0,0,0,0,0,0,0,0,0,0,0,0,0,0,0,0,0,0,0,0,0,0,0,0,0,0,0,0,0,0,0,0,0,0,0,0,0,0,0,0,0,0,0,0,0,0,0,0,0,0,0,0,0,0,0,0,0,0,0,0,0,0,0,6207,6208,6209,0,0,
0,6232,6233,6234,0,0,0,0,0,0,0,0,0,0,0,0,0,0,0,0,0,0,0,0,0,0,0,0,0,0,0,0,0,0,0,0,0,0,0,0,0,0,0,0,0,0,0,0,0,0,0,0,0,0,0,0,0,0,0,0,0,0,0,0,0,0,0,0,0,0,0,0,0,0,0,6232,6233,6234,0,0,
6208,6209,0,0,0,0,0,0,0,0,0,0,0,0,0,0,0,0,0,0,0,0,0,0,0,0,0,0,0,0,0,0,0,0,0,0,0,0,0,0,0,0,0,0,0,0,0,0,0,0,0,0,0,0,0,0,0,0,0,0,0,0,0,0,0,0,0,0,0,0,0,0,0,0,0,0,0,6132,6133,6134,
6233,6234,0,0,0,0,0,0,0,0,0,0,0,0,0,0,0,0,0,0,0,0,0,0,0,0,0,0,0,0,0,0,0,0,0,0,0,0,0,0,0,0,0,0,0,0,0,0,0,0,0,0,0,0,0,0,0,0,0,0,0,0,0,0,0,0,0,0,0,0,0,0,0,0,0,0,0,6157,6158,6159,
0,0,6207,6208,6209,0,0,0,0,0,0,0,0,0,0,0,0,0,0,0,0,0,0,0,0,0,0,0,0,0,0,0,0,0,0,0,0,0,0,0,0,0,0,0,0,0,0,0,0,0,0,0,0,0,0,0,0,0,0,0,0,0,0,0,0,0,0,0,0,0,0,0,0,0,0,0,6132,6133,6134,0,
0,0,6232,6233,6234,0,0,0,0,0,0,0,0,0,0,0,0,0,0,0,0,0,0,0,0,0,0,0,0,0,0,0,0,0,0,0,0,0,0,0,0,0,0,0,0,0,0,0,0,0,0,0,0,0,0,0,0,0,0,0,0,0,0,0,0,0,0,0,0,0,0,0,0,0,0,0,6157,6158,6159,0,
6207,6208,6209,0,0,0,0,0,0,0,0,0,0,0,0,0,0,0,0,0,0,0,0,0,0,0,0,0,0,0,0,0,0,0,0,0,0,0,0,0,0,0,0,0,0,0,0,0,0,0,0,0,0,0,0,0,0,0,0,0,0,0,0,0,0,0,0,0,0,0,0,0,0,0,0,0,0,0,6132,6133,
6232,6233,6234,0,0,0,0,0,0,0,0,0,0,0,0,0,0,0,0,0,0,0,0,0,0,0,0,0,0,0,0,0,0,0,0,0,0,0,0,0,0,0,0,0,0,0,0,0,0,0,0,0,0,0,0,0,0,0,0,0,0,0,0,0,0,0,0,0,0,0,0,0,0,0,0,0,0,0,6157,6158,
0,6207,6208,6209,0,0,0,0,0,0,0,0,0,0,0,0,0,0,0,0,0,0,0,0,0,0,0,0,0,0,0,0,0,0,0,0,0,0,0,0,0,0,0,0,0,0,0,0,0,0,0,0,0,0,0,0,0,0,0,0,0,0,0,0,0,0,0,0,0,0,0,0,0,0,0,6207,6208,6209,0,0,
0,6232,6233,6234,0,0,0,0,0,0,0,0,0,0,0,0,0,0,0,0,0,0,0,0,0,0,0,0,0,0,0,0,0,0,0,0,0,0,0,0,0,0,0,0,0,0,0,0,0,0,0,0,0,0,0,0,0,0,0,0,0,0,0,0,0,0,0,0,0,0,0,0,0,0,0,6232,6233,6234,0,0,
6207,6208,6209,0,0,0,0,0,0,0,0,0,0,0,0,0,0,0,0,0,0,0,0,0,0,0,0,0,0,0,0,0,0,0,0,0,0,0,0,0,0,0,0,0,0,0,0,0,0,0,0,0,0,0,0,0,0,0,0,0,0,0,0,0,0,0,0,0,0,0,0,0,0,0,0,0,0,0,6207,6208,
6232,6233,6234,0,0,0,0,0,0,0,0,0,0,0,0,0,0,0,0,0,0,0,0,0,0,0,0,0,0,0,0,0,0,0,0,0,0,0,0,0,0,0,0,0,0,0,0,0,0,0,0,0,0,0,0,0,0,0,0,0,0,0,0,0,0,0,0,0,0,0,0,0,0,0,0,0,0,0,6232,6233,
0,6132,6133,6134,0,0,0,0,0,0,0,0,0,0,0,0,0,0,0,0,0,0,0,0,0,0,0,0,0,0,0,0,0,0,0,0,0,0,0,0,0,0,0,0,0,0,0,0,0,0,0,0,0,0,0,0,0,0,0,0,0,0,0,0,0,0,0,0,0,0,0,0,0,0,0,0,6207,6208,6209,0,
0,6157,6158,6159,0,0,0,0,0,0,0,0,0,0,0,0,0,0,0,0,0,0,0,0,0,0,0,0,0,0,0,0,0,0,0,0,0,0,0,0,0,0,0,0,0,0,0,0,0,0,0,0,0,0,0,0,0,0,0,0,0,0,0,0,0,0,0,0,0,0,0,0,0,0,0,0,6232,6233,6234,0,
6207,6208,6209,0,0,0,0,0,0,0,0,0,0,0,0,0,0,0,0,0,0,0,0,0,0,0,0,0,0,0,0,0,0,0,0,0,0,0,0,0,0,0,0,0,0,0,0,0,0,0,0,0,0,0,0,0,0,0,0,0,0,0,0,0,0,0,0,0,0,0,0,0,0,0,0,0,0,6207,6208,6209,
6232,6233,6234,0,0,0,0,0,0,0,0,0,0,0,0,0,0,0,0,0,0,0,0,0,0,0,0,0,0,0,0,0,0,0,0,0,0,0,0,0,0,0,0,0,0,0,0,0,0,0,0,0,0,0,0,0,0,0,0,0,0,0,0,0,0,0,0,0,0,0,0,0,0,0,0,0,0,6232,6233,6234,
0,6207,6208,6209,0,0,0,0,0,0,0,0,0,0,0,0,0,0,0,0,0,0,0,0,0,0,0,0,0,0,0,0,0,0,0,0,0,0,0,0,0,0,0,0,0,0,0,0,0,0,0,0,0,0,0,0,0,0,0,0,0,0,0,0,0,0,0,0,0,0,0,0,0,0,6107,6108,6109,0,0,0,
0,6232,6233,6234,0,0,0,0,0,0,0,0,0,0,0,0,0,0,0,0,0,0,0,0,0,0,0,0,0,0,0,0,0,0,0,0,0,0,0,0,0,0,0,0,0,0,0,0,0,0,0,0,0,0,0,0,0,0,0,0,0,0,0,0,0,0,0,0,0,0,0,0,0,0,0,0,0,6132,6133,6134,
6207,6208,6209,0,0,0,0,0,0,0,0,0,0,0,0,0,0,0,0,0,0,0,0,0,0,0,0,0,0,0,0,0,0,0,0,0,0,0,0,0,0,0,0,0,0,0,0,0,0,0,0,0,0,0,0,0,0,0,0,0,0,0,0,0,0,0,0,0,0,0,0,0,0,0,0,0,0,6157,6158,6159,
6232,6233,6234,0,0,0,0,0,0,0,0,0,0,0,0,0,0,0,0,0,0,0,0,0,0,0,0,0,0,0,0,0,0,0,0,0,0,0,0,0,0,0,0,0,0,0,0,0,0,0,0,0,0,0,0,0,0,0,0,0,0,0,0,0,0,0,0,0,0,0,0,0,0,0,0,6132,6133,6134,0,0,
0,6207,6208,6209,0,0,0,0,0,0,0,0,0,0,0,0,0,0,0,0,0,0,0,0,0,0,0,0,0,0,0,0,0,0,0,0,0,0,0,0,0,0,0,0,0,0,0,0,0,0,0,0,0,0,0,0,0,0,0,0,0,0,0,0,0,0,0,0,0,0,0,0,0,0,0,6157,6158,6159,0,0,
0,6232,6233,6234,0,0,0,0,0,0,0,0,0,0,0,0,0,0,0,0,0,0,0,0,0,0,0,0,0,0,0,0,0,0,0,0,0,0,0,0,0,0,0,0,0,0,0,0,0,0,0,0,0,0,0,0,0,0,0,0,0,0,0,0,0,0,0,0,0,0,0,0,0,0,0,6207,6208,6209,0,0,
6207,6208,6209,0,0,0,0,0,0,0,0,0,0,0,0,0,0,0,0,0,0,0,0,0,0,0,0,0,0,0,0,0,0,0,0,0,0,0,0,0,0,0,0,0,0,0,0,0,0,0,0,0,0,0,0,0,0,0,0,0,0,0,0,0,0,0,0,0,0,0,0,0,0,0,0,6232,6233,6234,6207,6208,
6232,6233,6234,0,0,0,0,0,0,0,0,0,0,0,0,0,0,0,0,0,0,0,0,0,0,0,0,0,0,0,0,0,0,0,0,0,0,0,0,0,0,0,0,0,0,0,0,0,0,0,0,0,0,0,0,0,0,0,0,0,0,0,0,0,0,0,0,0,0,0,0,0,0,0,0,0,0,0,6232,6233,
6207,6208,6209,0,0,0,0,0,0,0,0,0,0,0,0,0,0,0,0,0,0,0,0,0,0,0,0,0,0,0,0,0,0,0,0,0,0,0,0,0,0,0,0,0,0,0,0,0,0,0,0,0,0,0,0,0,0,0,0,0,0,0,0,0,0,0,0,0,0,0,0,0,0,0,6132,6133,6134,0,6132,6133,
6232,6233,6234,0,0,0,0,0,0,0,0,0,0,0,0,0,0,0,0,0,0,0,0,0,0,0,0,0,0,0,0,0,0,0,0,0,0,0,0,0,0,0,0,0,0,0,0,0,0,0,0,0,0,0,0,0,0,0,0,0,0,0,0,0,0,0,0,0,0,0,0,0,0,0,6157,6158,6159,0,6157,6158,
6208,6209,6207,6208,6209,0,0,0,0,0,0,0,0,0,0,0,0,0,0,0,0,0,0,0,0,0,0,0,0,0,0,0,0,0,0,0,0,0,0,0,0,0,0,0,0,0,0,0,0,0,0,0,0,0,0,0,0,0,0,0,0,0,0,0,0,0,0,0,0,0,0,0,0,0,0,0,0,6132,6133,6134,
6233,6234,6232,6233,6234,0,0,0,0,0,0,0,0,0,0,0,0,0,0,0,0,0,0,0,0,0,0,0,0,0,0,0,0,0,0,0,0,0,0,0,0,0,0,0,0,0,0,0,0,0,0,0,0,0,0,0,0,0,0,0,0,0,0,0,0,0,0,0,0,0,0,0,0,0,0,0,0,6157,6158,6159,
6207,6208,6209,0,0,0,0,0,0,0,0,0,0,0,0,0,0,0,0,0,0,0,0,0,0,0,0,0,0,0,0,0,0,0,0,0,0,0,0,0,0,0,0,0,0,0,0,0,0,0,0,0,0,0,0,0,0,0,0,0,0,0,0,0,0,0,0,0,0,0,0,0,0,0,0,6207,6208,6209,0,0,
6232,6233,6234,0,0,0,0,0,0,0,0,0,0,0,0,0,0,0,0,0,0,0,0,0,0,0,0,0,0,0,0,0,0,0,0,0,0,0,0,0,0,0,0,0,0,0,0,0,0,0,0,0,0,0,0,0,0,0,0,0,0,0,0,0,0,0,0,0,0,0,0,0,0,0,0,6232,6233,6234,0,0,
0,6207,6208,6209,0,0,0,0,0,0,0,0,0,0,0,0,0,0,0,0,0,0,0,0,0,0,0,0,0,0,0,0,0,0,0,0,0,0,0,0,0,0,0,0,0,0,0,0,0,0,0,0,0,0,0,0,0,0,0,0,0,0,0,0,0,0,0,0,0,0,0,0,0,0,0,0,0,6207,6208,6209,
0,6232,6233,6234,0,0,0,0,0,0,0,0,0,0,0,0,0,0,0,0,0,0,0,0,0,0,0,0,0,0,0,0,0,0,0,0,0,0,0,0,0,0,0,0,0,0,0,0,0,0,0,0,0,0,0,0,0,0,0,0,0,0,0,0,0,0,0,0,0,0,0,0,0,0,0,0,0,6232,6233,6234,
6207,6208,6209,0,0,0,0,0,0,0,0,0,0,0,0,0,0,0,0,0,0,0,0,0,0,0,0,0,0,0,0,0,0,0,0,0,0,0,0,0,0,0,0,0,0,0,0,0,0,0,0,0,0,0,0,0,0,0,0,0,0,0,0,0,0,0,0,0,0,0,0,0,0,0,6107,6108,6109,0,0,0,
6232,6233,6234,0,0,0,0,0,0,0,0,0,0,0,0,0,0,0,0,0,0,0,0,0,0,0,0,0,0,0,0,0,0,0,0,0,0,0,0,0,0,0,0,0,0,0,0,0,0,0,0,0,0,0,0,0,0,0,0,0,0,0,0,0,0,0,0,0,0,0,0,0,0,0,0,0,6132,6133,6134,0,
0,6207,6208,6209,0,0,0,0,0,0,0,0,0,0,0,0,0,0,0,0,0,0,0,0,0,0,0,0,0,0,0,0,0,0,0,0,0,0,0,0,0,0,0,0,0,0,0,0,0,0,0,0,0,0,0,0,0,0,0,0,0,0,0,0,0,0,0,0,0,0,0,0,0,0,0,0,6157,6158,6159,0,
0,6232,6233,6234,0,0,0,0,0,0,0,0,0,0,0,0,0,0,0,0,0,0,0,0,0,0,0,0,0,0,0,0,0,0,0,0,0,0,0,0,0,0,0,0,0,0,0,0,0,0,0,0,0,0,0,0,0,0,0,0,0,0,0,0,0,0,0,0,0,0,0,0,0,0,0,0,6132,6133,6134,0,
6207,6208,6209,0,0,0,0,0,0,0,0,0,0,0,0,0,0,0,0,0,0,0,0,0,0,0,0,0,0,0,0,0,0,0,0,0,0,0,0,0,0,0,0,0,0,0,0,0,0,0,0,0,0,0,0,0,0,0,0,0,0,0,0,0,0,0,0,0,0,0,0,0,0,0,0,0,6157,6158,6159,0,
6232,6233,6234,0,0,0,0,0,0,0,0,0,0,0,0,0,0,0,0,0,0,0,0,0,0,0,0,0,0,0,0,0,0,0,0,0,0,0,0,0,0,0,0,0,0,0,0,0,0,0,0,0,0,0,0,0,0,0,0,0,0,0,0,0,0,0,0,0,0,0,0,0,0,0,0,0,0,0,6132,6133,
6207,6208,6209,0,0,0,0,0,0,0,0,0,0,0,0,0,0,0,0,0,0,0,0,0,0,0,0,0,0,0,0,0,0,0,0,0,0,0,0,0,0,0,0,0,0,0,0,0,0,0,0,0,0,0,0,0,0,0,0,0,0,0,0,0,0,0,0,0,0,0,0,0,0,0,0,0,0,0,6157,6158,
6232,6233,6234,0,0,0,0,0,0,0,0,0,0,0,0,0,0,0,0,0,0,0,0,0,0,0,0,0,0,0,0,0,0,0,0,0,0,0,0,0,0,0,0,0,0,0,0,0,0,0,0,0,0,0,0,0,0,0,0,0,0,0,0,0,0,0,0,0,0,0,0,0,0,0,0,0,6207,6208,6209,0,
0,6207,6208,6209,0,0,0,0,0,0,0,0,0,0,0,0,0,0,0,0,0,0,0,0,0,0,0,0,0,0,0,0,0,0,0,0,0,0,0,0,0,0,0,0,0,0,0,0,0,0,0,0,0,0,0,0,0,0,0,0,0,0,0,0,0,0,0,0,0,0,0,0,0,0,0,0,6232,6233,6234,0,
0,6232,6233,6234,0,0,0,0,0,0,0,0,0,0,0,0,0,0,0,0,0,0,0,0,0,0,0,0,0,0,0,0,0,0,0,0,0,0,0,0,0,0,0,0,0,0,0,0,0,0,0,0,0,0,0,0,0,0,0,0,0,0,0,0,0,0,0,0,0,0,0,0,0,0,6207,6208,6209,0,0,0,
6207,6208,6209,0,0,0,0,0,0,0,0,0,0,0,0,0,0,0,0,0,0,0,0,0,0,0,0,0,0,0,0,0,0,0,0,0,0,0,0,0,0,0,0,0,0,0,0,0,0,0,0,0,0,0,0,0,0,0,0,0,0,0,0,0,0,0,0,0,0,0,0,0,0,0,6232,6233,6234,0,0,0,
6232,6233,6234,0,0,0,6207,6208,6209,0,0,0,0,0,0,0,0,0,0,0,0,0,0,0,6207,6208,6209,0,0,0,0,0,0,0,0,0,0,0,0,0,0,0,0,0,0,0,0,0,0,0,0,0,0,0,0,0,0,0,0,0,0,0,0,0,0,0,0,0,0,0,0,0,0,0,0,0,0,6207,6208,6209,
6207,6208,6209,0,0,0,6232,6233,6234,0,0,0,0,0,0,0,0,0,0,0,0,0,0,0,6232,6233,6234,0,0,0,6207,6208,6209,0,0,0,6207,6208,6209,6207,6208,6209,0,0,0,0,0,0,0,0,0,0,0,0,6132,6133,6134,0,0,0,0,0,0,0,0,0,0,0,0,0,0,0,0,0,0,0,0,6232,6233,6234,
6232,6233,6234,6207,6208,6209,0,0,0,6207,6208,6209,0,0,0,6207,6208,6209,0,0,0,6107,6108,6109,0,0,0,6207,6208,6209,6232,6233,6234,0,0,0,6232,6233,6234,6232,6233,6234,6207,6208,6209,0,0,0,0,0,0,0,0,0,6157,6158,6159,6207,6208,6209,0,0,0,0,0,0,0,6207,6208,6209,6207,6208,6209,0,0,0,0,0,0,0,
0,0,0,6232,6233,6234,0,0,0,6232,6233,6234,6207,6208,6209,6232,6233,6234,6207,6208,6209,6207,6208,6209,6132,6133,6134,6232,6233,6234,0,0,0,6207,6208,6209,0,0,0,0,0,0,6232,6233,6234,6132,6133,6134,0,0,0,6132,6133,6134,0,0,0,6232,6233,6234,0,0,0,6057,6058,0,0,6232,6233,6234,6232,6233,6234,6107,6108,6109,0,0,6207,6208,
0,0,0,0,0,0,0,0,0,0,0,0,6232,6233,6234,0,0,0,6232,6233,6234,6232,6233,6234,6157,6158,6159,0,0,0,0,0,0,6232,6233,6234,0,0,0,0,0,0,0,0,0,6157,6158,6159,0,0,0,6157,6158,6159,0,0,0,0,0,0,6107,6108,6109,0,0,6057,6058,0,0,0,0,0,0,0,0,0,6057,6058,6232,6233
</data>
 </layer>
 <layer id="13" name="04b_doors" width="80" height="100">
  <data encoding="csv">
0,0,0,0,0,0,0,0,0,0,0,0,0,0,0,0,0,0,0,0,0,0,0,0,0,0,0,0,0,0,0,0,0,0,0,0,0,0,0,0,0,0,0,0,0,0,0,0,0,0,0,0,0,0,0,0,0,0,0,0,0,0,0,0,0,0,0,0,0,0,0,0,0,0,0,0,0,0,0,0,
0,0,0,0,0,0,0,0,0,0,0,0,0,0,0,0,0,0,0,0,0,0,0,0,0,0,0,0,0,0,0,0,0,0,0,0,0,0,0,0,0,0,0,0,0,0,0,0,0,0,0,0,0,0,0,0,0,0,0,0,0,0,0,0,0,0,0,0,0,0,0,0,0,0,0,0,0,0,0,0,
0,0,0,0,0,0,0,0,0,0,0,0,0,0,0,0,0,0,0,0,0,0,0,0,0,0,0,0,0,0,0,0,0,0,0,0,0,0,0,0,0,0,0,0,0,0,0,0,0,0,0,0,0,0,0,0,0,0,0,0,0,0,0,0,0,0,0,0,0,0,0,0,0,0,0,0,0,0,0,0,
0,0,0,0,0,0,0,0,0,0,0,0,0,0,0,0,0,0,0,0,0,0,0,0,0,0,0,0,0,0,0,0,0,0,0,0,0,0,0,0,0,0,0,0,0,0,0,0,0,0,0,0,0,0,0,0,0,0,0,0,0,0,0,0,0,0,0,0,0,0,0,0,0,0,0,0,0,0,0,0,
0,0,0,0,0,0,0,0,0,0,0,0,0,0,0,0,0,0,0,0,0,0,0,0,0,0,0,0,0,0,0,0,0,0,0,0,0,0,0,0,0,0,0,0,0,0,0,0,0,0,0,0,0,0,0,0,0,0,0,0,0,0,0,0,0,0,0,0,0,0,0,0,0,0,0,0,0,0,0,0,
0,0,0,0,0,0,0,0,0,0,0,0,0,0,0,0,0,0,0,0,0,0,0,0,0,0,0,0,0,0,0,0,0,0,0,0,0,0,0,0,0,0,0,0,0,0,0,0,0,0,0,0,0,0,0,0,0,0,0,0,0,0,0,0,0,0,0,0,0,0,0,0,0,0,0,0,0,0,0,0,
0,0,0,0,0,0,0,0,0,0,0,0,0,0,0,0,0,0,0,0,0,0,0,0,0,0,0,0,0,0,0,0,0,0,0,0,0,0,0,0,0,0,0,0,0,0,0,0,0,0,0,0,0,0,0,0,0,0,0,0,0,0,0,0,0,0,0,0,0,0,0,0,0,0,0,0,0,0,0,0,
0,0,0,0,0,0,0,0,0,0,0,0,0,0,0,0,0,0,0,0,0,0,0,0,0,0,0,0,0,0,0,0,0,0,0,0,0,0,0,0,0,0,0,0,0,0,0,0,0,0,0,0,0,0,0,0,0,0,0,0,0,0,0,0,0,0,0,0,0,0,0,0,0,0,0,0,0,0,0,0,
0,0,0,0,0,0,0,0,0,0,0,0,0,0,0,0,0,0,0,0,0,0,0,0,0,0,0,0,0,0,0,0,0,0,0,0,0,0,0,0,0,0,0,0,0,0,0,0,0,0,0,0,0,0,0,0,0,0,0,0,0,0,0,0,0,0,0,0,0,0,0,0,0,0,0,0,0,0,0,0,
0,0,0,0,0,0,0,0,0,0,0,0,0,0,0,0,0,0,0,0,0,0,0,0,0,0,0,0,0,0,0,0,0,0,0,0,0,0,0,0,0,0,0,0,0,0,0,0,0,0,0,0,0,0,0,0,0,0,0,0,0,0,0,0,0,0,0,0,0,0,0,0,0,0,0,0,0,0,0,0,
0,0,0,0,0,0,0,0,0,0,0,0,0,0,0,0,0,0,0,0,0,0,0,0,0,0,0,0,0,0,0,0,0,0,0,0,0,0,0,0,0,0,0,0,0,0,0,0,0,0,0,0,0,0,0,0,0,0,0,0,0,0,0,0,0,0,0,0,0,0,0,0,0,0,0,0,0,0,0,0,
0,0,0,0,0,0,0,0,0,0,0,0,0,0,0,0,0,0,0,0,0,0,0,0,0,0,0,0,0,0,0,0,0,0,0,0,0,0,0,0,0,0,0,0,0,0,0,0,0,0,0,0,0,0,0,0,0,0,0,0,0,0,0,0,0,0,0,0,0,0,0,0,0,0,0,0,0,0,0,0,
0,0,0,0,0,0,0,0,0,0,0,0,0,0,0,0,0,0,0,0,0,0,0,0,0,0,0,0,0,0,0,0,0,0,0,0,0,0,0,0,0,0,0,0,0,0,0,0,0,0,0,0,0,0,0,0,0,0,0,0,0,0,0,0,0,0,0,0,0,0,0,0,0,0,0,0,0,0,0,0,
0,0,0,0,0,0,0,0,0,0,0,0,0,0,0,0,0,0,0,0,0,0,0,0,0,0,0,0,0,0,0,0,0,0,0,0,0,0,0,0,0,0,0,0,0,0,0,0,0,0,0,0,0,0,0,0,0,0,0,0,0,0,0,0,0,0,0,0,0,0,0,0,0,0,0,0,0,0,0,0,
0,0,0,0,0,0,0,0,0,0,0,0,0,0,0,0,0,0,0,0,0,0,0,0,0,0,0,0,0,0,0,0,0,0,0,0,0,0,0,0,0,0,0,0,0,0,0,0,0,0,0,0,0,0,0,0,0,0,0,0,0,0,0,0,0,0,0,0,0,0,0,0,0,0,0,0,0,0,0,0,
0,0,0,0,0,0,0,0,0,0,0,0,0,0,0,0,0,0,0,0,0,0,0,0,0,0,0,0,0,0,0,0,0,0,0,0,0,0,0,0,0,0,0,0,0,0,0,0,0,0,0,0,0,0,0,0,0,0,0,0,0,0,0,0,0,0,0,0,0,0,0,0,0,0,0,0,0,0,0,0,
0,0,0,0,0,0,0,0,0,0,0,0,0,0,0,0,0,0,0,0,0,0,0,0,0,0,0,0,0,0,0,0,0,0,0,0,0,0,0,0,0,0,0,0,0,0,0,0,0,0,0,0,0,0,0,0,0,0,0,0,0,0,0,0,0,0,0,0,0,0,0,0,0,0,0,0,0,0,0,0,
0,0,0,0,0,0,0,0,0,0,0,0,0,0,0,0,0,0,0,0,0,0,0,0,0,0,0,0,0,0,0,0,0,0,0,0,0,0,0,0,0,0,0,0,0,0,0,0,0,0,0,0,0,0,0,0,0,0,0,0,0,0,0,0,0,0,0,0,0,0,0,0,0,0,0,0,0,0,0,0,
0,0,0,0,0,0,0,0,0,0,0,0,0,0,0,0,0,0,0,0,0,0,0,0,0,0,0,0,0,0,0,0,0,0,0,0,0,0,0,0,0,0,0,0,0,0,0,0,0,0,0,0,0,0,0,0,0,0,0,0,0,0,0,0,0,0,0,0,0,0,0,0,0,0,0,0,0,0,0,0,
0,0,0,0,0,0,0,0,0,0,0,0,0,0,0,0,0,0,0,0,0,0,0,0,0,0,0,0,0,0,0,0,0,0,0,0,0,0,0,0,0,0,0,0,0,0,0,0,0,0,0,0,0,0,0,0,0,0,0,0,0,0,0,0,0,0,0,0,0,0,0,0,0,0,0,0,0,0,0,0,
0,0,0,0,0,0,0,0,0,0,0,0,0,0,0,0,0,0,0,0,0,0,0,0,0,0,0,0,0,0,0,0,0,0,0,0,0,0,0,0,0,0,0,0,0,0,0,0,0,0,0,0,0,0,0,0,0,0,0,0,0,0,0,0,0,0,0,0,0,0,0,0,0,0,0,0,0,0,0,0,
0,0,0,0,0,0,0,0,0,0,0,0,0,0,0,0,0,0,0,0,0,0,0,0,0,0,0,0,0,0,0,0,0,0,0,0,0,0,0,0,0,0,0,0,0,0,0,0,0,0,0,0,0,0,0,0,0,0,0,0,0,0,0,0,0,0,0,0,0,0,0,0,0,0,0,0,0,0,0,0,
0,0,0,0,0,0,0,0,0,0,0,0,0,0,0,0,0,0,0,0,0,0,0,0,0,0,0,0,0,0,0,0,0,0,0,0,0,0,0,0,0,0,0,0,0,0,0,0,0,0,0,0,0,0,0,0,0,0,0,0,0,0,0,0,0,0,0,0,0,0,0,0,0,0,0,0,0,0,0,0,
0,0,0,0,0,0,0,0,0,0,0,0,0,0,0,0,0,0,0,0,0,0,0,0,0,0,0,0,0,0,0,0,0,0,0,0,0,0,0,0,0,0,4188,4189,0,0,0,0,0,0,0,0,0,0,0,0,0,0,0,0,0,0,0,0,0,0,0,0,0,0,0,0,0,0,0,0,0,0,0,0,
0,0,0,0,0,0,0,0,0,0,0,0,0,0,0,0,0,0,0,0,0,0,0,0,0,0,0,0,0,0,0,0,0,0,0,0,0,0,0,0,0,0,4213,4214,0,0,0,0,0,0,0,0,0,0,0,0,0,0,0,0,0,0,0,0,0,0,0,0,0,0,0,0,0,0,0,0,0,0,0,0,
0,0,0,0,0,0,0,0,0,0,0,0,0,0,0,0,0,0,0,0,0,0,0,0,0,0,0,0,0,0,0,0,0,0,0,0,0,0,0,0,0,0,4238,4239,0,0,0,0,0,0,0,0,0,0,0,0,0,0,0,0,0,0,0,0,0,0,0,0,0,0,0,0,0,0,0,0,0,0,0,0,
0,0,0,0,0,0,0,0,0,0,0,0,0,0,0,0,0,0,0,0,0,0,0,0,0,0,0,0,0,0,0,0,0,0,0,0,0,0,0,0,0,0,0,0,0,0,0,0,0,0,0,0,0,0,0,0,0,0,0,0,0,0,0,0,0,0,0,0,0,0,0,0,0,0,0,0,0,0,0,0,
0,0,0,0,0,0,0,0,0,0,0,0,0,0,0,0,0,0,0,0,0,0,0,0,0,0,0,0,0,0,0,0,0,0,0,0,0,0,0,0,0,0,0,0,0,0,0,0,0,0,0,0,0,0,0,0,0,0,0,0,0,0,0,0,0,0,0,0,0,0,0,0,0,0,0,0,0,0,0,0,
0,0,0,0,0,0,0,0,0,0,0,0,0,0,0,0,0,0,0,0,0,0,0,0,0,0,0,0,0,0,0,0,0,0,0,0,0,0,0,0,0,0,0,0,0,0,0,0,0,0,0,0,0,0,0,0,0,0,0,0,0,0,0,0,0,0,0,0,0,0,0,0,0,0,0,0,0,0,0,0,
0,0,0,0,0,0,0,0,0,0,0,0,0,0,0,0,0,0,0,0,0,0,0,0,0,0,0,0,0,0,0,0,0,0,0,0,0,0,0,0,0,0,0,0,0,0,0,0,0,0,0,0,0,0,0,0,0,0,0,0,0,0,0,0,0,0,0,0,0,0,0,0,0,0,0,0,0,0,0,0,
0,0,0,0,0,0,0,0,0,0,0,0,0,0,0,0,0,0,0,0,0,0,0,0,0,0,0,0,0,0,0,0,0,0,0,0,0,0,0,0,0,0,0,0,0,0,0,0,0,0,0,0,0,0,0,0,0,0,0,0,0,0,0,0,0,0,0,0,0,0,0,0,0,0,0,0,0,0,0,0,
0,0,0,0,0,0,0,0,0,0,0,0,0,0,0,0,0,0,0,0,0,0,0,0,0,0,0,0,0,0,0,0,0,0,0,0,0,0,0,0,0,0,0,0,0,0,0,0,0,0,0,0,0,0,0,0,0,0,0,0,0,0,0,0,0,0,0,0,0,0,0,0,0,0,0,0,0,0,0,0,
0,0,0,0,0,0,0,0,0,0,0,0,0,0,0,0,0,0,0,0,0,0,0,0,0,0,0,0,0,0,0,0,0,0,0,0,0,0,0,0,0,0,0,0,0,0,0,0,0,0,0,0,0,0,0,0,0,0,0,0,0,0,0,0,0,0,0,0,0,0,0,0,0,0,0,0,0,0,0,0,
0,0,0,0,0,0,0,0,0,0,0,0,0,0,0,0,0,0,0,0,0,0,0,0,0,0,0,0,0,0,0,0,0,0,0,0,0,0,0,0,0,0,0,0,0,0,0,0,0,0,0,0,0,0,0,0,0,0,0,0,0,0,0,0,0,0,0,0,0,0,0,0,0,0,0,0,0,0,0,0,
0,0,0,0,0,0,0,0,0,0,0,0,0,0,0,0,0,0,0,0,0,0,0,0,0,0,0,0,0,0,0,4188,4189,0,0,0,0,0,0,0,0,0,0,0,0,0,0,0,0,0,0,0,0,0,0,0,0,0,0,0,0,0,0,0,0,0,0,0,0,0,0,0,0,0,0,0,0,0,0,0,
0,0,0,0,0,0,0,0,0,0,0,0,0,0,0,0,0,0,0,0,0,0,0,0,0,0,0,0,0,0,0,4213,4214,0,0,0,0,0,0,0,0,0,0,0,0,0,0,0,0,0,0,0,0,0,0,0,0,0,0,0,0,0,0,0,0,0,0,0,0,0,0,0,0,0,0,0,0,0,0,0,
0,0,0,0,0,0,0,0,0,0,0,0,0,0,0,0,0,0,0,0,0,0,0,0,0,0,0,0,0,0,0,4238,4239,0,0,0,0,0,0,0,0,0,0,0,0,0,0,0,0,0,0,0,0,0,0,0,0,0,0,0,0,0,0,0,0,0,0,0,0,0,0,0,0,0,0,0,0,0,0,0,
0,0,0,0,0,0,0,0,0,0,0,0,0,0,0,0,0,0,0,0,0,0,0,0,0,0,0,0,0,0,0,0,0,0,0,0,0,0,0,0,0,0,0,0,0,0,0,0,0,0,0,0,0,0,0,0,0,0,0,0,0,0,0,0,0,0,0,0,0,0,0,0,0,0,0,0,0,0,0,0,
0,0,0,0,0,0,0,0,0,0,0,0,0,0,0,0,0,0,0,0,0,0,0,0,0,0,0,0,0,0,0,0,0,0,0,0,0,0,0,0,0,0,0,0,0,0,0,0,0,0,0,0,0,0,0,0,0,0,0,0,0,0,0,0,0,0,0,0,0,0,0,0,0,0,0,0,0,0,0,0,
0,0,0,0,0,0,0,0,0,0,0,0,0,0,0,0,0,0,0,0,0,0,0,0,0,0,0,0,0,0,0,0,0,0,0,0,0,0,0,0,0,0,0,0,0,0,0,0,0,0,0,0,0,0,0,0,0,0,0,0,0,0,0,0,0,0,0,0,0,0,0,0,0,0,0,0,0,0,0,0,
0,0,0,0,0,0,0,0,0,0,0,0,0,0,0,0,0,0,0,0,0,0,0,0,0,0,0,0,0,0,0,0,0,0,0,0,0,0,0,0,0,0,0,0,0,0,0,0,0,0,0,0,0,0,0,0,0,0,0,0,0,0,0,0,0,0,0,0,0,0,0,0,0,0,0,0,0,0,0,0,
0,0,0,0,0,0,0,0,0,0,0,0,0,0,0,0,0,0,0,0,0,0,0,0,0,0,0,0,0,0,0,0,0,0,0,0,0,0,0,0,0,0,0,0,0,0,0,0,0,0,0,0,0,0,0,0,0,0,0,0,0,0,0,0,0,0,0,0,0,0,0,0,0,0,0,0,0,0,0,0,
0,0,0,0,0,0,0,0,0,0,0,0,0,0,0,0,0,0,0,0,0,0,0,0,0,0,0,0,0,0,0,0,0,0,0,0,0,0,0,0,0,0,0,0,0,0,0,0,0,0,0,0,0,0,0,0,0,0,0,0,0,0,0,0,0,0,0,0,0,0,0,0,0,0,0,0,0,0,0,0,
0,0,0,0,0,0,0,0,0,0,0,0,0,0,0,0,0,0,0,0,0,0,0,0,0,0,0,0,0,0,0,0,0,0,0,0,0,0,0,0,0,0,0,0,0,0,0,0,0,0,0,0,0,0,0,0,0,0,0,0,0,0,0,0,0,0,0,0,0,0,0,0,0,0,0,0,0,0,0,0,
0,0,0,0,0,0,0,0,0,0,0,0,0,0,0,0,0,0,0,0,0,0,0,0,0,0,0,0,0,0,0,0,0,0,0,0,0,0,0,0,0,0,0,0,0,0,0,0,0,0,0,0,0,0,0,0,0,0,0,0,0,0,0,0,0,0,0,0,0,0,0,0,0,0,0,0,0,0,0,0,
0,0,0,0,0,0,0,0,0,0,0,0,0,0,0,0,0,0,0,0,0,0,0,0,0,0,0,0,0,0,0,0,0,0,0,0,0,0,0,0,0,0,0,0,0,0,0,0,0,0,0,0,0,0,0,0,0,0,0,0,0,0,0,0,0,0,0,0,0,0,0,0,0,0,0,0,0,0,0,0,
0,0,0,0,0,0,0,0,0,0,0,0,0,0,0,0,0,0,0,0,0,0,0,0,0,0,0,0,0,0,0,0,0,0,0,0,0,0,0,0,0,0,0,0,0,0,0,0,0,0,0,0,0,0,0,0,0,0,0,0,0,0,0,0,0,0,0,0,0,0,0,0,0,0,0,0,0,0,0,0,
0,0,0,0,0,0,0,0,0,0,0,0,0,0,0,0,0,0,0,0,0,0,0,0,0,0,0,0,0,0,0,0,0,0,0,0,0,0,0,0,0,0,0,0,0,0,0,0,0,0,0,0,0,0,0,0,0,0,0,0,0,0,0,0,0,0,0,0,0,0,0,0,0,0,0,0,0,0,0,0,
0,0,0,0,0,0,0,0,0,0,0,0,0,0,0,0,0,0,0,0,0,0,0,0,0,0,0,0,0,0,0,0,0,0,0,0,0,0,0,0,0,0,0,0,0,0,0,0,0,0,0,0,0,0,0,0,0,0,0,0,0,0,0,0,0,0,0,0,0,0,0,0,0,0,0,0,0,0,0,0,
0,0,0,0,0,0,0,0,0,0,0,0,0,0,0,0,0,0,0,0,0,0,0,0,0,0,0,0,0,0,0,0,0,0,0,0,0,0,0,0,0,0,0,0,0,0,0,0,0,0,0,0,0,0,0,0,0,0,0,0,0,0,0,0,0,0,0,0,0,0,0,0,0,0,0,0,0,0,0,0,
0,0,0,0,0,0,0,0,0,0,0,0,0,0,0,0,0,0,0,0,0,0,0,0,0,0,0,0,0,0,0,0,0,0,0,0,0,0,0,0,0,0,0,0,0,0,0,0,0,0,0,0,0,0,0,0,0,0,0,0,0,0,0,0,0,0,0,0,0,0,0,0,0,0,0,0,0,0,0,0,
0,0,0,0,0,0,0,0,0,0,0,0,0,0,0,0,0,0,0,0,0,0,0,0,0,0,0,0,0,0,0,0,0,0,0,0,0,0,0,0,0,0,0,0,0,0,0,0,0,0,0,0,0,0,0,0,0,0,0,0,0,0,0,0,0,0,0,0,0,0,0,0,0,0,0,0,0,0,0,0,
0,0,0,0,0,0,0,0,0,0,0,0,0,0,0,0,0,0,0,0,0,0,0,0,0,0,0,0,0,0,0,0,0,0,0,0,0,0,0,0,0,0,0,0,0,0,0,0,0,0,0,0,0,0,0,0,0,0,0,0,0,0,0,0,0,0,0,0,0,0,0,0,0,0,0,0,0,0,0,0,
0,0,0,0,0,0,0,0,0,0,0,0,0,0,0,0,0,0,0,0,0,0,0,0,0,0,0,0,0,0,0,0,0,0,0,0,0,0,0,0,0,0,0,0,0,0,0,0,0,0,0,0,0,0,0,0,0,0,0,0,0,0,0,0,0,0,0,0,0,0,0,0,0,0,0,0,0,0,0,0,
0,0,0,0,0,0,0,0,0,0,0,0,0,0,0,0,0,0,0,0,0,0,0,0,0,0,0,0,0,0,0,0,0,0,0,0,0,0,0,0,0,0,0,0,0,0,0,0,0,0,0,0,0,0,0,0,0,0,0,0,0,0,0,0,0,0,0,0,0,0,0,0,0,0,0,0,0,0,0,0,
0,0,0,0,0,0,0,0,0,0,0,0,0,0,0,0,0,0,0,0,0,0,0,0,0,0,0,0,0,0,0,0,0,0,0,0,0,0,0,0,0,0,0,0,0,0,0,0,0,0,0,0,0,0,0,0,0,0,0,0,0,0,0,0,0,0,0,0,0,0,0,0,0,0,0,0,0,0,0,0,
0,0,0,0,0,0,0,0,0,0,0,0,0,0,0,0,0,0,0,0,0,0,0,0,0,0,0,0,0,0,0,0,0,0,0,0,0,0,0,0,0,0,0,0,0,0,0,0,0,0,0,0,0,0,0,0,0,0,0,0,0,0,0,0,0,0,0,0,0,0,0,0,0,0,0,0,0,0,0,0,
0,0,0,0,0,0,0,0,0,0,0,0,0,0,0,0,0,0,0,0,0,0,0,0,0,0,0,0,0,0,0,0,0,0,0,0,0,0,0,0,0,0,0,0,0,0,0,0,0,0,0,0,0,0,0,0,0,0,0,0,0,0,0,0,0,0,0,0,0,0,0,0,0,0,0,0,0,0,0,0,
0,0,0,0,0,0,0,0,0,0,0,0,0,0,0,0,0,0,0,0,0,0,0,0,0,0,0,0,0,0,0,0,0,0,0,0,0,0,0,0,0,0,0,0,0,0,0,0,0,0,0,0,0,0,0,0,0,0,0,0,0,0,0,0,0,0,0,0,0,0,0,0,0,0,0,0,0,0,0,0,
0,0,0,0,0,0,0,0,0,0,0,0,0,0,0,0,0,0,0,0,0,0,0,0,0,0,0,0,0,0,0,0,0,0,0,0,0,0,0,0,0,0,0,0,0,0,0,0,0,0,0,0,0,0,0,0,0,0,0,0,0,0,0,0,0,0,0,0,0,0,0,0,0,0,0,0,0,0,0,0,
0,0,0,0,0,0,0,0,0,0,0,0,0,0,0,0,0,0,0,0,0,0,0,0,0,0,0,0,0,0,0,0,0,0,0,0,0,0,0,0,0,0,0,0,0,0,0,0,0,0,0,0,0,0,0,0,0,0,0,0,0,0,0,0,0,0,0,0,0,0,0,0,0,0,0,0,0,0,0,0,
0,0,0,0,0,0,0,0,0,0,0,0,0,0,0,0,0,0,0,0,0,0,0,0,0,0,0,0,0,0,0,0,0,0,0,0,0,0,0,0,0,0,0,0,0,0,0,0,0,0,0,0,0,0,0,0,0,0,0,0,0,0,0,0,0,0,0,0,0,0,0,0,0,0,0,0,0,0,0,0,
0,0,0,0,0,0,0,0,0,0,0,0,0,0,0,0,0,0,0,0,0,0,0,0,0,0,0,0,0,0,0,0,0,0,0,0,0,0,0,0,0,0,0,0,0,0,0,0,0,0,0,0,0,0,0,0,0,0,0,0,0,0,0,0,0,0,0,0,0,0,0,0,0,0,0,0,0,0,0,0,
0,0,0,0,0,0,0,0,0,0,0,0,0,0,0,0,0,0,0,0,0,0,0,0,0,0,0,0,0,0,0,0,0,0,0,0,0,0,0,0,0,0,0,0,0,0,0,0,0,0,0,0,0,0,0,0,0,0,0,0,0,0,0,0,0,0,0,0,0,0,0,0,0,0,0,0,0,0,0,0,
0,0,0,0,0,0,0,0,0,0,0,0,0,0,0,0,0,0,0,0,0,0,0,0,0,0,0,0,0,0,0,0,0,0,0,0,0,0,0,0,0,0,0,0,0,0,0,0,0,0,0,0,0,0,0,0,0,0,0,0,0,0,0,0,0,0,0,0,0,0,0,0,0,0,0,0,0,0,0,0,
0,0,0,0,0,0,0,0,0,0,0,0,0,0,0,0,0,0,0,0,0,0,0,0,0,0,0,0,0,0,0,0,0,0,0,0,0,0,0,0,0,0,0,0,0,0,0,0,0,0,0,0,0,0,0,0,0,0,0,0,0,0,0,0,0,0,0,0,0,0,0,0,0,0,0,0,0,0,0,0,
0,0,0,0,0,0,0,0,0,0,0,0,0,0,0,0,0,0,0,0,0,0,0,0,0,0,0,0,0,0,0,0,0,0,0,0,0,0,0,0,0,0,0,0,0,0,0,0,0,0,0,0,0,0,0,0,0,0,0,0,0,0,0,0,0,0,0,0,0,0,0,0,0,0,0,0,0,0,0,0,
0,0,0,0,0,0,0,0,0,0,0,0,0,0,0,0,0,0,0,0,0,0,0,0,0,0,0,0,0,0,0,0,0,0,0,0,0,0,0,0,0,0,0,0,0,0,0,0,0,0,0,0,0,0,0,0,0,0,0,0,0,0,0,0,0,0,0,0,0,0,0,0,0,0,0,0,0,0,0,0,
0,0,0,0,0,0,0,0,0,0,0,0,0,0,0,0,0,0,0,0,0,0,0,0,0,0,0,0,0,0,0,0,0,0,0,0,0,0,0,0,0,0,0,0,0,0,0,0,0,0,0,0,0,0,0,0,0,0,0,0,0,0,0,0,0,0,0,0,0,0,0,0,0,0,0,0,0,0,0,0,
0,0,0,0,0,0,0,0,0,0,0,0,0,0,0,0,0,0,0,0,0,0,0,0,0,0,0,0,0,0,0,0,0,0,0,0,0,0,0,0,0,0,0,0,0,0,0,0,0,0,0,0,0,0,0,0,0,0,0,0,0,0,0,0,0,0,0,0,0,0,0,0,0,0,0,0,0,0,0,0,
0,0,0,0,0,0,0,0,0,0,0,0,0,0,0,0,0,0,0,0,0,0,0,0,0,0,0,0,0,0,0,0,0,0,0,0,0,0,0,0,0,0,0,0,0,0,0,0,0,0,0,0,0,0,0,0,0,0,0,0,0,0,0,0,0,0,0,0,0,0,0,0,0,0,0,0,0,0,0,0,
0,0,0,0,0,0,0,0,0,0,0,0,0,0,0,0,0,0,0,0,0,0,0,0,0,0,0,0,0,0,0,0,0,0,0,0,0,0,0,0,0,0,0,0,0,0,0,0,0,0,0,0,0,0,0,0,0,0,0,0,0,0,0,0,0,0,0,0,0,0,0,0,0,0,0,0,0,0,0,0,
0,0,0,0,0,0,0,0,0,0,0,0,0,0,0,0,0,0,0,0,0,0,0,0,0,0,0,0,0,0,0,0,0,0,0,0,0,0,0,0,0,0,0,0,0,0,0,0,0,0,0,0,0,0,0,0,0,0,0,0,0,0,0,0,0,0,0,0,0,0,0,0,0,0,0,0,0,0,0,0,
0,0,0,0,0,0,0,0,0,0,0,0,0,0,0,0,0,0,0,0,0,0,0,0,0,0,0,0,0,0,0,0,0,0,0,0,0,0,0,0,0,0,0,0,0,0,0,0,0,0,0,0,0,0,0,0,0,0,0,0,0,0,0,0,0,0,0,0,0,0,0,0,0,0,0,0,0,0,0,0,
0,0,0,0,0,0,0,0,0,0,0,0,0,0,0,0,0,0,0,0,0,0,0,0,0,0,0,0,0,0,0,0,0,0,0,0,0,0,0,0,0,0,0,0,0,0,0,0,0,0,0,0,0,0,0,0,0,0,0,0,0,0,0,0,0,0,0,0,0,0,0,0,0,0,0,0,0,0,0,0,
0,0,0,0,0,0,0,0,0,0,0,0,0,0,0,0,0,0,0,0,0,0,0,0,0,0,0,0,0,0,0,0,0,0,0,0,0,0,0,0,0,0,0,0,0,0,0,0,0,0,0,0,0,0,0,0,0,0,0,0,0,0,0,0,0,0,0,0,0,0,0,0,0,0,0,0,0,0,0,0,
0,0,0,0,0,0,0,0,0,0,0,0,0,0,0,0,0,0,0,0,0,0,0,0,0,0,0,0,0,0,0,0,0,0,0,0,0,0,0,0,0,0,0,0,0,0,0,0,0,0,0,0,0,0,0,0,0,0,0,0,0,0,0,0,0,0,0,0,0,0,0,0,0,0,0,0,0,0,0,0,
0,0,0,0,0,0,0,0,0,0,0,0,0,0,0,0,0,0,0,0,0,0,0,0,0,0,0,0,0,0,0,0,0,0,0,0,0,0,0,0,0,0,0,0,0,0,0,0,0,0,0,0,0,0,0,0,0,0,0,0,0,0,0,0,0,0,0,0,0,0,0,0,0,0,0,0,0,0,0,0,
0,0,0,0,0,0,0,0,0,0,0,0,0,0,0,0,0,0,0,0,0,0,0,0,0,0,0,0,0,0,0,0,0,0,0,0,0,0,0,0,0,0,0,0,0,0,0,0,0,0,0,0,0,0,0,0,0,0,0,0,0,0,0,0,0,0,0,0,0,0,0,0,0,0,0,0,0,0,0,0,
0,0,0,0,0,0,0,0,0,0,0,0,0,0,0,0,0,0,0,0,0,0,0,0,0,0,0,0,0,0,0,0,0,0,0,0,0,0,0,0,0,0,0,0,0,0,0,0,0,0,0,0,0,0,0,0,0,0,0,0,0,0,0,0,0,0,0,0,0,0,0,0,0,0,0,0,0,0,0,0,
0,0,0,0,0,0,0,0,0,0,0,0,0,0,0,0,0,0,0,0,0,0,0,0,0,0,0,0,0,0,0,0,0,0,0,0,0,0,0,0,0,0,0,0,0,0,0,0,0,0,0,0,0,0,0,0,0,0,0,0,0,0,0,0,0,0,0,0,0,0,0,0,0,0,0,0,0,0,0,0,
0,0,0,0,0,0,0,0,0,0,0,0,0,0,0,0,0,0,0,0,0,0,0,0,0,0,0,0,0,0,0,0,0,0,0,0,0,0,0,0,0,0,0,0,0,0,0,0,0,0,0,0,0,0,0,0,0,0,0,0,0,0,0,0,0,0,0,0,0,0,0,0,0,0,0,0,0,0,0,0,
0,0,0,0,0,0,0,0,0,0,0,0,0,0,0,0,0,0,0,0,0,0,0,0,0,0,0,0,0,0,0,0,0,0,0,0,0,0,0,0,0,0,0,0,0,0,0,0,0,0,0,0,0,0,0,0,0,0,0,0,0,0,0,0,0,0,0,0,0,0,0,0,0,0,0,0,0,0,0,0,
0,0,0,0,0,0,0,0,0,0,0,0,0,0,0,0,0,0,0,0,0,0,0,0,0,0,0,0,0,0,0,0,0,0,0,0,0,0,0,0,0,0,0,0,0,0,0,0,0,0,0,0,0,0,0,0,0,0,0,0,0,0,0,0,0,0,0,0,0,0,0,0,0,0,0,0,0,0,0,0,
0,0,0,0,0,0,0,0,0,0,0,0,0,0,0,0,0,0,0,0,0,0,0,0,0,0,0,0,0,0,0,0,0,0,0,0,0,0,0,0,0,0,0,0,0,0,0,0,0,0,0,0,0,0,0,0,0,0,0,0,0,0,0,0,0,0,0,0,0,0,0,0,0,0,0,0,0,0,0,0,
0,0,0,0,0,0,0,0,0,0,0,0,0,0,0,0,0,0,0,0,0,0,0,0,0,0,0,0,0,0,0,0,0,0,0,0,0,0,0,0,0,0,0,0,0,0,0,0,0,0,0,0,0,0,0,0,0,0,0,0,0,0,0,0,0,0,0,0,0,0,0,0,0,0,0,0,0,0,0,0,
0,0,0,0,0,0,0,0,0,0,0,0,0,0,0,0,0,0,0,0,0,0,0,0,0,0,0,0,0,0,0,0,0,0,0,0,0,0,0,0,0,0,0,0,0,0,0,0,0,0,0,0,0,0,0,0,0,0,0,0,0,0,0,0,0,0,0,0,0,0,0,0,0,0,0,0,0,0,0,0,
0,0,0,0,0,0,0,0,0,0,0,0,0,0,0,0,0,0,0,0,0,0,0,0,0,0,0,0,0,0,0,0,0,0,0,0,0,0,0,0,0,0,0,0,0,0,0,0,0,0,0,0,0,0,0,0,0,0,0,0,0,0,0,0,0,0,0,0,0,0,0,0,0,0,0,0,0,0,0,0,
0,0,0,0,0,0,0,0,0,0,0,0,0,0,0,0,0,0,0,0,0,0,0,0,0,0,0,0,0,0,0,0,0,0,0,0,0,0,0,0,0,0,0,0,0,0,0,0,0,0,0,0,0,0,0,0,0,0,0,0,0,0,0,0,0,0,0,0,0,0,0,0,0,0,0,0,0,0,0,0,
0,0,0,0,0,0,0,0,0,0,0,0,0,0,0,0,0,0,0,0,0,0,0,0,0,0,0,0,0,0,0,0,0,0,0,0,0,0,0,0,0,0,0,0,0,0,0,0,0,0,0,0,0,0,0,0,0,0,0,0,0,0,0,0,0,0,0,0,0,0,0,0,0,0,0,0,0,0,0,0,
0,0,0,0,0,0,0,0,0,0,0,0,0,0,0,0,0,0,0,0,0,0,0,0,0,0,0,0,0,0,0,0,0,0,0,0,0,0,0,0,0,0,0,0,0,0,0,0,0,0,0,0,0,0,0,0,0,0,0,0,0,0,0,0,0,0,0,0,0,0,0,0,0,0,0,0,0,0,0,0,
0,0,0,0,0,0,0,0,0,0,0,0,0,0,0,0,0,0,0,0,0,0,0,0,0,0,0,0,0,0,0,0,0,0,0,0,0,0,0,0,0,0,0,0,0,0,0,0,0,0,0,0,0,0,0,0,0,0,0,0,0,0,0,0,0,0,0,0,0,0,0,0,0,0,0,0,0,0,0,0,
0,0,0,0,0,0,0,0,0,0,0,0,0,0,0,0,0,0,0,0,0,0,0,0,0,0,0,0,0,0,0,0,0,0,0,0,0,0,0,0,0,0,0,0,0,0,0,0,0,0,0,0,0,0,0,0,0,0,0,0,0,0,0,0,0,0,0,0,0,0,0,0,0,0,0,0,0,0,0,0,
0,0,0,0,0,0,0,0,0,0,0,0,0,0,0,0,0,0,0,0,0,0,0,0,0,0,0,0,0,0,0,0,0,0,0,0,0,0,0,0,0,0,0,0,0,0,0,0,0,0,0,0,0,0,0,0,0,0,0,0,0,0,0,0,0,0,0,0,0,0,0,0,0,0,0,0,0,0,0,0,
0,0,0,0,0,0,0,0,0,0,0,0,0,0,0,0,0,0,0,0,0,0,0,0,0,0,0,0,0,0,0,0,0,0,0,0,0,0,0,0,0,0,0,0,0,0,0,0,0,0,0,0,0,0,0,0,0,0,0,0,0,0,0,0,0,0,0,0,0,0,0,0,0,0,0,0,0,0,0,0,
0,0,0,0,0,0,0,0,0,0,0,0,0,0,0,0,0,0,0,0,0,0,0,0,0,0,0,0,0,0,0,0,0,0,0,0,0,0,0,0,0,0,0,0,0,0,0,0,0,0,0,0,0,0,0,0,0,0,0,0,0,0,0,0,0,0,0,0,0,0,0,0,0,0,0,0,0,0,0,0,
0,0,0,0,0,0,0,0,0,0,0,0,0,0,0,0,0,0,0,0,0,0,0,0,0,0,0,0,0,0,0,0,0,0,0,0,0,0,0,0,0,0,0,0,0,0,0,0,0,0,0,0,0,0,0,0,0,0,0,0,0,0,0,0,0,0,0,0,0,0,0,0,0,0,0,0,0,0,0,0,
0,0,0,0,0,0,0,0,0,0,0,0,0,0,0,0,0,0,0,0,0,0,0,0,0,0,0,0,0,0,0,0,0,0,0,0,0,0,0,0,0,0,0,0,0,0,0,0,0,0,0,0,0,0,0,0,0,0,0,0,0,0,0,0,0,0,0,0,0,0,0,0,0,0,0,0,0,0,0,0,
0,0,0,0,0,0,0,0,0,0,0,0,0,0,0,0,0,0,0,0,0,0,0,0,0,0,0,0,0,0,0,0,0,0,0,0,0,0,0,0,0,0,0,0,0,0,0,0,0,0,0,0,0,0,0,0,0,0,0,0,0,0,0,0,0,0,0,0,0,0,0,0,0,0,0,0,0,0,0,0,
0,0,0,0,0,0,0,0,0,0,0,0,0,0,0,0,0,0,0,0,0,0,0,0,0,0,0,0,0,0,0,0,0,0,0,0,0,0,0,0,0,0,0,0,0,0,0,0,0,0,0,0,0,0,0,0,0,0,0,0,0,0,0,0,0,0,0,0,0,0,0,0,0,0,0,0,0,0,0,0
</data>
 </layer>
 <layer id="5" name="05_above_player" width="80" height="100">
  <data encoding="csv">
0,0,0,0,0,0,0,0,0,0,0,0,0,0,0,0,0,0,0,0,0,0,0,0,0,0,0,0,0,0,0,0,0,0,2790,2791,2792,0,0,0,0,2764,2765,2766,0,0,0,0,0,0,0,0,0,0,0,0,2783,2784,2785,0,0,0,0,0,0,0,2757,2758,2759,0,0,2783,2784,2785,0,0,0,0,0,0,
0,0,0,0,0,0,0,0,0,0,0,0,0,0,0,0,0,0,0,0,0,0,0,0,0,0,0,0,0,0,0,0,0,0,0,2751,2752,2753,0,0,0,2777,2778,2779,0,0,0,0,0,0,0,0,0,0,0,0,2796,2797,2798,0,0,0,0,0,0,0,2770,2771,2772,0,0,2796,2797,2798,0,0,0,0,0,0,
0,0,0,0,0,0,0,0,0,0,0,0,0,0,0,0,0,0,0,0,0,0,0,0,0,0,0,0,0,0,0,0,0,0,0,2764,2765,2766,0,0,0,2790,2791,2792,0,0,0,0,0,0,0,0,0,0,0,0,0,0,0,2757,2758,2759,0,0,0,0,2783,2784,2785,0,0,0,0,0,0,0,0,0,0,0,
0,0,0,0,0,0,0,0,0,0,0,0,0,0,0,0,0,0,0,0,0,0,0,0,0,0,0,0,0,0,0,0,0,0,0,2777,2778,2779,0,0,0,2751,2752,2753,0,0,0,0,0,0,0,0,0,0,0,0,0,0,0,2770,2771,2772,0,0,0,0,2796,2797,2798,0,0,0,0,0,0,2757,2758,2759,0,0,
0,0,0,0,0,0,0,0,0,0,0,0,0,0,0,0,0,0,0,0,0,0,0,0,0,0,0,0,0,0,0,0,0,0,0,2790,2791,2792,0,0,0,2764,2765,2766,0,0,0,0,2751,2752,2753,0,0,0,0,0,0,0,0,2783,2784,2785,0,0,0,0,0,0,0,0,0,0,0,0,0,2770,2771,2772,0,0,
0,0,0,0,0,0,0,0,0,0,0,0,0,0,0,0,0,0,0,0,0,0,0,0,0,0,0,0,0,0,0,2754,2755,2756,0,0,0,0,0,0,0,2777,2778,2779,0,0,0,0,2764,2765,2766,0,0,0,0,0,0,0,0,2796,2797,2798,0,0,0,0,0,0,0,0,0,0,0,0,0,2783,2784,2785,0,0,
0,0,0,0,0,0,0,0,0,0,0,0,0,0,0,0,0,0,0,0,0,0,0,0,0,0,0,0,0,0,0,2767,2768,2769,2754,2755,2756,0,0,0,0,2790,2791,2792,0,0,0,0,2777,2778,2779,0,0,0,0,0,0,0,0,0,0,0,0,0,0,0,0,0,0,0,0,0,0,0,0,2796,2797,2798,0,0,
0,0,0,0,0,0,0,0,0,0,0,0,0,0,0,0,0,0,0,0,0,0,0,0,0,0,0,0,0,0,0,2780,2781,2782,2767,2768,2769,0,0,0,2751,2752,2753,0,0,0,0,0,2790,2791,2792,0,0,0,0,0,0,0,0,0,0,0,0,0,0,0,0,0,0,0,0,0,0,0,0,0,0,0,0,0,
0,0,0,0,0,0,0,0,0,0,0,0,0,0,0,0,0,0,0,0,0,0,0,0,0,0,0,0,0,0,0,2793,2794,2795,2780,2781,2782,0,0,0,2764,2765,2766,0,0,0,0,0,0,0,0,0,0,0,0,0,0,0,0,0,0,0,0,0,0,0,0,0,0,0,0,0,0,0,0,0,0,0,0,0,
0,0,0,0,0,0,0,0,0,0,0,0,0,0,0,0,0,0,0,0,0,0,0,0,0,0,0,0,0,0,0,0,0,0,2793,2794,2795,0,0,0,2777,2778,2779,0,0,0,0,0,0,0,0,0,0,0,0,0,0,0,0,0,0,0,0,0,0,0,0,0,0,0,0,0,0,0,0,0,0,0,0,0,
0,0,0,0,0,0,0,0,0,0,0,0,0,0,0,0,0,0,0,0,0,0,0,0,0,0,0,0,0,0,0,0,0,0,0,0,0,0,0,0,2790,2791,2792,0,0,0,0,0,0,0,0,0,0,0,0,0,0,0,0,0,0,0,0,0,0,0,0,0,0,0,0,0,0,0,0,0,0,0,0,0,
0,0,0,0,0,0,0,0,0,0,0,0,0,0,0,0,0,0,0,0,0,0,0,0,0,0,0,0,0,0,0,0,0,0,0,2754,2755,2756,0,0,0,2751,2752,2753,0,0,0,0,0,0,0,0,0,0,0,0,0,0,0,0,0,0,0,0,0,0,0,0,0,0,0,0,0,0,0,0,0,0,0,0,
0,0,0,0,0,0,0,0,0,0,0,0,0,0,0,0,0,0,0,0,0,0,0,0,0,0,0,0,0,0,0,0,0,0,0,2767,2768,2769,0,0,0,2764,2765,2766,0,0,0,0,0,0,0,0,0,0,0,0,2751,2752,2753,0,0,0,0,0,0,0,0,2751,2752,2753,0,0,0,0,0,0,0,0,0,0,
0,0,0,0,0,0,0,0,0,0,0,0,0,0,0,0,0,0,0,0,0,0,0,0,0,0,0,0,0,0,0,0,0,0,0,2780,2781,2782,0,0,0,2777,2778,2779,0,0,0,0,0,0,0,0,0,0,0,0,2764,2765,2766,0,0,2751,2752,2753,0,0,0,2764,2765,2766,0,0,0,0,0,0,0,0,0,0,
0,0,0,0,0,0,0,0,0,0,0,0,0,0,0,0,0,0,0,0,0,0,0,0,0,0,0,0,0,0,0,0,0,0,0,2793,2794,2795,0,0,0,2790,2791,2792,0,0,0,0,0,0,0,0,0,0,0,0,2777,2778,2779,0,0,2764,2765,2766,0,0,0,2777,2778,2779,0,0,0,0,2751,2752,2753,0,0,0,
0,0,0,0,0,0,0,0,0,0,0,0,0,0,0,0,0,0,0,0,0,0,0,0,0,0,0,0,0,0,0,0,2751,2752,2753,0,0,0,0,0,0,0,0,2751,2752,4785,4786,0,0,0,0,0,0,0,0,0,2790,2791,2792,0,0,2777,2778,2779,0,0,0,2790,2791,2792,0,0,0,0,2764,2765,2766,0,0,0,
0,0,0,0,0,0,0,0,0,0,0,0,0,0,0,0,0,0,0,0,0,0,0,0,0,0,0,0,0,0,0,0,2764,2765,2766,0,0,0,0,0,0,0,0,4808,4809,4810,4811,4812,4813,0,0,0,0,0,0,0,0,0,0,0,0,2790,2791,2792,0,0,0,0,0,0,0,0,0,0,2777,2778,2779,0,0,0,
0,0,0,0,0,0,0,0,0,0,0,0,0,0,0,0,0,0,0,0,0,0,0,0,0,0,0,0,0,0,0,0,2777,2778,2779,0,0,0,0,0,0,4808,4809,4833,4834,4835,4836,4837,4838,4812,4813,0,0,0,0,0,0,0,0,0,0,0,0,0,0,0,0,0,0,0,0,0,0,0,2790,2791,2792,0,0,0,
0,0,0,0,0,0,0,0,0,0,0,0,0,0,0,0,0,0,0,0,0,0,0,0,0,0,0,0,0,0,0,0,2790,2791,2792,2751,2752,2753,0,0,4832,4833,4834,4858,4859,4860,4861,4862,4863,4837,4838,4839,0,0,0,0,0,0,0,0,0,0,0,0,0,0,0,0,0,0,0,0,0,0,0,0,0,0,0,0,
0,0,0,0,0,0,0,0,0,0,0,0,0,0,0,0,0,0,0,0,0,0,0,0,0,0,0,0,0,0,0,0,0,0,0,2764,2765,2766,0,0,4857,4858,4859,4883,4884,4885,4886,4887,4888,4862,4863,4864,0,0,0,0,0,0,0,0,0,0,0,0,0,0,0,0,0,0,0,0,0,0,0,0,0,0,0,0,
0,0,0,0,0,0,0,0,0,0,0,0,0,0,0,0,0,0,0,0,0,0,0,0,0,0,0,0,0,0,0,0,0,0,0,2777,2778,2779,0,0,4882,4883,4884,4908,4909,0,0,4912,4913,4887,4888,4889,0,0,0,0,0,0,0,0,0,0,0,0,0,0,0,0,0,0,0,0,0,0,0,0,0,0,0,0,
0,0,0,0,0,0,0,0,0,0,0,0,0,0,0,0,0,0,0,0,0,0,0,0,0,0,0,0,0,0,0,0,0,0,0,2790,2791,2792,0,0,4907,4908,0,0,0,0,0,0,0,4912,4913,4914,0,0,0,0,0,0,0,0,0,0,0,0,0,0,0,0,0,0,0,0,0,0,0,0,0,0,0,0,
0,0,0,0,0,0,0,0,0,0,0,0,0,0,0,0,0,0,0,0,0,0,0,0,0,0,0,0,0,0,0,0,0,0,0,0,0,0,0,0,0,0,0,0,0,0,0,0,0,0,0,0,0,0,0,0,0,0,0,0,0,0,0,0,0,0,0,0,0,0,0,0,0,0,0,0,0,0,0,0,
0,0,0,0,0,0,0,0,0,0,0,0,0,0,0,0,0,0,0,0,0,0,0,0,0,0,0,0,0,0,0,0,0,0,0,0,0,0,0,0,0,0,0,0,0,0,0,0,0,0,0,0,0,0,0,0,0,0,0,0,0,0,0,0,0,0,0,0,0,0,0,0,0,0,0,0,0,0,0,0,
0,0,0,0,0,0,0,0,0,0,0,0,0,0,0,0,0,0,0,0,0,0,0,0,0,0,0,0,0,0,0,0,0,0,0,0,0,0,0,0,0,0,0,0,0,0,0,0,0,0,0,0,0,0,0,0,0,0,0,0,0,0,0,0,0,0,0,0,0,0,0,0,0,0,0,0,0,0,0,0,
0,0,0,0,0,0,0,0,0,0,0,0,0,0,0,0,0,0,0,0,0,0,0,0,0,0,0,0,0,0,0,0,0,0,0,0,0,0,0,0,0,0,0,0,0,0,0,0,0,0,0,0,0,0,0,0,0,0,0,0,0,0,0,0,0,0,0,0,0,0,0,0,0,0,0,0,0,0,0,0,
0,0,0,0,0,0,0,0,0,0,0,0,0,0,0,0,0,0,0,0,0,0,0,0,0,0,0,0,0,0,0,0,0,0,4785,4786,0,0,0,0,0,0,0,0,0,0,0,0,0,0,0,0,0,0,0,0,0,0,0,0,0,0,0,0,0,0,0,0,0,0,0,0,0,0,0,0,0,0,0,0,
0,0,0,0,0,0,0,0,0,0,0,0,0,0,0,0,0,0,0,0,0,0,0,0,0,0,0,0,0,0,0,0,4808,4809,4810,4811,4812,4813,0,0,0,0,0,0,0,0,0,0,0,0,0,0,0,0,0,0,0,0,0,0,0,0,0,0,0,0,0,0,0,0,0,0,0,0,0,0,0,0,0,0,
0,0,0,0,0,0,0,0,0,0,0,0,0,0,0,0,0,0,0,0,0,0,0,0,0,0,0,0,0,0,4808,4809,4833,4834,4835,4836,4837,4838,4812,4813,0,0,0,0,0,0,0,0,0,0,0,0,0,0,0,0,0,0,0,0,0,0,0,0,0,0,0,0,0,0,0,0,0,0,0,0,0,0,0,0,
0,6182,6183,6184,0,0,0,0,0,0,0,0,0,0,0,0,0,0,0,0,0,0,0,0,0,0,0,0,0,4832,4833,4834,4858,4859,4860,4861,4862,4863,4837,4838,4839,0,0,0,0,0,0,0,0,0,0,0,0,0,0,0,0,0,0,0,0,0,0,0,0,0,0,0,0,0,0,0,0,0,0,0,0,0,0,0,
0,0,0,0,0,0,0,0,0,0,0,0,0,0,0,0,0,0,0,0,0,0,0,0,0,0,0,0,0,4857,4858,4859,4883,4884,4885,4886,4887,4888,4862,4863,4864,0,0,0,0,0,0,0,0,0,0,0,0,0,0,0,0,0,0,0,0,0,0,0,0,0,0,0,0,0,0,0,0,0,0,0,0,0,0,0,
6182,6183,6184,0,0,0,0,0,0,0,0,0,0,0,0,0,0,0,0,0,0,0,0,0,0,0,0,0,0,4882,4883,4884,4908,4909,0,0,4912,4913,4887,4888,4889,0,0,0,0,0,0,0,0,0,0,0,0,0,0,0,0,0,0,0,0,0,0,0,0,0,0,0,0,0,0,0,0,0,0,0,0,0,0,0,
0,0,0,0,0,0,0,0,0,0,0,0,0,0,0,0,0,0,0,0,0,0,0,0,0,0,0,0,0,4907,4908,0,0,0,0,0,0,0,4912,4913,4914,0,0,0,0,0,0,0,0,0,0,0,0,0,0,0,0,0,0,0,0,0,0,0,0,0,0,0,0,0,0,0,0,0,0,0,0,0,0,0,
6183,6184,0,0,0,0,0,0,0,0,0,0,0,0,0,0,0,0,0,0,0,0,0,0,0,0,0,0,0,0,0,0,0,0,0,0,0,0,0,0,0,0,0,0,0,0,0,0,0,0,0,0,0,0,0,0,0,0,0,0,0,0,0,0,0,0,0,0,0,0,0,0,0,0,0,0,0,0,0,0,
0,0,0,0,0,0,0,0,0,0,0,0,0,0,0,0,0,0,0,0,0,0,0,0,0,0,0,0,0,0,0,0,0,0,0,0,0,0,0,0,0,0,0,0,0,0,0,0,0,0,0,0,0,0,0,0,0,0,0,0,0,0,0,0,0,0,0,0,0,0,0,0,0,0,0,0,0,0,0,0,
0,6182,6183,6184,0,0,0,0,0,0,0,0,0,0,0,0,0,0,0,0,0,0,0,0,0,0,0,0,0,0,0,0,0,0,0,0,0,0,0,0,0,0,0,0,0,0,0,0,0,0,0,0,0,0,0,0,0,0,0,0,0,0,0,0,0,0,0,0,0,0,0,0,0,0,0,0,0,0,0,0,
0,0,0,0,0,0,0,0,0,0,0,0,0,0,0,0,0,0,0,0,0,0,0,0,0,0,0,0,0,0,0,0,0,0,0,0,0,0,0,0,0,0,0,0,0,0,0,0,0,0,0,0,0,0,0,0,0,0,0,0,0,0,0,0,0,0,0,0,0,0,0,0,0,0,0,0,0,0,0,0,
0,6182,6183,6184,0,0,0,0,0,0,0,0,0,0,0,0,0,0,0,0,0,0,0,0,0,0,0,0,0,0,0,0,0,0,0,0,0,0,0,0,0,0,0,0,0,0,0,0,0,0,0,0,0,0,0,0,0,0,0,0,0,0,0,0,0,0,0,0,0,0,0,0,0,0,0,0,0,0,0,0,
0,0,0,0,0,0,0,0,0,0,0,0,0,0,0,0,0,0,0,0,0,0,0,0,0,0,0,0,0,0,0,0,0,0,0,0,0,0,0,0,0,0,0,0,0,0,0,0,0,0,0,0,0,0,0,0,0,0,0,0,0,0,0,0,0,0,0,0,0,0,0,0,0,0,0,0,0,0,0,0,
0,0,0,6182,6183,6184,0,0,0,0,0,0,0,0,0,0,0,0,0,0,0,0,0,0,0,0,0,0,0,0,0,0,0,0,0,0,0,0,0,0,0,0,0,0,0,0,0,0,0,0,0,0,0,0,0,0,0,0,0,0,0,0,0,0,0,0,0,0,0,0,0,0,0,0,0,0,0,0,0,0,
0,0,0,0,0,0,0,0,0,0,0,0,0,0,0,0,0,0,0,0,0,0,0,0,0,0,0,0,0,0,0,0,0,0,0,0,0,0,0,0,0,0,0,0,0,0,0,0,0,0,0,0,0,0,0,0,0,0,0,0,0,0,0,0,0,0,0,0,0,0,0,0,0,0,0,0,0,0,0,0,
6182,6183,6184,0,0,0,0,0,0,0,0,0,0,0,0,0,0,0,0,0,0,0,0,0,0,0,0,0,0,0,0,0,0,0,0,0,0,0,0,0,0,0,0,0,0,0,0,0,0,0,0,0,0,0,0,0,0,0,0,0,0,0,0,0,0,0,0,0,0,0,0,0,0,0,0,0,0,0,0,0,
0,0,0,0,0,0,0,0,0,0,0,0,0,0,0,0,0,0,0,0,0,0,0,0,0,0,0,0,0,0,0,0,0,0,0,0,0,0,0,0,0,0,0,0,0,0,0,0,0,0,0,0,0,0,0,0,0,0,0,0,0,0,0,0,0,0,0,0,0,0,0,0,0,0,0,0,0,0,0,0,
6183,6184,0,0,0,0,0,0,0,0,0,0,0,0,0,0,0,0,0,0,0,0,0,0,0,0,0,0,0,0,0,0,0,0,0,0,0,0,0,0,0,0,0,0,0,0,0,0,0,0,0,0,0,0,0,0,0,0,0,0,0,0,0,0,0,0,0,0,0,0,0,0,0,0,0,0,0,0,0,0,
0,0,0,0,0,0,0,0,0,0,0,0,0,0,0,0,0,0,0,0,0,0,0,0,0,0,0,0,0,0,0,0,0,0,0,0,0,0,0,0,0,0,0,0,0,0,0,0,0,0,0,0,0,0,0,0,0,0,0,0,0,0,0,0,0,0,0,0,0,0,0,0,0,0,0,0,0,0,0,0,
0,6182,6183,6184,0,0,0,0,0,0,0,0,0,0,0,0,0,0,0,0,0,0,0,0,0,0,0,0,0,0,0,0,0,0,0,0,0,0,0,0,0,0,0,0,0,0,0,0,0,0,0,0,0,0,0,0,0,0,0,0,0,0,0,0,0,0,0,0,0,0,0,0,0,0,0,0,0,0,0,0,
0,0,0,0,0,0,0,0,0,0,0,0,0,0,0,0,0,0,0,0,0,0,0,0,0,0,0,0,0,0,0,0,0,0,0,0,0,0,0,0,0,0,0,0,0,0,0,0,0,0,0,0,0,0,0,0,0,0,0,0,0,0,0,0,0,0,0,0,0,0,0,0,0,0,0,0,0,0,0,0,
0,0,6182,6183,6184,0,0,0,0,0,0,0,0,0,0,0,0,0,0,0,0,0,0,0,0,0,0,0,0,0,0,0,0,0,0,0,0,0,0,0,0,0,0,0,0,0,0,0,0,0,0,0,0,0,0,0,0,0,0,0,0,0,0,0,0,0,0,0,0,0,0,0,0,0,0,0,0,0,0,0,
0,0,0,0,0,0,0,0,0,0,0,0,0,0,0,0,0,0,0,0,0,0,0,0,0,0,0,0,0,0,0,0,0,0,0,0,0,0,0,0,0,0,0,0,0,0,0,0,0,0,0,0,0,0,0,0,0,0,0,0,0,0,0,0,0,0,0,0,0,0,0,0,0,0,0,0,0,0,0,0,
6183,6184,0,0,0,0,0,0,0,0,0,0,0,0,0,0,0,0,0,0,0,0,0,0,0,0,0,0,0,0,0,0,0,0,0,0,0,0,0,0,0,0,0,0,0,0,0,0,0,0,0,0,0,0,0,0,0,0,0,0,0,0,0,0,0,0,0,0,0,0,0,0,0,0,0,0,0,0,0,0,
0,0,0,0,0,0,0,0,0,0,0,0,0,0,0,0,0,0,0,0,0,0,0,0,0,0,0,0,0,0,0,0,0,0,0,0,0,0,0,0,0,0,0,0,0,0,0,0,0,0,0,0,0,0,0,0,0,0,0,0,0,0,0,0,0,0,0,0,0,0,0,0,0,0,0,0,0,0,0,0,
0,6182,6183,6184,0,0,0,0,0,0,0,0,0,0,0,0,0,0,0,0,0,0,0,0,0,0,0,0,0,0,0,0,0,0,0,0,0,0,0,0,0,0,0,0,0,0,0,0,0,0,0,0,0,0,0,0,0,0,0,0,0,0,0,0,0,0,0,0,0,0,0,0,0,0,0,6182,6183,6184,0,0,
0,0,0,0,0,0,0,0,0,0,0,0,0,0,0,0,0,0,0,0,0,0,0,0,0,0,0,0,0,0,0,0,0,0,0,0,0,0,0,0,0,0,0,0,0,0,0,0,0,0,0,0,0,0,0,0,0,0,0,0,0,0,0,0,0,0,0,0,0,0,0,0,0,0,0,0,0,0,0,0,
6183,6184,0,0,0,0,0,0,0,0,0,0,0,0,0,0,0,0,0,0,0,0,0,0,0,0,0,0,0,0,0,0,0,0,0,0,0,0,0,0,0,0,0,0,0,0,0,0,0,0,0,0,0,0,0,0,0,0,0,0,0,0,0,0,0,0,0,0,0,0,0,0,0,0,0,0,0,0,0,0,
0,0,0,0,0,0,0,0,0,0,0,0,0,0,0,0,0,0,0,0,0,0,0,0,0,0,0,0,0,0,0,0,0,0,0,0,0,0,0,0,0,0,0,0,0,0,0,0,0,0,0,0,0,0,0,0,0,0,0,0,0,0,0,0,0,0,0,0,0,0,0,0,0,0,0,0,0,0,0,0,
0,0,6182,6183,6184,0,0,0,0,0,0,0,0,0,0,0,0,0,0,0,0,0,0,0,0,0,0,0,0,0,0,0,0,0,0,0,0,0,0,0,0,0,0,0,0,0,0,0,0,0,0,0,0,0,0,0,0,0,0,0,0,0,0,0,0,0,0,0,0,0,0,0,0,0,0,0,0,0,0,0,
0,0,0,0,0,0,0,0,0,0,0,0,0,0,0,0,0,0,0,0,0,0,0,0,0,0,0,0,0,0,0,0,0,0,0,0,0,0,0,0,0,0,0,0,0,0,0,0,0,0,0,0,0,0,0,0,0,0,0,0,0,0,0,0,0,0,0,0,0,0,0,0,0,0,0,0,0,0,0,0,
6182,6183,6184,0,0,0,0,0,0,0,0,0,0,0,0,0,0,0,0,0,0,0,0,0,0,0,0,0,0,0,0,0,0,0,0,0,0,0,0,0,0,0,0,0,0,0,0,0,0,0,0,0,0,0,0,0,0,0,0,0,0,0,0,0,0,0,0,0,0,0,0,0,0,0,0,0,0,0,0,0,
0,0,0,0,0,0,0,0,0,0,0,0,0,0,0,0,0,0,0,0,0,0,0,0,0,0,0,0,0,0,0,0,0,0,0,0,0,0,0,0,0,0,0,0,0,0,0,0,0,0,0,0,0,0,0,0,0,0,0,0,0,0,0,0,0,0,0,0,0,0,0,0,0,0,0,0,0,0,0,0,
0,6182,6183,6184,0,0,0,0,0,0,0,0,0,0,0,0,0,0,0,0,0,0,0,0,0,0,0,0,0,0,0,0,0,0,0,0,0,0,0,0,0,0,0,0,0,0,0,0,0,0,0,0,0,0,0,0,0,0,0,0,0,0,0,0,0,0,0,0,0,0,0,0,0,0,0,6182,6183,6184,0,0,
0,0,0,0,0,0,0,0,0,0,0,0,0,0,0,0,0,0,0,0,0,0,0,0,0,0,0,0,0,0,0,0,0,0,0,0,0,0,0,0,0,0,0,0,0,0,0,0,0,0,0,0,0,0,0,0,0,0,0,0,0,0,0,0,0,0,0,0,0,0,0,0,0,0,0,0,0,0,0,0,
6182,6183,6184,0,0,0,0,0,0,0,0,0,0,0,0,0,0,0,0,0,0,0,0,0,0,0,0,0,0,0,0,0,0,0,0,0,0,0,0,0,0,0,0,0,0,0,0,0,0,0,0,0,0,0,0,0,0,0,0,0,0,0,0,0,0,0,0,0,0,0,0,0,0,0,0,0,0,0,6182,6183,
0,0,0,0,0,0,0,0,0,0,0,0,0,0,0,0,0,0,0,0,0,0,0,0,0,0,0,0,0,0,0,0,0,0,0,0,0,0,0,0,0,0,0,0,0,0,0,0,0,0,0,0,0,0,0,0,0,0,0,0,0,0,0,0,0,0,0,0,0,0,0,0,0,0,0,0,0,0,0,0,
0,0,0,0,0,0,0,0,0,0,0,0,0,0,0,0,0,0,0,0,0,0,0,0,0,0,0,0,0,0,0,0,0,0,0,0,0,0,0,0,0,0,0,0,0,0,0,0,0,0,0,0,0,0,0,0,0,0,0,0,0,0,0,0,0,0,0,0,0,0,0,0,0,0,0,0,6182,6183,6184,0,
0,0,0,0,0,0,0,0,0,0,0,0,0,0,0,0,0,0,0,0,0,0,0,0,0,0,0,0,0,0,0,0,0,0,0,0,0,0,0,0,0,0,0,0,0,0,0,0,0,0,0,0,0,0,0,0,0,0,0,0,0,0,0,0,0,0,0,0,0,0,0,0,0,0,0,0,0,0,0,0,
6182,6183,6184,0,0,0,0,0,0,0,0,0,0,0,0,0,0,0,0,0,0,0,0,0,0,0,0,0,0,0,0,0,0,0,0,0,0,0,0,0,0,0,0,0,0,0,0,0,0,0,0,0,0,0,0,0,0,0,0,0,0,0,0,0,0,0,0,0,0,0,0,0,0,0,0,0,0,6182,6183,6184,
0,0,0,0,0,0,0,0,0,0,0,0,0,0,0,0,0,0,0,0,0,0,0,0,0,0,0,0,0,0,0,0,0,0,0,0,0,0,0,0,0,0,0,0,0,0,0,0,0,0,0,0,0,0,0,0,0,0,0,0,0,0,0,0,0,0,0,0,0,0,0,0,0,0,0,0,0,0,0,0,
0,6182,6183,6184,0,0,0,0,0,0,0,0,0,0,0,0,0,0,0,0,0,0,0,0,0,0,0,0,0,0,0,0,0,0,0,0,0,0,0,0,0,0,0,0,0,0,0,0,0,0,0,0,0,0,0,0,0,0,0,0,0,0,0,0,0,0,0,0,0,0,0,0,0,0,6082,6083,6084,0,0,0,
0,0,0,0,0,0,0,0,0,0,0,0,0,0,0,0,0,0,0,0,0,0,0,0,0,0,0,0,0,0,0,0,0,0,0,0,0,0,0,0,0,0,0,0,0,0,0,0,0,0,0,0,0,0,0,0,0,0,0,0,0,0,0,0,0,0,0,0,0,0,0,0,0,0,0,0,0,0,0,0,
6182,6183,6184,0,0,0,0,0,0,0,0,0,0,0,0,0,0,0,0,0,0,0,0,0,0,0,0,0,0,0,0,0,0,0,0,0,0,0,0,0,0,0,0,0,0,0,0,0,0,0,0,0,0,0,0,0,0,0,0,0,0,0,0,0,0,0,0,0,0,0,0,0,0,0,0,0,0,0,0,0,
0,0,0,0,0,0,0,0,0,0,0,0,0,0,0,0,0,0,0,0,0,0,0,0,0,0,0,0,0,0,0,0,0,0,0,0,0,0,0,0,0,0,0,0,0,0,0,0,0,0,0,0,0,0,0,0,0,0,0,0,0,0,0,0,0,0,0,0,0,0,0,0,0,0,0,0,0,0,0,0,
0,6182,6183,6184,0,0,0,0,0,0,0,0,0,0,0,0,0,0,0,0,0,0,0,0,0,0,0,0,0,0,0,0,0,0,0,0,0,0,0,0,0,0,0,0,0,0,0,0,0,0,0,0,0,0,0,0,0,0,0,0,0,0,0,0,0,0,0,0,0,0,0,0,0,0,0,0,0,0,0,0,
0,0,0,0,0,0,0,0,0,0,0,0,0,0,0,0,0,0,0,0,0,0,0,0,0,0,0,0,0,0,0,0,0,0,0,0,0,0,0,0,0,0,0,0,0,0,0,0,0,0,0,0,0,0,0,0,0,0,0,0,0,0,0,0,0,0,0,0,0,0,0,0,0,0,0,6182,6183,6184,0,0,
6182,6183,6184,0,0,0,0,0,0,0,0,0,0,0,0,0,0,0,0,0,0,0,0,0,0,0,0,0,0,0,0,0,0,0,0,0,0,0,0,0,0,0,0,0,0,0,0,0,0,0,0,0,0,0,0,0,0,0,0,0,0,0,0,0,0,0,0,0,0,0,0,0,0,0,0,0,0,0,6182,6183,
0,0,0,0,0,0,0,0,0,0,0,0,0,0,0,0,0,0,0,0,0,0,0,0,0,0,0,0,0,0,0,0,0,0,0,0,0,0,0,0,0,0,0,0,0,0,0,0,0,0,0,0,0,0,0,0,0,0,0,0,0,0,0,0,0,0,0,0,0,0,0,0,0,0,0,0,0,0,0,0,
6182,6183,6184,0,0,0,0,0,0,0,0,0,0,0,0,0,0,0,0,0,0,0,0,0,0,0,0,0,0,0,0,0,0,0,0,0,0,0,0,0,0,0,0,0,0,0,0,0,0,0,0,0,0,0,0,0,0,0,0,0,0,0,0,0,0,0,0,0,0,0,0,0,0,0,0,0,0,0,0,0,
0,0,0,0,0,0,0,0,0,0,0,0,0,0,0,0,0,0,0,0,0,0,0,0,0,0,0,0,0,0,0,0,0,0,0,0,0,0,0,0,0,0,0,0,0,0,0,0,0,0,0,0,0,0,0,0,0,0,0,0,0,0,0,0,0,0,0,0,0,0,0,0,0,0,0,0,0,0,0,0,
6183,6184,6182,6183,6184,0,0,0,0,0,0,0,0,0,0,0,0,0,0,0,0,0,0,0,0,0,0,0,0,0,0,0,0,0,0,0,0,0,0,0,0,0,0,0,0,0,0,0,0,0,0,0,0,0,0,0,0,0,0,0,0,0,0,0,0,0,0,0,0,0,0,0,0,0,0,0,0,0,0,0,
0,0,0,0,0,0,0,0,0,0,0,0,0,0,0,0,0,0,0,0,0,0,0,0,0,0,0,0,0,0,0,0,0,0,0,0,0,0,0,0,0,0,0,0,0,0,0,0,0,0,0,0,0,0,0,0,0,0,0,0,0,0,0,0,0,0,0,0,0,0,0,0,0,0,0,0,0,0,0,0,
6182,6183,6184,0,0,0,0,0,0,0,0,0,0,0,0,0,0,0,0,0,0,0,0,0,0,0,0,0,0,0,0,0,0,0,0,0,0,0,0,0,0,0,0,0,0,0,0,0,0,0,0,0,0,0,0,0,0,0,0,0,0,0,0,0,0,0,0,0,0,0,0,0,0,0,0,6182,6183,6184,0,0,
0,0,0,0,0,0,0,0,0,0,0,0,0,0,0,0,0,0,0,0,0,0,0,0,0,0,0,0,0,0,0,0,0,0,0,0,0,0,0,0,0,0,0,0,0,0,0,0,0,0,0,0,0,0,0,0,0,0,0,0,0,0,0,0,0,0,0,0,0,0,0,0,0,0,0,0,0,0,0,0,
0,6182,6183,6184,0,0,0,0,0,0,0,0,0,0,0,0,0,0,0,0,0,0,0,0,0,0,0,0,0,0,0,0,0,0,0,0,0,0,0,0,0,0,0,0,0,0,0,0,0,0,0,0,0,0,0,0,0,0,0,0,0,0,0,0,0,0,0,0,0,0,0,0,0,0,0,0,0,6182,6183,6184,
0,0,0,0,0,0,0,0,0,0,0,0,0,0,0,0,0,0,0,0,0,0,0,0,0,0,0,0,0,0,0,0,0,0,0,0,0,0,0,0,0,0,0,0,0,0,0,0,0,0,0,0,0,0,0,0,0,0,0,0,0,0,0,0,0,0,0,0,0,0,0,0,0,0,0,0,0,0,0,0,
6182,6183,6184,0,0,0,0,0,0,0,0,0,0,0,0,0,0,0,0,0,0,0,0,0,0,0,0,0,0,0,0,0,0,0,0,0,0,0,0,0,0,0,0,0,0,0,0,0,0,0,0,0,0,0,0,0,0,0,0,0,0,0,0,0,0,0,0,0,0,0,0,0,0,0,6082,6083,6084,0,0,0,
0,0,0,0,0,0,0,0,0,0,0,0,0,0,0,0,0,0,0,0,0,0,0,0,0,0,0,0,0,0,0,0,0,0,0,0,0,0,0,0,0,0,0,0,0,0,0,0,0,0,0,0,0,0,0,0,0,0,0,0,0,0,0,0,0,0,0,0,0,0,0,0,0,0,0,0,0,0,0,0,
0,6182,6183,6184,0,0,0,0,0,0,0,0,0,0,0,0,0,0,0,0,0,0,0,0,0,0,0,0,0,0,0,0,0,0,0,0,0,0,0,0,0,0,0,0,0,0,0,0,0,0,0,0,0,0,0,0,0,0,0,0,0,0,0,0,0,0,0,0,0,0,0,0,0,0,0,0,0,0,0,0,
0,0,0,0,0,0,0,0,0,0,0,0,0,0,0,0,0,0,0,0,0,0,0,0,0,0,0,0,0,0,0,0,0,0,0,0,0,0,0,0,0,0,0,0,0,0,0,0,0,0,0,0,0,0,0,0,0,0,0,0,0,0,0,0,0,0,0,0,0,0,0,0,0,0,0,0,0,0,0,0,
6182,6183,6184,0,0,0,0,0,0,0,0,0,0,0,0,0,0,0,0,0,0,0,0,0,0,0,0,0,0,0,0,0,0,0,0,0,0,0,0,0,0,0,0,0,0,0,0,0,0,0,0,0,0,0,0,0,0,0,0,0,0,0,0,0,0,0,0,0,0,0,0,0,0,0,0,0,0,0,0,0,
0,0,0,0,0,0,0,0,0,0,0,0,0,0,0,0,0,0,0,0,0,0,0,0,0,0,0,0,0,0,0,0,0,0,0,0,0,0,0,0,0,0,0,0,0,0,0,0,0,0,0,0,0,0,0,0,0,0,0,0,0,0,0,0,0,0,0,0,0,0,0,0,0,0,0,0,0,0,0,0,
6182,6183,6184,0,0,0,0,0,0,0,0,0,0,0,0,0,0,0,0,0,0,0,0,0,0,0,0,0,0,0,0,0,0,0,0,0,0,0,0,0,0,0,0,0,0,0,0,0,0,0,0,0,0,0,0,0,0,0,0,0,0,0,0,0,0,0,0,0,0,0,0,0,0,0,0,0,0,0,0,0,
0,0,0,0,0,0,0,0,0,0,0,0,0,0,0,0,0,0,0,0,0,0,0,0,0,0,0,0,0,0,0,0,0,0,0,0,0,0,0,0,0,0,0,0,0,0,0,0,0,0,0,0,0,0,0,0,0,0,0,0,0,0,0,0,0,0,0,0,0,0,0,0,0,0,0,0,6182,6183,6184,0,
0,6182,6183,6184,0,0,0,0,0,0,0,0,0,0,0,0,0,0,0,0,0,0,0,0,0,0,0,0,0,0,0,0,0,0,0,0,0,0,0,0,0,0,0,0,0,0,0,0,0,0,0,0,0,0,0,0,0,0,0,0,0,0,0,0,0,0,0,0,0,0,0,0,0,0,0,0,0,0,0,0,
0,0,0,0,0,0,0,0,0,0,0,0,0,0,0,0,0,0,0,0,0,0,0,0,0,0,0,0,0,0,0,0,0,0,0,0,0,0,0,0,0,0,0,0,0,0,0,0,0,0,0,0,0,0,0,0,0,0,0,0,0,0,0,0,0,0,0,0,0,0,0,0,0,0,6182,6183,6184,0,0,0,
6182,6183,6184,0,0,0,0,0,0,0,0,0,0,0,0,0,0,0,0,0,0,0,0,0,0,0,0,0,0,0,0,0,0,0,0,0,0,0,0,0,0,0,0,0,0,0,0,0,0,0,0,0,0,0,0,0,0,0,0,0,0,0,0,0,0,0,0,0,0,0,0,0,0,0,0,0,0,0,0,0,
0,0,0,0,0,0,6182,6183,6184,0,0,0,0,0,0,0,0,0,0,0,0,0,0,0,6182,6183,6184,0,0,0,0,0,0,0,0,0,0,0,0,0,0,0,0,0,0,0,0,0,0,0,0,0,0,0,0,0,0,0,0,0,0,0,0,0,0,0,0,0,0,0,0,0,0,0,0,0,0,6182,6183,6184,
6182,6183,6184,0,0,0,0,0,0,0,0,0,0,0,0,0,0,0,0,0,0,0,0,0,0,0,0,0,0,0,6182,6183,6184,0,0,0,6182,6183,6184,6182,6183,6184,0,0,0,0,0,0,0,0,0,0,0,0,0,0,0,0,0,0,0,0,0,0,0,0,0,0,0,0,0,0,0,0,0,0,0,0,0,0,
0,0,0,6182,6183,6184,0,0,0,6182,6183,6184,0,0,0,6182,6183,6184,0,0,0,6082,6083,6084,0,0,0,6182,6183,6184,0,0,0,0,0,0,0,0,0,0,0,0,6182,6183,6184,0,0,0,0,0,0,0,0,0,0,0,0,6182,6183,6184,0,0,0,0,0,0,0,6182,6183,6184,6182,6183,6184,0,0,0,0,0,0,0,
0,0,0,0,0,0,0,0,0,0,0,0,6182,6183,6184,0,0,0,6182,6183,6184,6182,6183,6184,0,0,0,0,0,0,0,0,0,6182,6183,6184,0,0,0,0,0,0,0,0,0,0,0,0,0,0,0,0,0,0,0,0,0,0,0,0,0,0,0,6032,6033,0,0,0,0,0,0,0,0,6082,6083,6084,0,0,6182,6183,
0,0,0,0,0,0,0,0,0,0,0,0,0,0,0,0,0,0,0,0,0,0,0,0,0,0,0,0,0,0,0,0,0,0,0,0,0,0,0,0,0,0,0,0,0,0,0,0,0,0,0,0,0,0,0,0,0,0,0,0,6082,6083,6084,0,0,6032,6033,0,0,0,0,0,0,0,0,0,6032,6033,0,0,
0,0,0,0,0,0,0,0,0,0,0,0,0,0,0,0,0,0,0,0,0,0,0,0,0,0,0,0,0,0,0,0,0,0,0,0,0,0,0,0,0,0,0,0,0,0,0,0,0,0,0,0,0,0,0,0,0,0,0,0,0,0,0,0,0,0,0,0,0,0,0,0,0,0,0,0,0,0,0,0
</data>
 </layer>
 <layer id="15" name="05b_shadows" width="80" height="100">
  <data encoding="csv">
0,0,0,0,0,0,0,0,0,0,0,0,0,0,0,0,0,0,0,0,0,0,0,0,0,0,0,0,0,0,0,0,0,0,0,0,0,0,0,0,0,0,0,0,0,0,0,0,0,0,0,0,0,0,0,0,0,0,0,0,0,0,0,0,0,0,0,0,0,0,0,0,0,0,0,0,0,0,0,0,
0,0,0,0,0,0,0,0,0,0,0,0,0,0,0,0,0,0,0,0,0,0,0,0,0,0,0,0,0,0,0,0,0,0,0,0,0,0,0,0,0,0,0,0,0,0,0,0,0,0,0,0,0,0,0,0,0,0,0,0,0,0,0,0,0,0,0,0,0,0,0,0,0,0,0,0,0,0,0,0,
0,0,0,0,0,0,0,0,0,0,0,0,0,0,0,0,0,0,0,0,0,0,0,0,0,0,0,0,0,0,0,0,0,0,0,0,0,0,0,0,0,0,0,0,0,0,0,0,0,0,0,0,0,0,0,0,0,0,0,0,0,0,0,0,0,0,0,0,0,0,0,0,0,0,0,0,0,0,0,0,
0,0,0,0,0,0,0,0,0,0,0,0,0,0,0,0,0,0,0,0,0,0,0,0,0,0,0,0,0,0,0,0,0,0,0,0,0,0,0,0,0,0,0,0,0,0,0,0,0,0,0,0,0,0,0,0,0,0,0,0,0,0,0,0,0,0,0,0,0,0,0,0,0,0,0,0,0,0,0,0,
0,0,0,0,0,0,0,0,0,0,0,0,0,0,0,0,0,0,0,0,0,0,0,0,0,0,0,0,0,0,0,0,0,0,0,0,0,0,0,0,0,0,0,0,0,0,0,0,0,0,0,0,0,0,0,0,0,0,0,0,0,0,0,0,0,0,0,0,0,0,0,0,0,0,0,0,0,0,0,0,
0,0,0,0,0,0,0,0,0,0,0,0,0,0,0,0,0,0,0,0,0,0,0,0,0,0,0,0,0,0,0,0,0,0,0,0,0,0,0,0,0,0,0,0,0,0,0,0,0,0,0,0,0,0,0,0,0,0,0,0,0,0,0,0,0,0,0,0,0,0,0,0,0,0,0,0,0,0,0,0,
0,0,0,0,0,0,0,0,0,0,0,0,0,0,0,0,0,0,0,0,0,0,0,0,0,0,0,0,0,0,0,0,0,0,0,0,0,0,0,0,0,0,0,0,0,0,0,0,0,0,0,0,0,0,0,0,0,0,0,0,0,0,0,0,0,0,0,0,0,0,0,0,0,0,0,0,0,0,0,0,
0,0,0,0,0,0,0,0,0,0,0,0,0,0,0,0,0,0,0,0,0,0,0,0,0,0,0,0,0,0,0,0,0,0,0,0,0,0,0,0,0,0,0,0,0,0,0,0,0,0,0,0,0,0,0,0,0,0,0,0,0,0,0,0,0,0,0,0,0,0,0,0,0,0,0,0,0,0,0,0,
0,0,0,0,0,0,0,0,0,0,0,0,0,0,0,0,0,0,0,0,0,0,0,0,0,0,0,0,0,0,0,0,0,0,0,0,0,0,0,0,0,0,0,0,0,0,0,0,0,0,0,0,0,0,0,0,0,0,0,0,0,0,0,0,0,0,0,0,0,0,0,0,0,0,0,0,0,0,0,0,
0,0,0,0,0,0,0,0,0,0,0,0,0,0,0,0,0,0,0,0,0,0,0,0,0,0,0,0,0,0,0,0,0,0,0,0,0,0,0,0,0,0,0,0,0,0,0,0,0,0,0,0,0,0,0,0,0,0,0,0,0,0,0,0,0,0,0,0,0,0,0,0,0,0,0,0,0,0,0,0,
0,0,0,0,0,0,0,0,0,0,0,0,0,0,0,0,0,0,0,0,0,0,0,0,0,0,0,0,0,0,0,0,0,0,0,0,0,0,0,0,0,0,0,0,0,0,0,0,0,0,0,0,0,0,0,0,0,0,0,0,0,0,0,0,0,0,0,0,0,0,0,0,0,0,0,0,0,0,0,0,
0,0,0,0,0,0,0,0,0,0,0,0,0,0,0,0,0,0,0,0,0,0,0,0,0,0,0,0,0,0,0,0,0,0,0,0,0,0,0,0,0,0,0,0,0,0,0,0,0,0,0,0,0,0,0,0,0,0,0,0,0,0,0,0,0,0,0,0,0,0,0,0,0,0,0,0,0,0,0,0,
0,0,0,0,0,0,0,0,0,0,0,0,0,0,0,0,0,0,0,0,0,0,0,0,0,0,0,0,0,0,0,0,0,0,0,0,0,0,0,0,0,0,0,0,0,0,0,0,0,0,0,0,0,0,0,0,0,0,0,0,0,0,0,0,0,0,0,0,0,0,0,0,0,0,0,0,0,0,0,0,
0,0,0,0,0,0,0,0,0,0,0,0,0,0,0,0,0,0,0,0,0,0,0,0,0,0,0,0,0,0,0,0,0,0,0,0,0,0,0,0,0,0,0,0,0,0,0,0,0,0,0,0,0,0,0,0,0,0,0,0,0,0,0,0,0,0,0,0,0,0,0,0,0,0,0,0,0,0,0,0,
0,0,0,0,0,0,0,0,0,0,0,0,0,0,0,0,0,0,0,0,0,0,0,0,0,0,0,0,0,0,0,0,0,0,0,0,0,0,0,0,0,0,0,0,0,0,0,0,0,0,0,0,0,0,0,0,0,0,0,0,0,0,0,0,0,0,0,0,0,0,0,0,0,0,0,0,0,0,0,0,
0,0,0,0,0,0,0,0,0,0,0,0,0,0,0,0,0,0,0,0,0,0,0,0,0,0,0,0,0,0,0,0,0,0,0,0,0,0,0,0,0,0,0,0,0,0,0,0,0,4257,4258,0,0,0,0,0,0,0,0,0,0,0,0,0,0,0,0,0,0,0,0,0,0,0,0,0,0,0,0,0,
0,0,0,0,0,0,0,0,0,0,0,0,0,0,0,0,0,0,0,0,0,0,0,0,0,0,0,0,0,0,0,0,0,0,0,0,0,0,0,0,0,0,0,0,0,0,0,0,0,4282,4283,0,0,0,0,0,0,0,0,0,0,0,0,0,0,0,0,0,0,0,0,0,0,0,0,0,0,0,0,0,
0,0,0,0,0,0,0,0,0,0,0,0,0,0,0,0,0,0,0,0,0,0,0,0,0,0,0,0,0,0,0,0,0,0,0,0,0,0,0,0,0,0,0,0,0,0,0,0,0,4307,4308,0,0,0,0,0,0,0,0,0,0,0,0,0,0,0,0,0,0,0,0,0,0,0,0,0,0,0,0,0,
0,0,0,0,0,0,0,0,0,0,0,0,0,0,0,0,0,0,0,0,0,0,0,0,0,0,0,0,0,0,0,0,0,0,0,0,0,0,0,0,0,0,0,0,0,0,0,0,0,4332,4333,0,0,0,0,0,0,0,0,0,0,0,0,0,0,0,0,0,0,0,0,0,0,0,0,0,0,0,0,0,
0,0,0,0,0,0,0,0,0,0,0,0,0,0,0,0,0,0,0,0,0,0,0,0,0,0,0,0,0,0,0,0,0,0,0,0,0,0,0,0,0,0,0,0,5458,5459,5460,5461,0,0,0,0,0,0,0,0,0,0,0,0,0,0,0,0,0,0,0,0,0,0,0,0,0,0,0,0,0,0,0,0,
0,0,0,0,0,0,0,0,0,0,0,0,0,0,0,0,0,0,0,0,0,0,0,0,0,0,0,0,0,0,0,0,0,0,0,0,0,0,0,0,0,0,5458,5459,5483,5484,5485,5486,5460,5461,0,0,0,0,0,0,0,0,0,0,0,0,0,0,0,0,0,0,0,0,0,0,0,0,0,0,0,0,0,0,
0,0,0,0,0,0,0,0,0,0,0,0,0,0,0,0,0,0,0,0,0,0,0,0,0,0,0,0,0,0,0,0,0,0,0,0,0,0,0,0,0,5459,5483,5484,0,0,0,0,5485,5486,5460,0,0,0,0,0,0,0,0,0,0,0,0,0,0,0,0,0,0,0,0,0,0,0,0,0,0,0,0,0,
0,0,0,0,0,0,0,0,0,0,0,0,0,0,0,0,0,0,0,0,0,0,0,0,0,0,0,0,0,0,0,0,0,0,0,0,0,0,0,0,0,5484,0,0,0,0,0,0,0,0,5485,0,0,0,0,0,0,0,0,0,0,0,0,0,0,0,0,0,0,0,0,0,0,0,0,0,0,0,0,0,
0,0,0,0,0,0,0,0,0,0,0,0,0,0,0,0,0,0,0,0,0,0,0,0,0,0,0,0,0,0,0,0,0,0,0,0,0,0,0,0,0,0,0,0,0,0,0,0,0,0,0,0,0,0,0,0,0,0,0,0,0,0,0,0,0,0,0,0,0,0,0,0,0,0,0,0,0,0,0,0,
0,0,0,0,0,0,0,0,0,0,0,0,0,0,0,0,0,0,0,0,0,0,0,0,0,0,0,0,0,0,0,0,0,0,0,0,0,0,0,0,0,0,0,0,0,0,0,0,0,0,0,0,0,0,0,0,0,0,0,0,0,0,0,0,0,0,0,0,0,0,0,0,0,0,0,0,0,0,0,0,
0,0,0,0,0,0,0,0,0,0,0,0,0,0,0,0,0,0,0,0,0,0,0,0,0,0,0,0,0,0,0,0,0,0,0,0,0,0,0,0,0,0,0,0,0,0,0,0,0,0,0,0,0,0,0,0,0,0,0,0,0,0,0,0,0,0,0,0,0,0,0,0,0,0,0,0,0,0,0,0,
0,0,0,0,0,0,0,0,0,0,0,0,0,0,0,0,0,0,0,0,0,0,0,0,0,0,0,0,0,0,0,0,0,0,0,0,0,0,4257,4258,0,0,0,0,0,0,0,0,0,0,0,0,0,0,0,0,0,0,0,0,0,0,0,0,0,0,0,0,0,0,0,0,0,0,0,0,0,0,0,0,
0,0,0,0,0,0,0,0,0,0,0,0,0,0,0,0,0,0,0,0,0,0,0,0,0,0,0,0,0,0,0,0,0,0,0,0,0,0,4282,4283,0,0,0,0,0,0,0,0,0,0,0,0,0,0,0,0,0,0,0,0,0,0,0,0,0,0,0,0,0,0,0,0,0,0,0,0,0,0,0,0,
0,0,0,0,0,0,0,0,0,0,0,0,0,0,0,0,0,0,0,0,0,0,0,0,0,0,0,0,0,0,0,0,0,0,0,0,0,0,4307,4308,0,0,0,0,0,0,0,0,0,0,0,0,0,0,0,0,0,0,0,0,0,0,0,0,0,0,0,0,0,0,0,0,0,0,0,0,0,0,0,0,
0,0,0,0,0,0,0,0,0,0,0,0,0,0,0,0,0,0,0,0,0,0,0,0,0,0,0,0,0,0,0,0,0,0,0,0,0,0,4332,4333,0,0,0,0,0,0,0,0,0,0,0,0,0,0,0,0,0,0,0,0,0,0,0,0,0,0,0,0,0,0,0,0,0,0,0,0,0,0,0,0,
0,0,0,0,0,0,0,0,0,0,0,0,0,0,0,0,0,0,0,0,0,0,0,0,0,0,0,0,0,0,0,0,0,5458,5459,5460,5461,0,0,0,0,0,0,0,0,0,0,0,0,0,0,0,0,0,0,0,0,0,0,0,0,0,0,0,0,0,0,0,0,0,0,0,0,0,0,0,0,0,0,0,
0,0,0,0,0,0,0,0,0,0,0,0,0,0,0,0,0,0,0,0,0,0,0,0,0,0,0,0,0,0,0,5458,5459,5483,5484,5485,5486,5460,5461,0,0,0,0,0,0,0,0,0,0,0,0,0,0,0,0,0,0,0,0,0,0,0,0,0,0,0,0,0,0,0,0,0,0,0,0,0,0,0,0,0,
0,0,0,0,0,0,0,0,0,0,0,0,0,0,0,0,0,0,0,0,0,0,0,0,0,0,0,0,0,0,5459,5483,5484,0,0,0,0,5485,5486,5460,0,0,0,0,0,0,0,0,0,0,0,0,0,0,0,0,0,0,0,0,0,0,0,0,0,0,0,0,0,0,0,0,0,0,0,0,0,0,0,0,
0,0,0,0,0,0,0,0,0,0,0,0,0,0,0,0,0,0,0,0,0,0,0,0,0,0,0,0,0,0,5484,0,0,0,0,0,0,0,0,5485,0,0,0,0,0,0,0,0,0,0,0,0,0,0,0,0,0,0,0,0,0,0,0,0,0,0,0,0,0,0,0,0,0,0,0,0,0,0,0,0,
0,0,0,0,0,0,0,0,0,0,0,0,0,0,0,0,0,0,0,0,0,0,0,0,0,0,0,0,0,0,0,0,0,0,0,0,0,0,0,0,0,0,0,0,0,0,0,0,0,0,0,0,0,0,0,0,0,0,0,0,0,0,0,0,0,0,0,0,0,0,0,0,0,0,0,0,0,0,0,0,
0,0,0,0,0,0,0,0,0,0,0,0,0,0,0,0,0,0,0,0,0,0,0,0,0,0,0,0,0,0,0,0,0,0,0,0,0,0,0,0,0,0,0,0,0,0,0,0,0,0,0,0,0,0,0,0,0,0,0,0,0,0,0,0,0,0,0,0,0,0,0,0,0,0,0,0,0,0,0,0,
0,0,0,0,0,0,0,0,0,0,0,0,0,0,0,0,0,0,0,0,0,0,0,0,0,0,0,0,0,0,0,0,0,0,0,0,0,0,0,0,0,0,0,0,0,0,0,0,0,0,0,0,0,0,0,0,0,0,0,0,0,0,0,0,0,0,0,0,0,0,0,0,0,0,0,0,0,0,0,0,
0,0,0,0,0,0,0,0,0,0,0,0,0,0,0,0,0,0,0,0,0,0,0,0,0,0,0,0,0,0,0,0,0,0,0,0,0,0,0,0,0,0,0,0,0,0,0,0,0,0,0,0,0,0,0,0,0,0,0,0,0,0,0,0,0,0,0,0,0,0,0,0,0,0,0,0,0,0,0,0,
0,0,0,0,0,0,0,0,0,0,0,0,0,0,0,0,0,0,0,0,0,0,0,0,0,0,0,0,0,0,0,0,0,0,0,0,0,0,0,0,0,0,0,0,0,0,0,0,0,0,0,0,0,0,0,0,0,0,0,0,0,0,0,0,0,0,0,0,0,0,0,0,0,0,0,0,0,0,0,0,
0,0,0,0,0,0,0,0,0,0,0,0,0,0,0,0,0,0,0,0,0,0,0,0,0,0,0,0,0,0,0,0,0,0,0,0,0,0,0,0,0,0,0,0,0,0,0,0,0,0,0,0,0,0,0,0,0,0,0,0,0,0,0,0,0,0,0,0,0,0,0,0,0,0,0,0,0,0,0,0,
0,0,0,0,0,0,0,0,0,0,0,0,0,0,0,0,0,0,0,0,0,0,0,0,0,0,0,0,0,0,0,0,0,0,0,0,0,0,0,0,0,0,0,0,0,0,0,0,0,0,0,0,0,0,0,0,0,0,0,0,0,0,0,0,0,0,0,0,0,0,0,0,0,0,0,0,0,0,0,0,
0,0,0,0,0,0,0,0,0,0,0,0,0,0,0,0,0,0,0,0,0,0,0,0,0,0,0,0,0,0,0,0,0,0,0,0,0,0,0,0,0,0,0,0,0,0,0,0,0,0,0,0,0,0,0,0,0,0,0,0,0,0,0,0,0,0,0,0,0,0,0,0,0,0,0,0,0,0,0,0,
0,0,0,0,0,0,0,0,0,0,0,0,0,0,0,0,0,0,0,0,0,0,0,0,0,0,0,0,0,0,0,0,0,0,0,0,0,0,0,0,0,0,0,0,0,0,0,0,0,0,0,0,0,0,0,0,0,0,0,0,0,0,0,0,0,0,0,0,0,0,0,0,0,0,0,0,0,0,0,0,
0,0,0,0,0,0,0,0,0,0,0,0,0,0,0,0,0,0,0,0,0,0,0,0,0,0,0,0,0,0,0,0,0,0,0,0,0,0,0,0,0,0,0,0,0,0,0,0,0,0,0,0,0,0,0,0,0,0,0,0,0,0,0,0,0,0,0,0,0,0,0,0,0,0,0,0,0,0,0,0,
0,0,0,0,0,0,0,0,0,0,0,0,0,0,0,0,0,0,0,0,0,0,0,0,0,0,0,0,0,0,0,0,0,0,0,0,0,0,0,0,0,0,0,0,0,0,0,0,0,0,0,0,0,0,0,0,0,0,0,0,0,0,0,0,0,0,0,0,0,0,0,0,0,0,0,0,0,0,0,0,
0,0,0,0,0,0,0,0,0,0,0,0,0,0,0,0,0,0,0,0,0,0,0,0,0,0,0,0,0,0,0,0,0,0,0,0,0,0,0,0,0,0,0,0,0,0,0,0,0,0,0,0,0,0,0,0,0,0,0,0,0,0,0,0,0,0,0,0,0,0,0,0,0,0,0,0,0,0,0,0,
0,0,0,0,0,0,0,0,0,0,0,0,0,0,0,0,0,0,0,0,0,0,0,0,0,0,0,0,0,0,0,0,0,0,0,0,0,0,0,0,0,0,0,0,0,0,0,0,0,0,0,0,0,0,0,0,0,0,0,0,0,0,0,0,0,0,0,0,0,0,0,0,0,0,0,0,0,0,0,0,
0,0,0,0,0,0,0,0,0,0,0,0,0,0,0,0,0,0,0,0,0,0,0,0,0,0,0,0,0,0,0,0,0,0,0,0,0,0,0,0,0,0,0,0,0,0,0,0,0,0,0,0,0,0,0,0,0,0,0,0,0,0,0,0,0,0,0,0,0,0,0,0,0,0,0,0,0,0,0,0,
0,0,0,0,0,0,0,0,0,0,0,0,0,0,0,0,0,0,0,0,0,0,0,0,0,0,0,0,0,0,0,0,0,0,0,0,0,0,0,0,0,0,0,0,0,0,0,0,0,0,0,0,0,0,0,0,0,0,0,0,0,0,0,0,0,0,0,0,0,0,0,0,0,0,0,0,0,0,0,0,
0,0,0,0,0,0,0,0,0,0,0,0,0,0,0,0,0,0,0,0,0,0,0,0,0,0,0,0,0,0,0,0,0,0,0,0,0,0,0,0,0,0,0,0,0,0,0,0,0,0,0,0,0,0,0,0,0,0,0,0,0,0,0,0,0,0,0,0,0,0,0,0,0,0,0,0,0,0,0,0,
0,0,0,0,0,0,0,0,0,0,0,0,0,0,0,0,0,0,0,0,0,0,0,0,0,0,0,0,0,0,0,0,0,0,0,0,0,0,0,0,0,0,0,0,0,0,0,0,0,0,0,0,0,0,0,0,0,0,0,0,0,0,0,0,0,0,0,0,0,0,0,0,0,0,0,0,0,0,0,0,
0,0,0,0,0,0,0,0,0,0,0,0,0,0,0,0,0,0,0,0,0,0,0,0,0,0,0,0,0,0,0,0,0,0,0,0,0,0,0,0,0,0,0,0,0,0,0,0,0,0,0,0,0,0,0,0,0,0,0,0,0,0,0,0,0,0,0,0,0,0,0,0,0,0,0,0,0,0,0,0,
0,0,0,0,0,0,0,0,0,0,0,0,0,0,0,0,0,0,0,0,0,0,0,0,0,0,0,0,0,0,0,0,0,0,0,0,0,0,0,0,0,0,0,0,0,0,0,0,0,0,0,0,0,0,0,0,0,0,0,0,0,0,0,0,0,0,0,0,0,0,0,0,0,0,0,0,0,0,0,0,
0,0,0,0,0,0,0,0,0,0,0,0,0,0,0,0,0,0,0,0,0,0,0,0,0,0,0,0,0,0,0,0,0,0,0,0,0,0,0,0,0,0,0,0,0,0,0,0,0,0,0,0,0,0,0,0,0,0,0,0,0,0,0,0,0,0,0,0,0,0,0,0,0,0,0,0,0,0,0,0,
0,0,0,0,0,0,0,0,0,0,0,0,0,0,0,0,0,0,0,0,0,0,0,0,0,0,0,0,0,0,0,0,0,0,0,0,0,0,0,0,0,0,0,0,0,0,0,0,0,0,0,0,0,0,0,0,0,0,0,0,0,0,0,0,0,0,0,0,0,0,0,0,0,0,0,0,0,0,0,0,
0,0,0,0,0,0,0,0,0,0,0,0,0,0,0,0,0,0,0,0,0,0,0,0,0,0,0,0,0,0,0,0,0,0,0,0,0,0,0,0,0,0,0,0,0,0,0,0,0,0,0,0,0,0,0,0,0,0,0,0,0,0,0,0,0,0,0,0,0,0,0,0,0,0,0,0,0,0,0,0,
0,0,0,0,0,0,0,0,0,0,0,0,0,0,0,0,0,0,0,0,0,0,0,0,0,0,0,0,0,0,0,0,0,0,0,0,0,0,0,0,0,0,0,0,0,0,0,0,0,0,0,0,0,0,0,0,0,0,0,0,0,0,0,0,0,0,0,0,0,0,0,0,0,0,0,0,0,0,0,0,
0,0,0,0,0,0,0,0,0,0,0,0,0,0,0,0,0,0,0,0,0,0,0,0,0,0,0,0,0,0,0,0,0,0,0,0,0,0,0,0,0,0,0,0,0,0,0,0,0,0,0,0,0,0,0,0,0,0,0,0,0,0,0,0,0,0,0,0,0,0,0,0,0,0,0,0,0,0,0,0,
0,0,0,0,0,0,0,0,0,0,0,0,0,0,0,0,0,0,0,0,0,0,0,0,0,0,0,0,0,0,0,0,0,0,0,0,0,0,0,0,0,0,0,0,0,0,0,0,0,0,0,0,0,0,0,0,0,0,0,0,0,0,0,0,0,0,0,0,0,0,0,0,0,0,0,0,0,0,0,0,
0,0,0,0,0,0,0,0,0,0,0,0,0,0,0,0,0,0,0,0,0,0,0,0,0,0,0,0,0,0,0,0,0,0,0,0,0,0,0,0,0,0,0,0,0,0,0,0,0,0,0,0,0,0,0,0,0,0,0,0,0,0,0,0,0,0,0,0,0,0,0,0,0,0,0,0,0,0,0,0,
0,0,0,0,0,0,0,0,0,0,0,0,0,0,0,0,0,0,0,0,0,0,0,0,0,0,0,0,0,0,0,0,0,0,0,0,0,0,0,0,0,0,0,0,0,0,0,0,0,0,0,0,0,0,0,0,0,0,0,0,0,0,0,0,0,0,0,0,0,0,0,0,0,0,0,0,0,0,0,0,
0,0,0,0,0,0,0,0,0,0,0,0,0,0,0,0,0,0,0,0,0,0,0,0,0,0,0,0,0,0,0,0,0,0,0,0,0,0,0,0,0,0,0,0,0,0,0,0,0,0,0,0,0,0,0,0,0,0,0,0,0,0,0,0,0,0,0,0,0,0,0,0,0,0,0,0,0,0,0,0,
0,0,0,0,0,0,0,0,0,0,0,0,0,0,0,0,0,0,0,0,0,0,0,0,0,0,0,0,0,0,0,0,0,0,0,0,0,0,0,0,0,0,0,0,0,0,0,0,0,0,0,0,0,0,0,0,0,0,0,0,0,0,0,0,0,0,0,0,0,0,0,0,0,0,0,0,0,0,0,0,
0,0,0,0,0,0,0,0,0,0,0,0,0,0,0,0,0,0,0,0,0,0,0,0,0,0,0,0,0,0,0,0,0,0,0,0,0,0,0,0,0,0,0,0,0,0,0,0,0,0,0,0,0,0,0,0,0,0,0,0,0,0,0,0,0,0,0,0,0,0,0,0,0,0,0,0,0,0,0,0,
0,0,0,0,0,0,0,0,0,0,0,0,0,0,0,0,0,0,0,0,0,0,0,0,0,0,0,0,0,0,0,0,0,0,0,0,0,0,0,0,0,0,0,0,0,0,0,0,0,0,0,0,0,0,0,0,0,0,0,0,0,0,0,0,0,0,0,0,0,0,0,0,0,0,0,0,0,0,0,0,
0,0,0,0,0,0,0,0,0,0,0,0,0,0,0,0,0,0,0,0,0,0,0,0,0,0,0,0,0,0,0,0,0,0,0,0,0,0,0,0,0,0,0,0,0,0,0,0,0,0,0,0,0,0,0,0,0,0,0,0,0,0,0,0,0,0,0,0,0,0,0,0,0,0,0,0,0,0,0,0,
0,0,0,0,0,0,0,0,0,0,0,0,0,0,0,0,0,0,0,0,0,0,0,0,0,0,0,0,0,0,0,0,0,0,0,0,0,0,0,0,0,0,0,0,0,0,0,0,0,0,0,0,0,0,0,0,0,0,0,0,0,0,0,0,0,0,0,0,0,0,0,0,0,0,0,0,0,0,0,0,
0,0,0,0,0,0,0,0,0,0,0,0,0,0,0,0,0,0,0,0,0,0,0,0,0,0,0,0,0,0,0,0,0,0,0,0,0,0,0,0,0,0,0,0,0,0,0,0,0,0,0,0,0,0,0,0,0,0,0,0,0,0,0,0,0,0,0,0,0,0,0,0,0,0,0,0,0,0,0,0,
0,0,0,0,0,0,0,0,0,0,0,0,0,0,0,0,0,0,0,0,0,0,0,0,0,0,0,0,0,0,0,0,0,0,0,0,0,0,0,0,0,0,0,0,0,0,0,0,0,0,0,0,0,0,0,0,0,0,0,0,0,0,0,0,0,0,0,0,0,0,0,0,0,0,0,0,0,0,0,0,
0,0,0,0,0,0,0,0,0,0,0,0,0,0,0,0,0,0,0,0,0,0,0,0,0,0,0,0,0,0,0,0,0,0,0,0,0,0,0,0,0,0,0,0,0,0,0,0,0,0,0,0,0,0,0,0,0,0,0,0,0,0,0,0,0,0,0,0,0,0,0,0,0,0,0,0,0,0,0,0,
0,0,0,0,0,0,0,0,0,0,0,0,0,0,0,0,0,0,0,0,0,0,0,0,0,0,0,0,0,0,0,0,0,0,0,0,0,0,0,0,0,0,0,0,0,0,0,0,0,0,0,0,0,0,0,0,0,0,0,0,0,0,0,0,0,0,0,0,0,0,0,0,0,0,0,0,0,0,0,0,
0,0,0,0,0,0,0,0,0,0,0,0,0,0,0,0,0,0,0,0,0,0,0,0,0,0,0,0,0,0,0,0,0,0,0,0,0,0,0,0,0,0,0,0,0,0,0,0,0,0,0,0,0,0,0,0,0,0,0,0,0,0,0,0,0,0,0,0,0,0,0,0,0,0,0,0,0,0,0,0,
0,0,0,0,0,0,0,0,0,0,0,0,0,0,0,0,0,0,0,0,0,0,0,0,0,0,0,0,0,0,0,0,0,0,0,0,0,0,0,0,0,0,0,0,0,0,0,0,0,0,0,0,0,0,0,0,0,0,0,0,0,0,0,0,0,0,0,0,0,0,0,0,0,0,0,0,0,0,0,0,
0,0,0,0,0,0,0,0,0,0,0,0,0,0,0,0,0,0,0,0,0,0,0,0,0,0,0,0,0,0,0,0,0,0,0,0,0,0,0,0,0,0,0,0,0,0,0,0,0,0,0,0,0,0,0,0,0,0,0,0,0,0,0,0,0,0,0,0,0,0,0,0,0,0,0,0,0,0,0,0,
0,0,0,0,0,0,0,0,0,0,0,0,0,0,0,0,0,0,0,0,0,0,0,0,0,0,0,0,0,0,0,0,0,0,0,0,0,0,0,0,0,0,0,0,0,0,0,0,0,0,0,0,0,0,0,0,0,0,0,0,0,0,0,0,0,0,0,0,0,0,0,0,0,0,0,0,0,0,0,0,
0,0,0,0,0,0,0,0,0,0,0,0,0,0,0,0,0,0,0,0,0,0,0,0,0,0,0,0,0,0,0,0,0,0,0,0,0,0,0,0,0,0,0,0,0,0,0,0,0,0,0,0,0,0,0,0,0,0,0,0,0,0,0,0,0,0,0,0,0,0,0,0,0,0,0,0,0,0,0,0,
0,0,0,0,0,0,0,0,0,0,0,0,0,0,0,0,0,0,0,0,0,0,0,0,0,0,0,0,0,0,0,0,0,0,0,0,0,0,0,0,0,0,0,0,0,0,0,0,0,0,0,0,0,0,0,0,0,0,0,0,0,0,0,0,0,0,0,0,0,0,0,0,0,0,0,0,0,0,0,0,
0,0,0,0,0,0,0,0,0,0,0,0,0,0,0,0,0,0,0,0,0,0,0,0,0,0,0,0,0,0,0,0,0,0,0,0,0,0,0,0,0,0,0,0,0,0,0,0,0,0,0,0,0,0,0,0,0,0,0,0,0,0,0,0,0,0,0,0,0,0,0,0,0,0,0,0,0,0,0,0,
0,0,0,0,0,0,0,0,0,0,0,0,0,0,0,0,0,0,0,0,0,0,0,0,0,0,0,0,0,0,0,0,0,0,0,0,0,0,0,0,0,0,0,0,0,0,0,0,0,0,0,0,0,0,0,0,0,0,0,0,0,0,0,0,0,0,0,0,0,0,0,0,0,0,0,0,0,0,0,0,
0,0,0,0,0,0,0,0,0,0,0,0,0,0,0,0,0,0,0,0,0,0,0,0,0,0,0,0,0,0,0,0,0,0,0,0,0,0,0,0,0,0,0,0,0,0,0,0,0,0,0,0,0,0,0,0,0,0,0,0,0,0,0,0,0,0,0,0,0,0,0,0,0,0,0,0,0,0,0,0,
0,0,0,0,0,0,0,0,0,0,0,0,0,0,0,0,0,0,0,0,0,0,0,0,0,0,0,0,0,0,0,0,0,0,0,0,0,0,0,0,0,0,0,0,0,0,0,0,0,0,0,0,0,0,0,0,0,0,0,0,0,0,0,0,0,0,0,0,0,0,0,0,0,0,0,0,0,0,0,0,
0,0,0,0,0,0,0,0,0,0,0,0,0,0,0,0,0,0,0,0,0,0,0,0,0,0,0,0,0,0,0,0,0,0,0,0,0,0,0,0,0,0,0,0,0,0,0,0,0,0,0,0,0,0,0,0,0,0,0,0,0,0,0,0,0,0,0,0,0,0,0,0,0,0,0,0,0,0,0,0,
0,0,0,0,0,0,0,0,0,0,0,0,0,0,0,0,0,0,0,0,0,0,0,0,0,0,0,0,0,0,0,0,0,0,0,0,0,0,0,0,0,0,0,0,0,0,0,0,0,0,0,0,0,0,0,0,0,0,0,0,0,0,0,0,0,0,0,0,0,0,0,0,0,0,0,0,0,0,0,0,
0,0,0,0,0,0,0,0,0,0,0,0,0,0,0,0,0,0,0,0,0,0,0,0,0,0,0,0,0,0,0,0,0,0,0,0,0,0,0,0,0,0,0,0,0,0,0,0,0,0,0,0,0,0,0,0,0,0,0,0,0,0,0,0,0,0,0,0,0,0,0,0,0,0,0,0,0,0,0,0,
0,0,0,0,0,0,0,0,0,0,0,0,0,0,0,0,0,0,0,0,0,0,0,0,0,0,0,0,0,0,0,0,0,0,0,0,0,0,0,0,0,0,0,0,0,0,0,0,0,0,0,0,0,0,0,0,0,0,0,0,0,0,0,0,0,0,0,0,0,0,0,0,0,0,0,0,0,0,0,0,
0,0,0,0,0,0,0,0,0,0,0,0,0,0,0,0,0,0,0,0,0,0,0,0,0,0,0,0,0,0,0,0,0,0,0,0,0,0,0,0,0,0,0,0,0,0,0,0,0,0,0,0,0,0,0,0,0,0,0,0,0,0,0,0,0,0,0,0,0,0,0,0,0,0,0,0,0,0,0,0,
0,0,0,0,0,0,0,0,0,0,0,0,0,0,0,0,0,0,0,0,0,0,0,0,0,0,0,0,0,0,0,0,0,0,0,0,0,0,0,0,0,0,0,0,0,0,0,0,0,0,0,0,0,0,0,0,0,0,0,0,0,0,0,0,0,0,0,0,0,0,0,0,0,0,0,0,0,0,0,0,
0,0,0,0,0,0,0,0,0,0,0,0,0,0,0,0,0,0,0,0,0,0,0,0,0,0,0,0,0,0,0,0,0,0,0,0,0,0,0,0,0,0,0,0,0,0,0,0,0,0,0,0,0,0,0,0,0,0,0,0,0,0,0,0,0,0,0,0,0,0,0,0,0,0,0,0,0,0,0,0,
0,0,0,0,0,0,0,0,0,0,0,0,0,0,0,0,0,0,0,0,0,0,0,0,0,0,0,0,0,0,0,0,0,0,0,0,0,0,0,0,0,0,0,0,0,0,0,0,0,0,0,0,0,0,0,0,0,0,0,0,0,0,0,0,0,0,0,0,0,0,0,0,0,0,0,0,0,0,0,0,
0,0,0,0,0,0,0,0,0,0,0,0,0,0,0,0,0,0,0,0,0,0,0,0,0,0,0,0,0,0,0,0,0,0,0,0,0,0,0,0,0,0,0,0,0,0,0,0,0,0,0,0,0,0,0,0,0,0,0,0,0,0,0,0,0,0,0,0,0,0,0,0,0,0,0,0,0,0,0,0,
0,0,0,0,0,0,0,0,0,0,0,0,0,0,0,0,0,0,0,0,0,0,0,0,0,0,0,0,0,0,0,0,0,0,0,0,0,0,0,0,0,0,0,0,0,0,0,0,0,0,0,0,0,0,0,0,0,0,0,0,0,0,0,0,0,0,0,0,0,0,0,0,0,0,0,0,0,0,0,0,
0,0,0,0,0,0,0,0,0,0,0,0,0,0,0,0,0,0,0,0,0,0,0,0,0,0,0,0,0,0,0,0,0,0,0,0,0,0,0,0,0,0,0,0,0,0,0,0,0,0,0,0,0,0,0,0,0,0,0,0,0,0,0,0,0,0,0,0,0,0,0,0,0,0,0,0,0,0,0,0,
0,0,0,0,0,0,0,0,0,0,0,0,0,0,0,0,0,0,0,0,0,0,0,0,0,0,0,0,0,0,0,0,0,0,0,0,0,0,0,0,0,0,0,0,0,0,0,0,0,0,0,0,0,0,0,0,0,0,0,0,0,0,0,0,0,0,0,0,0,0,0,0,0,0,0,0,0,0,0,0,
0,0,0,0,0,0,0,0,0,0,0,0,0,0,0,0,0,0,0,0,0,0,0,0,0,0,0,0,0,0,0,0,0,0,0,0,0,0,0,0,0,0,0,0,0,0,0,0,0,0,0,0,0,0,0,0,0,0,0,0,0,0,0,0,0,0,0,0,0,0,0,0,0,0,0,0,0,0,0,0,
0,0,0,0,0,0,0,0,0,0,0,0,0,0,0,0,0,0,0,0,0,0,0,0,0,0,0,0,0,0,0,0,0,0,0,0,0,0,0,0,0,0,0,0,0,0,0,0,0,0,0,0,0,0,0,0,0,0,0,0,0,0,0,0,0,0,0,0,0,0,0,0,0,0,0,0,0,0,0,0,
0,0,0,0,0,0,0,0,0,0,0,0,0,0,0,0,0,0,0,0,0,0,0,0,0,0,0,0,0,0,0,0,0,0,0,0,0,0,0,0,0,0,0,0,0,0,0,0,0,0,0,0,0,0,0,0,0,0,0,0,0,0,0,0,0,0,0,0,0,0,0,0,0,0,0,0,0,0,0,0,
0,0,0,0,0,0,0,0,0,0,0,0,0,0,0,0,0,0,0,0,0,0,0,0,0,0,0,0,0,0,0,0,0,0,0,0,0,0,0,0,0,0,0,0,0,0,0,0,0,0,0,0,0,0,0,0,0,0,0,0,0,0,0,0,0,0,0,0,0,0,0,0,0,0,0,0,0,0,0,0,
0,0,0,0,0,0,0,0,0,0,0,0,0,0,0,0,0,0,0,0,0,0,0,0,0,0,0,0,0,0,0,0,0,0,0,0,0,0,0,0,0,0,0,0,0,0,0,0,0,0,0,0,0,0,0,0,0,0,0,0,0,0,0,0,0,0,0,0,0,0,0,0,0,0,0,0,0,0,0,0,
0,0,0,0,0,0,0,0,0,0,0,0,0,0,0,0,0,0,0,0,0,0,0,0,0,0,0,0,0,0,0,0,0,0,0,0,0,0,0,0,0,0,0,0,0,0,0,0,0,0,0,0,0,0,0,0,0,0,0,0,0,0,0,0,0,0,0,0,0,0,0,0,0,0,0,0,0,0,0,0,
0,0,0,0,0,0,0,0,0,0,0,0,0,0,0,0,0,0,0,0,0,0,0,0,0,0,0,0,0,0,0,0,0,0,0,0,0,0,0,0,0,0,0,0,0,0,0,0,0,0,0,0,0,0,0,0,0,0,0,0,0,0,0,0,0,0,0,0,0,0,0,0,0,0,0,0,0,0,0,0
</data>
 </layer>
 <objectgroup id="4" name="90_collisions">
  <object id="24" name="coll_tree_" type="collision" x="672" y="64" width="16" height="16">
   <properties>
    <property name="solid" type="bool" value="true"/>
   </properties>
  </object>
  <object id="39" name="coll_tree_" type="collision" x="672" y="128" width="16" height="16">
   <properties>
    <property name="solid" type="bool" value="true"/>
   </properties>
  </object>
  <object id="40" name="coll_tree_" type="collision" x="656" y="192" width="16" height="16">
   <properties>
    <property name="solid" type="bool" value="true"/>
   </properties>
  </object>
  <object id="41" name="coll_tree_" type="collision" x="672" y="256" width="16" height="16">
   <properties>
    <property name="solid" type="bool" value="true"/>
   </properties>
  </object>
  <object id="42" name="coll_tree_" type="collision" x="576" y="0" width="16" height="16">
   <properties>
    <property name="solid" type="bool" value="true"/>
   </properties>
  </object>
  <object id="43" name="coll_tree_" type="collision" x="560" y="32" width="16" height="16">
   <properties>
    <property name="solid" type="bool" value="true"/>
   </properties>
  </object>
  <object id="44" name="coll_tree_" type="collision" x="576" y="32" width="16" height="16">
   <properties>
    <property name="solid" type="bool" value="true"/>
   </properties>
  </object>
  <object id="46" name="coll_tree_" type="collision" x="576" y="96" width="16" height="16">
   <properties>
    <property name="solid" type="bool" value="true"/>
   </properties>
  </object>
  <object id="50" name="coll_tree_" type="collision" x="544" y="16" width="16" height="16">
   <properties>
    <property name="solid" type="bool" value="true"/>
   </properties>
  </object>
  <object id="52" name="coll_tree_" type="collision" x="528" y="0" width="16" height="16">
   <properties>
    <property name="solid" type="bool" value="true"/>
   </properties>
  </object>
  <object id="53" name="coll_tree_" type="collision" x="560" y="176" width="16" height="16">
   <properties>
    <property name="solid" type="bool" value="true"/>
   </properties>
  </object>
  <object id="54" name="coll_tree_" type="collision" x="576" y="256" width="16" height="16">
   <properties>
    <property name="solid" type="bool" value="true"/>
   </properties>
  </object>
  <object id="56" name="coll_tree_" type="collision" x="512" y="160" width="16" height="16">
   <properties>
    <property name="solid" type="bool" value="true"/>
   </properties>
  </object>
  <object id="61" name="coll_tree_" type="collision" x="704" y="320" width="16" height="16">
   <properties>
    <property name="solid" type="bool" value="true"/>
   </properties>
  </object>
  <object id="62" name="coll_tree_" type="collision" x="528" y="320" width="16" height="16">
   <properties>
    <property name="solid" type="bool" value="true"/>
   </properties>
  </object>
  <object id="63" name="coll_tree_" type="collision" x="576" y="368" width="16" height="16">
   <properties>
    <property name="solid" type="bool" value="true"/>
   </properties>
  </object>
  <object id="64" name="coll_tree_" type="collision" x="560" y="272" width="16" height="16">
   <properties>
    <property name="solid" type="bool" value="true"/>
   </properties>
  </object>
  <object id="67" name="coll_tree_" type="collision" x="656" y="288" width="16" height="16">
   <properties>
    <property name="solid" type="bool" value="true"/>
   </properties>
  </object>
  <object id="68" name="coll_tree_" type="collision" x="672" y="320" width="16" height="16">
   <properties>
    <property name="solid" type="bool" value="true"/>
   </properties>
  </object>
  <object id="69" name="coll_tree_" type="collision" x="528" y="368" width="16" height="16">
   <properties>
    <property name="solid" type="bool" value="true"/>
   </properties>
  </object>
  <object id="83" name="coll_tree_" type="collision" x="912" y="48" width="16" height="16">
   <properties>
    <property name="solid" type="bool" value="true"/>
   </properties>
  </object>
  <object id="84" name="coll_tree_" type="collision" x="960" y="112" width="16" height="16">
   <properties>
    <property name="solid" type="bool" value="true"/>
   </properties>
  </object>
  <object id="85" name="coll_tree_" type="collision" x="1072" y="80" width="16" height="16">
   <properties>
    <property name="solid" type="bool" value="true"/>
   </properties>
  </object>
  <object id="86" name="coll_tree_" type="collision" x="1216" y="128" width="16" height="16">
   <properties>
    <property name="solid" type="bool" value="true"/>
   </properties>
  </object>
  <object id="87" name="coll_tree_" type="collision" x="1152" y="48" width="16" height="16">
   <properties>
    <property name="solid" type="bool" value="true"/>
   </properties>
  </object>
  <object id="88" name="coll_tree_" type="collision" x="736" y="208" width="16" height="16">
   <properties>
    <property name="solid" type="bool" value="true"/>
   </properties>
  </object>
  <object id="89" name="coll_tree_" type="collision" x="720" y="128" width="16" height="16">
   <properties>
    <property name="solid" type="bool" value="true"/>
   </properties>
  </object>
  <object id="90" name="coll_tree_" type="collision" x="752" y="64" width="16" height="16">
   <properties>
    <property name="solid" type="bool" value="true"/>
   </properties>
  </object>
  <object id="91" name="coll_tree_" type="collision" x="768" y="176" width="16" height="16">
   <properties>
    <property name="solid" type="bool" value="true"/>
   </properties>
  </object>
  <object id="93" name="coll_tree_" type="collision" x="784" y="144" width="16" height="16">
   <properties>
    <property name="solid" type="bool" value="true"/>
   </properties>
  </object>
  <object id="96" name="coll_tree_" type="collision" x="912" y="272" width="16" height="16">
   <properties>
    <property name="solid" type="bool" value="true"/>
   </properties>
  </object>
  <object id="97" name="coll_tree_" type="collision" x="992" y="288" width="16" height="16">
   <properties>
    <property name="solid" type="bool" value="true"/>
   </properties>
  </object>
  <object id="98" name="coll_tree_" type="collision" x="1088" y="272" width="16" height="16">
   <properties>
    <property name="solid" type="bool" value="true"/>
   </properties>
  </object>
  <object id="99" name="coll_tree_" type="collision" x="1200" y="304" width="16" height="16">
   <properties>
    <property name="solid" type="bool" value="true"/>
   </properties>
  </object>
  <object id="148" name="coll_house_01" type="collision" x="480" y="512" width="160" height="80">
   <properties>
    <property name="entity_id" value="house_01"/>
    <property name="solid" type="bool" value="true"/>
   </properties>
  </object>
  <object id="149" name="coll_house_01" type="collision" x="656" y="336" width="160" height="80">
   <properties>
    <property name="entity_id" value="house_01"/>
    <property name="solid" type="bool" value="true"/>
   </properties>
  </object>
  <object id="151" name="coll_bush" type="collision" x="0" y="1536" width="48" height="32">
   <properties>
    <property name="entity_id" value="bush"/>
    <property name="solid" type="bool" value="true"/>
   </properties>
  </object>
  <object id="180" name="coll_bush" type="collision" x="0" y="1504" width="48" height="32">
   <properties>
    <property name="entity_id" value="bush"/>
    <property name="solid" type="bool" value="true"/>
   </properties>
  </object>
  <object id="182" name="coll_bush" type="collision" x="16" y="1472" width="48" height="32">
   <properties>
    <property name="entity_id" value="bush"/>
    <property name="solid" type="bool" value="true"/>
   </properties>
  </object>
  <object id="183" name="coll_bush" type="collision" x="0" y="1440" width="48" height="32">
   <properties>
    <property name="entity_id" value="bush"/>
    <property name="solid" type="bool" value="true"/>
   </properties>
  </object>
  <object id="184" name="coll_bush" type="collision" x="0" y="1408" width="48" height="32">
   <properties>
    <property name="entity_id" value="bush"/>
    <property name="solid" type="bool" value="true"/>
   </properties>
  </object>
  <object id="185" name="coll_bush" type="collision" x="16" y="1376" width="48" height="32">
   <properties>
    <property name="entity_id" value="bush"/>
    <property name="solid" type="bool" value="true"/>
   </properties>
  </object>
  <object id="186" name="coll_bush" type="collision" x="0" y="1344" width="48" height="32">
   <properties>
    <property name="entity_id" value="bush"/>
    <property name="solid" type="bool" value="true"/>
   </properties>
  </object>
  <object id="187" name="coll_bush" type="collision" x="16" y="1312" width="48" height="32">
   <properties>
    <property name="entity_id" value="bush"/>
    <property name="solid" type="bool" value="true"/>
   </properties>
  </object>
  <object id="188" name="coll_bush" type="collision" x="0" y="1280" width="48" height="32">
   <properties>
    <property name="entity_id" value="bush"/>
    <property name="solid" type="bool" value="true"/>
   </properties>
  </object>
  <object id="189" name="coll_bush" type="collision" x="-16" y="1248" width="48" height="32">
   <properties>
    <property name="entity_id" value="bush"/>
    <property name="solid" type="bool" value="true"/>
   </properties>
  </object>
  <object id="190" name="coll_bush" type="collision" x="0" y="1216" width="48" height="32">
   <properties>
    <property name="entity_id" value="bush"/>
    <property name="solid" type="bool" value="true"/>
   </properties>
  </object>
  <object id="191" name="coll_bush" type="collision" x="0" y="1184" width="48" height="32">
   <properties>
    <property name="entity_id" value="bush"/>
    <property name="solid" type="bool" value="true"/>
   </properties>
  </object>
  <object id="192" name="coll_bush" type="collision" x="32" y="1248" width="48" height="32">
   <properties>
    <property name="entity_id" value="bush"/>
    <property name="solid" type="bool" value="true"/>
   </properties>
  </object>
  <object id="193" name="coll_bush" type="collision" x="16" y="1152" width="48" height="32">
   <properties>
    <property name="entity_id" value="bush"/>
    <property name="solid" type="bool" value="true"/>
   </properties>
  </object>
  <object id="194" name="coll_bush" type="collision" x="0" y="1120" width="48" height="32">
   <properties>
    <property name="entity_id" value="bush"/>
    <property name="solid" type="bool" value="true"/>
   </properties>
  </object>
  <object id="195" name="coll_bush" type="collision" x="16" y="1088" width="48" height="32">
   <properties>
    <property name="entity_id" value="bush"/>
    <property name="solid" type="bool" value="true"/>
   </properties>
  </object>
  <object id="196" name="coll_bush" type="collision" x="0" y="1056" width="48" height="32">
   <properties>
    <property name="entity_id" value="bush"/>
    <property name="solid" type="bool" value="true"/>
   </properties>
  </object>
  <object id="198" name="coll_bush" type="collision" x="16" y="1024" width="48" height="32">
   <properties>
    <property name="entity_id" value="bush"/>
    <property name="solid" type="bool" value="true"/>
   </properties>
  </object>
  <object id="199" name="coll_bush" type="collision" x="0" y="992" width="48" height="32">
   <properties>
    <property name="entity_id" value="bush"/>
    <property name="solid" type="bool" value="true"/>
   </properties>
  </object>
  <object id="200" name="coll_bush" type="collision" x="16" y="960" width="48" height="32">
   <properties>
    <property name="entity_id" value="bush"/>
    <property name="solid" type="bool" value="true"/>
   </properties>
  </object>
  <object id="201" name="coll_bush" type="collision" x="0" y="928" width="48" height="32">
   <properties>
    <property name="entity_id" value="bush"/>
    <property name="solid" type="bool" value="true"/>
   </properties>
  </object>
  <object id="202" name="coll_bush" type="collision" x="32" y="896" width="48" height="32">
   <properties>
    <property name="entity_id" value="bush"/>
    <property name="solid" type="bool" value="true"/>
   </properties>
  </object>
  <object id="203" name="coll_bush" type="collision" x="-16" y="864" width="48" height="32">
   <properties>
    <property name="entity_id" value="bush"/>
    <property name="solid" type="bool" value="true"/>
   </properties>
  </object>
  <object id="204" name="coll_bush" type="collision" x="16" y="832" width="48" height="32">
   <properties>
    <property name="entity_id" value="bush"/>
    <property name="solid" type="bool" value="true"/>
   </properties>
  </object>
  <object id="205" name="coll_bush" type="collision" x="-16" y="800" width="48" height="32">
   <properties>
    <property name="entity_id" value="bush"/>
    <property name="solid" type="bool" value="true"/>
   </properties>
  </object>
  <object id="206" name="coll_bush" type="collision" x="32" y="768" width="48" height="32">
   <properties>
    <property name="entity_id" value="bush"/>
    <property name="solid" type="bool" value="true"/>
   </properties>
  </object>
  <object id="207" name="coll_bush" type="collision" x="16" y="736" width="48" height="32">
   <properties>
    <property name="entity_id" value="bush"/>
    <property name="solid" type="bool" value="true"/>
   </properties>
  </object>
  <object id="208" name="coll_bush" type="collision" x="-16" y="704" width="48" height="32">
   <properties>
    <property name="entity_id" value="bush"/>
    <property name="solid" type="bool" value="true"/>
   </properties>
  </object>
  <object id="209" name="coll_bush" type="collision" x="0" y="672" width="48" height="32">
   <properties>
    <property name="entity_id" value="bush"/>
    <property name="solid" type="bool" value="true"/>
   </properties>
  </object>
  <object id="210" name="coll_bush" type="collision" x="48" y="640" width="48" height="32">
   <properties>
    <property name="entity_id" value="bush"/>
    <property name="solid" type="bool" value="true"/>
   </properties>
  </object>
  <object id="211" name="coll_bush" type="collision" x="16" y="608" width="48" height="32">
   <properties>
    <property name="entity_id" value="bush"/>
    <property name="solid" type="bool" value="true"/>
   </properties>
  </object>
  <object id="212" name="coll_bush" type="collision" x="16" y="576" width="48" height="32">
   <properties>
    <property name="entity_id" value="bush"/>
    <property name="solid" type="bool" value="true"/>
   </properties>
  </object>
  <object id="213" name="coll_bush" type="collision" x="-16" y="544" width="48" height="32">
   <properties>
    <property name="entity_id" value="bush"/>
    <property name="solid" type="bool" value="true"/>
   </properties>
  </object>
  <object id="214" name="coll_bush" type="collision" x="0" y="512" width="48" height="32">
   <properties>
    <property name="entity_id" value="bush"/>
    <property name="solid" type="bool" value="true"/>
   </properties>
  </object>
  <object id="215" name="coll_bush" type="collision" x="16" y="480" width="48" height="32">
   <properties>
    <property name="entity_id" value="bush"/>
    <property name="solid" type="bool" value="true"/>
   </properties>
  </object>
  <object id="216" name="coll_bush" type="collision" x="48" y="1552" width="48" height="32">
   <properties>
    <property name="entity_id" value="bush"/>
    <property name="solid" type="bool" value="true"/>
   </properties>
  </object>
  <object id="217" name="coll_bush" type="collision" x="96" y="1520" width="48" height="32">
   <properties>
    <property name="entity_id" value="bush"/>
    <property name="solid" type="bool" value="true"/>
   </properties>
  </object>
  <object id="218" name="coll_bush" type="collision" x="144" y="1552" width="48" height="32">
   <properties>
    <property name="entity_id" value="bush"/>
    <property name="solid" type="bool" value="true"/>
   </properties>
  </object>
  <object id="219" name="coll_bush" type="collision" x="192" y="1568" width="48" height="32">
   <properties>
    <property name="entity_id" value="bush"/>
    <property name="solid" type="bool" value="true"/>
   </properties>
  </object>
  <object id="220" name="coll_bush" type="collision" x="240" y="1552" width="48" height="32">
   <properties>
    <property name="entity_id" value="bush"/>
    <property name="solid" type="bool" value="true"/>
   </properties>
  </object>
  <object id="221" name="coll_bush" type="collision" x="288" y="1568" width="48" height="32">
   <properties>
    <property name="entity_id" value="bush"/>
    <property name="solid" type="bool" value="true"/>
   </properties>
  </object>
  <object id="222" name="coll_bush" type="collision" x="336" y="1552" width="48" height="16">
   <properties>
    <property name="entity_id" value="bush"/>
    <property name="solid" type="bool" value="true"/>
   </properties>
  </object>
  <object id="223" name="coll_bush" type="collision" x="336" y="1568" width="48" height="32">
   <properties>
    <property name="entity_id" value="bush"/>
    <property name="solid" type="bool" value="true"/>
   </properties>
  </object>
  <object id="224" name="coll_bush" type="collision" x="384" y="1520" width="48" height="32">
   <properties>
    <property name="entity_id" value="bush"/>
    <property name="solid" type="bool" value="true"/>
   </properties>
  </object>
  <object id="225" name="coll_bush" type="collision" x="432" y="1552" width="48" height="32">
   <properties>
    <property name="entity_id" value="bush"/>
    <property name="solid" type="bool" value="true"/>
   </properties>
  </object>
  <object id="227" name="coll_bush" type="collision" x="384" y="1568" width="48" height="32">
   <properties>
    <property name="entity_id" value="bush"/>
    <property name="solid" type="bool" value="true"/>
   </properties>
  </object>
  <object id="228" name="coll_bush" type="collision" x="480" y="1536" width="48" height="32">
   <properties>
    <property name="entity_id" value="bush"/>
    <property name="solid" type="bool" value="true"/>
   </properties>
  </object>
  <object id="229" name="coll_bush" type="collision" x="528" y="1568" width="48" height="32">
   <properties>
    <property name="entity_id" value="bush"/>
    <property name="solid" type="bool" value="true"/>
   </properties>
  </object>
  <object id="230" name="coll_bush" type="collision" x="576" y="1536" width="48" height="32">
   <properties>
    <property name="entity_id" value="bush"/>
    <property name="solid" type="bool" value="true"/>
   </properties>
  </object>
  <object id="231" name="coll_bush" type="collision" x="624" y="1536" width="48" height="32">
   <properties>
    <property name="entity_id" value="bush"/>
    <property name="solid" type="bool" value="true"/>
   </properties>
  </object>
  <object id="232" name="coll_bush" type="collision" x="672" y="1552" width="48" height="32">
   <properties>
    <property name="entity_id" value="bush"/>
    <property name="solid" type="bool" value="true"/>
   </properties>
  </object>
  <object id="233" name="coll_bush" type="collision" x="720" y="1568" width="48" height="32">
   <properties>
    <property name="entity_id" value="bush"/>
    <property name="solid" type="bool" value="true"/>
   </properties>
  </object>
  <object id="234" name="coll_bush" type="collision" x="816" y="1568" width="48" height="32">
   <properties>
    <property name="entity_id" value="bush"/>
    <property name="solid" type="bool" value="true"/>
   </properties>
  </object>
  <object id="235" name="coll_bush" type="collision" x="864" y="1536" width="48" height="32">
   <properties>
    <property name="entity_id" value="bush"/>
    <property name="solid" type="bool" value="true"/>
   </properties>
  </object>
  <object id="236" name="coll_bush" type="collision" x="912" y="1552" width="48" height="32">
   <properties>
    <property name="entity_id" value="bush"/>
    <property name="solid" type="bool" value="true"/>
   </properties>
  </object>
  <object id="237" name="coll_bush" type="collision" x="960" y="1584" width="48" height="16">
   <properties>
    <property name="entity_id" value="bush"/>
    <property name="solid" type="bool" value="true"/>
   </properties>
  </object>
  <object id="238" name="coll_bush" type="collision" x="1008" y="1568" width="32" height="16">
   <properties>
    <property name="entity_id" value="bush"/>
    <property name="solid" type="bool" value="true"/>
   </properties>
  </object>
  <object id="239" name="coll_bush" type="collision" x="1040" y="1584" width="32" height="16">
   <properties>
    <property name="entity_id" value="bush"/>
    <property name="solid" type="bool" value="true"/>
   </properties>
  </object>
  <object id="240" name="coll_bush" type="collision" x="1072" y="1552" width="48" height="32">
   <properties>
    <property name="entity_id" value="bush"/>
    <property name="solid" type="bool" value="true"/>
   </properties>
  </object>
  <object id="241" name="coll_bush" type="collision" x="1120" y="1552" width="48" height="32">
   <properties>
    <property name="entity_id" value="bush"/>
    <property name="solid" type="bool" value="true"/>
   </properties>
  </object>
  <object id="242" name="coll_bush" type="collision" x="1168" y="1568" width="48" height="16">
   <properties>
    <property name="entity_id" value="bush"/>
    <property name="solid" type="bool" value="true"/>
   </properties>
  </object>
  <object id="243" name="coll_bush" type="collision" x="1216" y="1584" width="32" height="16">
   <properties>
    <property name="entity_id" value="bush"/>
    <property name="solid" type="bool" value="true"/>
   </properties>
  </object>
  <object id="244" name="coll_bush" type="collision" x="1248" y="1568" width="48" height="32">
   <properties>
    <property name="entity_id" value="bush"/>
    <property name="solid" type="bool" value="true"/>
   </properties>
  </object>
  <object id="245" name="coll_bush" type="collision" x="1232" y="1520" width="48" height="32">
   <properties>
    <property name="entity_id" value="bush"/>
    <property name="solid" type="bool" value="true"/>
   </properties>
  </object>
  <object id="246" name="coll_bush" type="collision" x="1184" y="1488" width="48" height="32">
   <properties>
    <property name="entity_id" value="bush"/>
    <property name="solid" type="bool" value="true"/>
   </properties>
  </object>
  <object id="247" name="coll_bush" type="collision" x="1216" y="1456" width="48" height="32">
   <properties>
    <property name="entity_id" value="bush"/>
    <property name="solid" type="bool" value="true"/>
   </properties>
  </object>
  <object id="248" name="coll_bush" type="collision" x="1248" y="1424" width="48" height="32">
   <properties>
    <property name="entity_id" value="bush"/>
    <property name="solid" type="bool" value="true"/>
   </properties>
  </object>
  <object id="249" name="coll_bush" type="collision" x="1216" y="1392" width="48" height="32">
   <properties>
    <property name="entity_id" value="bush"/>
    <property name="solid" type="bool" value="true"/>
   </properties>
  </object>
  <object id="250" name="coll_bush" type="collision" x="1216" y="1360" width="48" height="32">
   <properties>
    <property name="entity_id" value="bush"/>
    <property name="solid" type="bool" value="true"/>
   </properties>
  </object>
  <object id="251" name="coll_bush" type="collision" x="1184" y="1344" width="48" height="16">
   <properties>
    <property name="entity_id" value="bush"/>
    <property name="solid" type="bool" value="true"/>
   </properties>
  </object>
  <object id="252" name="coll_bush" type="collision" x="1232" y="1312" width="48" height="32">
   <properties>
    <property name="entity_id" value="bush"/>
    <property name="solid" type="bool" value="true"/>
   </properties>
  </object>
  <object id="253" name="coll_bush" type="collision" x="1200" y="1280" width="48" height="32">
   <properties>
    <property name="entity_id" value="bush"/>
    <property name="solid" type="bool" value="true"/>
   </properties>
  </object>
  <object id="254" name="coll_bush" type="collision" x="1232" y="1248" width="48" height="32">
   <properties>
    <property name="entity_id" value="bush"/>
    <property name="solid" type="bool" value="true"/>
   </properties>
  </object>
  <object id="255" name="coll_bush" type="collision" x="1184" y="1216" width="48" height="32">
   <properties>
    <property name="entity_id" value="bush"/>
    <property name="solid" type="bool" value="true"/>
   </properties>
  </object>
  <object id="256" name="coll_bush" type="collision" x="1248" y="1216" width="48" height="32">
   <properties>
    <property name="entity_id" value="bush"/>
    <property name="solid" type="bool" value="true"/>
   </properties>
  </object>
  <object id="257" name="coll_bush" type="collision" x="1248" y="1184" width="48" height="32">
   <properties>
    <property name="entity_id" value="bush"/>
    <property name="solid" type="bool" value="true"/>
   </properties>
  </object>
  <object id="258" name="coll_bush" type="collision" x="1200" y="1168" width="48" height="32">
   <properties>
    <property name="entity_id" value="bush"/>
    <property name="solid" type="bool" value="true"/>
   </properties>
  </object>
  <object id="259" name="coll_bush" type="collision" x="1200" y="1136" width="48" height="32">
   <properties>
    <property name="entity_id" value="bush"/>
    <property name="solid" type="bool" value="true"/>
   </properties>
  </object>
  <object id="260" name="coll_bush" type="collision" x="1232" y="1104" width="48" height="32">
   <properties>
    <property name="entity_id" value="bush"/>
    <property name="solid" type="bool" value="true"/>
   </properties>
  </object>
  <object id="261" name="coll_bush" type="collision" x="1184" y="1088" width="48" height="16">
   <properties>
    <property name="entity_id" value="bush"/>
    <property name="solid" type="bool" value="true"/>
   </properties>
  </object>
  <object id="262" name="coll_bush" type="collision" x="1232" y="1056" width="48" height="32">
   <properties>
    <property name="entity_id" value="bush"/>
    <property name="solid" type="bool" value="true"/>
   </properties>
  </object>
  <object id="263" name="coll_bush" type="collision" x="1216" y="1024" width="48" height="32">
   <properties>
    <property name="entity_id" value="bush"/>
    <property name="solid" type="bool" value="true"/>
   </properties>
  </object>
  <object id="264" name="coll_bush" type="collision" x="1248" y="992" width="48" height="32">
   <properties>
    <property name="entity_id" value="bush"/>
    <property name="solid" type="bool" value="true"/>
   </properties>
  </object>
  <object id="265" name="coll_bush" type="collision" x="1200" y="960" width="48" height="32">
   <properties>
    <property name="entity_id" value="bush"/>
    <property name="solid" type="bool" value="true"/>
   </properties>
  </object>
  <object id="266" name="coll_bush" type="collision" x="1248" y="928" width="48" height="32">
   <properties>
    <property name="entity_id" value="bush"/>
    <property name="solid" type="bool" value="true"/>
   </properties>
  </object>
  <object id="267" name="coll_bush" type="collision" x="1216" y="896" width="48" height="32">
   <properties>
    <property name="entity_id" value="bush"/>
    <property name="solid" type="bool" value="true"/>
   </properties>
  </object>
  <object id="268" name="coll_bush" type="collision" x="1232" y="864" width="48" height="32">
   <properties>
    <property name="entity_id" value="bush"/>
    <property name="solid" type="bool" value="true"/>
   </properties>
  </object>
  <object id="269" name="coll_bush" type="collision" x="1200" y="832" width="48" height="32">
   <properties>
    <property name="entity_id" value="bush"/>
    <property name="solid" type="bool" value="true"/>
   </properties>
  </object>
  <object id="270" name="coll_water" type="collision" x="320" y="192" width="16" height="16">
   <properties>
    <property name="slow_coeff" type="float" value="5"/>
    <property name="solid" type="bool" value="true"/>
    <property name="type" value="water"/>
   </properties>
  </object>
  <object id="271" name="coll_water" type="collision" x="208" y="208" width="16" height="16">
   <properties>
    <property name="slow_coeff" type="float" value="5"/>
    <property name="solid" type="bool" value="true"/>
    <property name="type" value="water"/>
   </properties>
  </object>
  <object id="272" name="coll_water" type="collision" x="224" y="208" width="16" height="16">
   <properties>
    <property name="slow_coeff" type="float" value="5"/>
    <property name="solid" type="bool" value="true"/>
    <property name="type" value="water"/>
   </properties>
  </object>
  <object id="273" name="coll_water" type="collision" x="240" y="208" width="16" height="16">
   <properties>
    <property name="slow_coeff" type="float" value="5"/>
    <property name="solid" type="bool" value="true"/>
    <property name="type" value="water"/>
   </properties>
  </object>
  <object id="274" name="coll_water" type="collision" x="256" y="208" width="16" height="16">
   <properties>
    <property name="slow_coeff" type="float" value="5"/>
    <property name="solid" type="bool" value="true"/>
    <property name="type" value="water"/>
   </properties>
  </object>
  <object id="275" name="coll_water" type="collision" x="272" y="208" width="16" height="16">
   <properties>
    <property name="slow_coeff" type="float" value="5"/>
    <property name="solid" type="bool" value="true"/>
    <property name="type" value="water"/>
   </properties>
  </object>
  <object id="276" name="coll_water" type="collision" x="288" y="208" width="16" height="16">
   <properties>
    <property name="slow_coeff" type="float" value="5"/>
    <property name="solid" type="bool" value="true"/>
    <property name="type" value="water"/>
   </properties>
  </object>
  <object id="277" name="coll_water" type="collision" x="336" y="192" width="8" height="8">
   <properties>
    <property name="slow_coeff" type="float" value="5"/>
    <property name="solid" type="bool" value="true"/>
    <property name="type" value="water"/>
   </properties>
  </object>
  <object id="278" name="coll_water" type="collision" x="304" y="208" width="8" height="8">
   <properties>
    <property name="slow_coeff" type="float" value="5"/>
    <property name="solid" type="bool" value="true"/>
    <property name="type" value="water"/>
   </properties>
  </object>
  <object id="279" name="coll_water" type="collision" x="200" y="208" width="8" height="8">
   <properties>
    <property name="slow_coeff" type="float" value="5"/>
    <property name="solid" type="bool" value="true"/>
    <property name="type" value="water"/>
   </properties>
  </object>
  <object id="280" name="coll_water" type="collision" x="336" y="144" width="16" height="16">
   <properties>
    <property name="slow_coeff" type="float" value="5"/>
    <property name="solid" type="bool" value="true"/>
    <property name="type" value="water"/>
   </properties>
  </object>
  <object id="281" name="coll_water" type="collision" x="336" y="160" width="16" height="16">
   <properties>
    <property name="slow_coeff" type="float" value="5"/>
    <property name="solid" type="bool" value="true"/>
    <property name="type" value="water"/>
   </properties>
  </object>
  <object id="282" name="coll_water" type="collision" x="336" y="176" width="16" height="16">
   <properties>
    <property name="slow_coeff" type="float" value="5"/>
    <property name="solid" type="bool" value="true"/>
    <property name="type" value="water"/>
   </properties>
  </object>
  <object id="283" name="coll_water" type="collision" x="192" y="160" width="16" height="16">
   <properties>
    <property name="slow_coeff" type="float" value="5"/>
    <property name="solid" type="bool" value="true"/>
    <property name="type" value="water"/>
   </properties>
  </object>
  <object id="284" name="coll_water" type="collision" x="192" y="176" width="16" height="16">
   <properties>
    <property name="slow_coeff" type="float" value="5"/>
    <property name="solid" type="bool" value="true"/>
    <property name="type" value="water"/>
   </properties>
  </object>
  <object id="285" name="coll_water" type="collision" x="192" y="192" width="16" height="16">
   <properties>
    <property name="slow_coeff" type="float" value="5"/>
    <property name="solid" type="bool" value="true"/>
    <property name="type" value="water"/>
   </properties>
  </object>
  <object id="286" name="coll_water" type="collision" x="256" y="112" width="16" height="16">
   <properties>
    <property name="slow_coeff" type="float" value="5"/>
    <property name="solid" type="bool" value="true"/>
    <property name="type" value="water"/>
   </properties>
  </object>
  <object id="287" name="coll_water" type="collision" x="272" y="112" width="16" height="16">
   <properties>
    <property name="slow_coeff" type="float" value="5"/>
    <property name="solid" type="bool" value="true"/>
    <property name="type" value="water"/>
   </properties>
  </object>
  <object id="288" name="coll_water" type="collision" x="240" y="128" width="16" height="16">
   <properties>
    <property name="slow_coeff" type="float" value="5"/>
    <property name="solid" type="bool" value="true"/>
    <property name="type" value="water"/>
   </properties>
  </object>
  <object id="289" name="coll_water" type="collision" x="256" y="128" width="16" height="16">
   <properties>
    <property name="slow_coeff" type="float" value="5"/>
    <property name="solid" type="bool" value="true"/>
    <property name="type" value="water"/>
   </properties>
  </object>
  <object id="290" name="coll_water" type="collision" x="272" y="128" width="16" height="16">
   <properties>
    <property name="slow_coeff" type="float" value="5"/>
    <property name="solid" type="bool" value="true"/>
    <property name="type" value="water"/>
   </properties>
  </object>
  <object id="291" name="coll_water" type="collision" x="288" y="128" width="16" height="16">
   <properties>
    <property name="slow_coeff" type="float" value="5"/>
    <property name="solid" type="bool" value="true"/>
    <property name="type" value="water"/>
   </properties>
  </object>
  <object id="292" name="coll_water" type="collision" x="304" y="128" width="16" height="16">
   <properties>
    <property name="slow_coeff" type="float" value="5"/>
    <property name="solid" type="bool" value="true"/>
    <property name="type" value="water"/>
   </properties>
  </object>
  <object id="293" name="coll_water" type="collision" x="224" y="144" width="16" height="16">
   <properties>
    <property name="slow_coeff" type="float" value="5"/>
    <property name="solid" type="bool" value="true"/>
    <property name="type" value="water"/>
   </properties>
  </object>
  <object id="294" name="coll_water" type="collision" x="240" y="144" width="16" height="16">
   <properties>
    <property name="slow_coeff" type="float" value="5"/>
    <property name="solid" type="bool" value="true"/>
    <property name="type" value="water"/>
   </properties>
  </object>
  <object id="295" name="coll_water" type="collision" x="256" y="144" width="16" height="16">
   <properties>
    <property name="slow_coeff" type="float" value="5"/>
    <property name="solid" type="bool" value="true"/>
    <property name="type" value="water"/>
   </properties>
  </object>
  <object id="296" name="coll_water" type="collision" x="272" y="144" width="16" height="16">
   <properties>
    <property name="slow_coeff" type="float" value="5"/>
    <property name="solid" type="bool" value="true"/>
    <property name="type" value="water"/>
   </properties>
  </object>
  <object id="297" name="coll_water" type="collision" x="288" y="144" width="16" height="16">
   <properties>
    <property name="slow_coeff" type="float" value="5"/>
    <property name="solid" type="bool" value="true"/>
    <property name="type" value="water"/>
   </properties>
  </object>
  <object id="298" name="coll_water" type="collision" x="304" y="144" width="16" height="16">
   <properties>
    <property name="slow_coeff" type="float" value="5"/>
    <property name="solid" type="bool" value="true"/>
    <property name="type" value="water"/>
   </properties>
  </object>
  <object id="299" name="coll_water" type="collision" x="320" y="144" width="16" height="16">
   <properties>
    <property name="slow_coeff" type="float" value="5"/>
    <property name="solid" type="bool" value="true"/>
    <property name="type" value="water"/>
   </properties>
  </object>
  <object id="300" name="coll_water" type="collision" x="208" y="160" width="16" height="16">
   <properties>
    <property name="slow_coeff" type="float" value="5"/>
    <property name="solid" type="bool" value="true"/>
    <property name="type" value="water"/>
   </properties>
  </object>
  <object id="301" name="coll_water" type="collision" x="224" y="160" width="16" height="16">
   <properties>
    <property name="slow_coeff" type="float" value="5"/>
    <property name="solid" type="bool" value="true"/>
    <property name="type" value="water"/>
   </properties>
  </object>
  <object id="302" name="coll_water" type="collision" x="240" y="160" width="16" height="16">
   <properties>
    <property name="slow_coeff" type="float" value="5"/>
    <property name="solid" type="bool" value="true"/>
    <property name="type" value="water"/>
   </properties>
  </object>
  <object id="303" name="coll_water" type="collision" x="256" y="160" width="16" height="16">
   <properties>
    <property name="slow_coeff" type="float" value="5"/>
    <property name="solid" type="bool" value="true"/>
    <property name="type" value="water"/>
   </properties>
  </object>
  <object id="304" name="coll_water" type="collision" x="272" y="160" width="16" height="16">
   <properties>
    <property name="slow_coeff" type="float" value="5"/>
    <property name="solid" type="bool" value="true"/>
    <property name="type" value="water"/>
   </properties>
  </object>
  <object id="305" name="coll_water" type="collision" x="288" y="160" width="16" height="16">
   <properties>
    <property name="slow_coeff" type="float" value="5"/>
    <property name="solid" type="bool" value="true"/>
    <property name="type" value="water"/>
   </properties>
  </object>
  <object id="306" name="coll_water" type="collision" x="304" y="160" width="16" height="16">
   <properties>
    <property name="slow_coeff" type="float" value="5"/>
    <property name="solid" type="bool" value="true"/>
    <property name="type" value="water"/>
   </properties>
  </object>
  <object id="307" name="coll_water" type="collision" x="320" y="160" width="16" height="16">
   <properties>
    <property name="slow_coeff" type="float" value="5"/>
    <property name="solid" type="bool" value="true"/>
    <property name="type" value="water"/>
   </properties>
  </object>
  <object id="308" name="coll_water" type="collision" x="208" y="176" width="16" height="16">
   <properties>
    <property name="slow_coeff" type="float" value="5"/>
    <property name="solid" type="bool" value="true"/>
    <property name="type" value="water"/>
   </properties>
  </object>
  <object id="309" name="coll_water" type="collision" x="224" y="176" width="16" height="16">
   <properties>
    <property name="slow_coeff" type="float" value="5"/>
    <property name="solid" type="bool" value="true"/>
    <property name="type" value="water"/>
   </properties>
  </object>
  <object id="310" name="coll_water" type="collision" x="240" y="176" width="16" height="16">
   <properties>
    <property name="slow_coeff" type="float" value="5"/>
    <property name="solid" type="bool" value="true"/>
    <property name="type" value="water"/>
   </properties>
  </object>
  <object id="311" name="coll_water" type="collision" x="256" y="176" width="16" height="16">
   <properties>
    <property name="slow_coeff" type="float" value="5"/>
    <property name="solid" type="bool" value="true"/>
    <property name="type" value="water"/>
   </properties>
  </object>
  <object id="312" name="coll_water" type="collision" x="272" y="176" width="16" height="16">
   <properties>
    <property name="slow_coeff" type="float" value="5"/>
    <property name="solid" type="bool" value="true"/>
    <property name="type" value="water"/>
   </properties>
  </object>
  <object id="313" name="coll_water" type="collision" x="288" y="176" width="16" height="16">
   <properties>
    <property name="slow_coeff" type="float" value="5"/>
    <property name="solid" type="bool" value="true"/>
    <property name="type" value="water"/>
   </properties>
  </object>
  <object id="314" name="coll_water" type="collision" x="304" y="176" width="16" height="16">
   <properties>
    <property name="slow_coeff" type="float" value="5"/>
    <property name="solid" type="bool" value="true"/>
    <property name="type" value="water"/>
   </properties>
  </object>
  <object id="315" name="coll_water" type="collision" x="320" y="176" width="16" height="16">
   <properties>
    <property name="slow_coeff" type="float" value="5"/>
    <property name="solid" type="bool" value="true"/>
    <property name="type" value="water"/>
   </properties>
  </object>
  <object id="316" name="coll_water" type="collision" x="208" y="192" width="16" height="16">
   <properties>
    <property name="slow_coeff" type="float" value="5"/>
    <property name="solid" type="bool" value="true"/>
    <property name="type" value="water"/>
   </properties>
  </object>
  <object id="317" name="coll_water" type="collision" x="224" y="192" width="16" height="16">
   <properties>
    <property name="slow_coeff" type="float" value="5"/>
    <property name="solid" type="bool" value="true"/>
    <property name="type" value="water"/>
   </properties>
  </object>
  <object id="318" name="coll_water" type="collision" x="240" y="192" width="16" height="16">
   <properties>
    <property name="slow_coeff" type="float" value="5"/>
    <property name="solid" type="bool" value="true"/>
    <property name="type" value="water"/>
   </properties>
  </object>
  <object id="319" name="coll_water" type="collision" x="256" y="192" width="16" height="16">
   <properties>
    <property name="slow_coeff" type="float" value="5"/>
    <property name="solid" type="bool" value="true"/>
    <property name="type" value="water"/>
   </properties>
  </object>
  <object id="320" name="coll_water" type="collision" x="272" y="192" width="16" height="16">
   <properties>
    <property name="slow_coeff" type="float" value="5"/>
    <property name="solid" type="bool" value="true"/>
    <property name="type" value="water"/>
   </properties>
  </object>
  <object id="321" name="coll_water" type="collision" x="288" y="192" width="16" height="16">
   <properties>
    <property name="slow_coeff" type="float" value="5"/>
    <property name="solid" type="bool" value="true"/>
    <property name="type" value="water"/>
   </properties>
  </object>
  <object id="322" name="coll_water" type="collision" x="288" y="104" width="8" height="8">
   <properties>
    <property name="slow_coeff" type="float" value="5"/>
    <property name="solid" type="bool" value="true"/>
    <property name="type" value="water"/>
   </properties>
  </object>
  <object id="323" name="coll_water" type="collision" x="320" y="120" width="8" height="8">
   <properties>
    <property name="slow_coeff" type="float" value="5"/>
    <property name="solid" type="bool" value="true"/>
    <property name="type" value="water"/>
   </properties>
  </object>
  <object id="324" name="coll_water" type="collision" x="336" y="136" width="8" height="8">
   <properties>
    <property name="slow_coeff" type="float" value="5"/>
    <property name="solid" type="bool" value="true"/>
    <property name="type" value="water"/>
   </properties>
  </object>
  <object id="325" name="coll_water" type="collision" x="248" y="104" width="8" height="8">
   <properties>
    <property name="slow_coeff" type="float" value="5"/>
    <property name="solid" type="bool" value="true"/>
    <property name="type" value="water"/>
   </properties>
  </object>
  <object id="326" name="coll_water" type="collision" x="232" y="120" width="8" height="8">
   <properties>
    <property name="slow_coeff" type="float" value="5"/>
    <property name="solid" type="bool" value="true"/>
    <property name="type" value="water"/>
   </properties>
  </object>
  <object id="327" name="coll_water" type="collision" x="216" y="136" width="8" height="8">
   <properties>
    <property name="slow_coeff" type="float" value="5"/>
    <property name="solid" type="bool" value="true"/>
    <property name="type" value="water"/>
   </properties>
  </object>
  <object id="328" name="coll_water" type="collision" x="200" y="152" width="8" height="8">
   <properties>
    <property name="slow_coeff" type="float" value="5"/>
    <property name="solid" type="bool" value="true"/>
    <property name="type" value="water"/>
   </properties>
  </object>
  <object id="329" name="coll_water" type="collision" x="256" y="96" width="16" height="16">
   <properties>
    <property name="slow_coeff" type="float" value="5"/>
    <property name="solid" type="bool" value="true"/>
    <property name="type" value="water"/>
   </properties>
  </object>
  <object id="330" name="coll_water" type="collision" x="272" y="96" width="16" height="16">
   <properties>
    <property name="slow_coeff" type="float" value="5"/>
    <property name="solid" type="bool" value="true"/>
    <property name="type" value="water"/>
   </properties>
  </object>
  <object id="331" name="coll_water" type="collision" x="304" y="112" width="16" height="16">
   <properties>
    <property name="slow_coeff" type="float" value="5"/>
    <property name="solid" type="bool" value="true"/>
    <property name="type" value="water"/>
   </properties>
  </object>
  <object id="797" name="coll_tree" type="collision" x="784" y="144" width="16" height="16">
   <properties>
    <property name="solid" type="bool" value="true"/>
   </properties>
  </object>
  <object id="798" name="coll_tree" type="collision" x="912" y="272" width="16" height="16">
   <properties>
    <property name="solid" type="bool" value="true"/>
   </properties>
  </object>
  <object id="799" name="coll_tree" type="collision" x="1088" y="272" width="16" height="16">
   <properties>
    <property name="solid" type="bool" value="true"/>
   </properties>
  </object>
  <object id="800" name="coll_tree" type="collision" x="992" y="288" width="16" height="16">
   <properties>
    <property name="solid" type="bool" value="true"/>
   </properties>
  </object>
  <object id="801" name="coll_tree" type="collision" x="1200" y="304" width="16" height="16">
   <properties>
    <property name="solid" type="bool" value="true"/>
   </properties>
  </object>
  <object id="802" name="coll_tree" type="collision" x="912" y="48" width="16" height="16">
   <properties>
    <property name="solid" type="bool" value="true"/>
   </properties>
  </object>
  <object id="803" name="coll_tree" type="collision" x="1152" y="48" width="16" height="16">
   <properties>
    <property name="solid" type="bool" value="true"/>
   </properties>
  </object>
  <object id="804" name="coll_tree" type="collision" x="1072" y="80" width="16" height="16">
   <properties>
    <property name="solid" type="bool" value="true"/>
   </properties>
  </object>
  <object id="805" name="coll_tree" type="collision" x="960" y="112" width="16" height="16">
   <properties>
    <property name="solid" type="bool" value="true"/>
   </properties>
  </object>
  <object id="806" name="coll_tree" type="collision" x="1216" y="128" width="16" height="16">
   <properties>
    <property name="solid" type="bool" value="true"/>
   </properties>
  </object>
  <object id="807" name="coll_tree" type="collision" x="784" y="144" width="16" height="16">
   <properties>
    <property name="solid" type="bool" value="true"/>
   </properties>
  </object>
  <object id="808" name="coll_tree" type="collision" x="912" y="272" width="16" height="16">
   <properties>
    <property name="solid" type="bool" value="true"/>
   </properties>
  </object>
  <object id="809" name="coll_tree" type="collision" x="1088" y="272" width="16" height="16">
   <properties>
    <property name="solid" type="bool" value="true"/>
   </properties>
  </object>
  <object id="810" name="coll_tree" type="collision" x="992" y="288" width="16" height="16">
   <properties>
    <property name="solid" type="bool" value="true"/>
   </properties>
  </object>
  <object id="811" name="coll_tree" type="collision" x="1200" y="304" width="16" height="16">
   <properties>
    <property name="solid" type="bool" value="true"/>
   </properties>
  </object>
  <object id="812" name="coll_tree" type="collision" x="912" y="48" width="16" height="16">
   <properties>
    <property name="solid" type="bool" value="true"/>
   </properties>
  </object>
  <object id="813" name="coll_tree" type="collision" x="1152" y="48" width="16" height="16">
   <properties>
    <property name="solid" type="bool" value="true"/>
   </properties>
  </object>
  <object id="814" name="coll_tree" type="collision" x="1072" y="80" width="16" height="16">
   <properties>
    <property name="solid" type="bool" value="true"/>
   </properties>
  </object>
  <object id="815" name="coll_tree" type="collision" x="960" y="112" width="16" height="16">
   <properties>
    <property name="solid" type="bool" value="true"/>
   </properties>
  </object>
  <object id="816" name="coll_tree" type="collision" x="1216" y="128" width="16" height="16">
   <properties>
    <property name="solid" type="bool" value="true"/>
   </properties>
  </object>
  <object id="817" name="coll_water" type="collision" x="816" y="0" width="16" height="16">
   <properties>
    <property name="slow_coeff" type="float" value="5"/>
    <property name="solid" type="bool" value="true"/>
    <property name="type" value="water"/>
   </properties>
  </object>
  <object id="818" name="coll_water" type="collision" x="912" y="224" width="16" height="16">
   <properties>
    <property name="slow_coeff" type="float" value="5"/>
    <property name="solid" type="bool" value="true"/>
    <property name="type" value="water"/>
   </properties>
  </object>
  <object id="819" name="coll_water" type="collision" x="928" y="224" width="16" height="16">
   <properties>
    <property name="slow_coeff" type="float" value="5"/>
    <property name="solid" type="bool" value="true"/>
    <property name="type" value="water"/>
   </properties>
  </object>
  <object id="820" name="coll_water" type="collision" x="944" y="224" width="16" height="16">
   <properties>
    <property name="slow_coeff" type="float" value="5"/>
    <property name="solid" type="bool" value="true"/>
    <property name="type" value="water"/>
   </properties>
  </object>
  <object id="821" name="coll_water" type="collision" x="976" y="240" width="16" height="16">
   <properties>
    <property name="slow_coeff" type="float" value="5"/>
    <property name="solid" type="bool" value="true"/>
    <property name="type" value="water"/>
   </properties>
  </object>
  <object id="822" name="coll_water" type="collision" x="992" y="240" width="16" height="16">
   <properties>
    <property name="slow_coeff" type="float" value="5"/>
    <property name="solid" type="bool" value="true"/>
    <property name="type" value="water"/>
   </properties>
  </object>
  <object id="823" name="coll_water" type="collision" x="1008" y="240" width="16" height="16">
   <properties>
    <property name="slow_coeff" type="float" value="5"/>
    <property name="solid" type="bool" value="true"/>
    <property name="type" value="water"/>
   </properties>
  </object>
  <object id="824" name="coll_water" type="collision" x="1024" y="240" width="16" height="16">
   <properties>
    <property name="slow_coeff" type="float" value="5"/>
    <property name="solid" type="bool" value="true"/>
    <property name="type" value="water"/>
   </properties>
  </object>
  <object id="825" name="coll_water" type="collision" x="1040" y="240" width="16" height="16">
   <properties>
    <property name="slow_coeff" type="float" value="5"/>
    <property name="solid" type="bool" value="true"/>
    <property name="type" value="water"/>
   </properties>
  </object>
  <object id="826" name="coll_water" type="collision" x="1056" y="240" width="16" height="16">
   <properties>
    <property name="slow_coeff" type="float" value="5"/>
    <property name="solid" type="bool" value="true"/>
    <property name="type" value="water"/>
   </properties>
  </object>
  <object id="827" name="coll_water" type="collision" x="1072" y="240" width="16" height="16">
   <properties>
    <property name="slow_coeff" type="float" value="5"/>
    <property name="solid" type="bool" value="true"/>
    <property name="type" value="water"/>
   </properties>
  </object>
  <object id="828" name="coll_water" type="collision" x="1088" y="240" width="16" height="16">
   <properties>
    <property name="slow_coeff" type="float" value="5"/>
    <property name="solid" type="bool" value="true"/>
    <property name="type" value="water"/>
   </properties>
  </object>
  <object id="829" name="coll_water" type="collision" x="1104" y="240" width="16" height="16">
   <properties>
    <property name="slow_coeff" type="float" value="5"/>
    <property name="solid" type="bool" value="true"/>
    <property name="type" value="water"/>
   </properties>
  </object>
  <object id="830" name="coll_water" type="collision" x="1120" y="240" width="16" height="16">
   <properties>
    <property name="slow_coeff" type="float" value="5"/>
    <property name="solid" type="bool" value="true"/>
    <property name="type" value="water"/>
   </properties>
  </object>
  <object id="831" name="coll_water" type="collision" x="1136" y="240" width="16" height="16">
   <properties>
    <property name="slow_coeff" type="float" value="5"/>
    <property name="solid" type="bool" value="true"/>
    <property name="type" value="water"/>
   </properties>
  </object>
  <object id="832" name="coll_water" type="collision" x="1152" y="240" width="16" height="16">
   <properties>
    <property name="slow_coeff" type="float" value="5"/>
    <property name="solid" type="bool" value="true"/>
    <property name="type" value="water"/>
   </properties>
  </object>
  <object id="833" name="coll_water" type="collision" x="1248" y="240" width="16" height="16">
   <properties>
    <property name="slow_coeff" type="float" value="5"/>
    <property name="solid" type="bool" value="true"/>
    <property name="type" value="water"/>
   </properties>
  </object>
  <object id="834" name="coll_water" type="collision" x="1264" y="240" width="16" height="16">
   <properties>
    <property name="slow_coeff" type="float" value="5"/>
    <property name="solid" type="bool" value="true"/>
    <property name="type" value="water"/>
   </properties>
  </object>
  <object id="835" name="coll_water" type="collision" x="1184" y="256" width="16" height="16">
   <properties>
    <property name="slow_coeff" type="float" value="5"/>
    <property name="solid" type="bool" value="true"/>
    <property name="type" value="water"/>
   </properties>
  </object>
  <object id="836" name="coll_water" type="collision" x="1200" y="256" width="16" height="16">
   <properties>
    <property name="slow_coeff" type="float" value="5"/>
    <property name="solid" type="bool" value="true"/>
    <property name="type" value="water"/>
   </properties>
  </object>
  <object id="837" name="coll_water" type="collision" x="1216" y="256" width="16" height="16">
   <properties>
    <property name="slow_coeff" type="float" value="5"/>
    <property name="solid" type="bool" value="true"/>
    <property name="type" value="water"/>
   </properties>
  </object>
  <object id="838" name="coll_water" type="collision" x="832" y="336" width="16" height="16">
   <properties>
    <property name="slow_coeff" type="float" value="5"/>
    <property name="solid" type="bool" value="true"/>
    <property name="type" value="water"/>
   </properties>
  </object>
  <object id="839" name="coll_water" type="collision" x="848" y="336" width="16" height="16">
   <properties>
    <property name="slow_coeff" type="float" value="5"/>
    <property name="solid" type="bool" value="true"/>
    <property name="type" value="water"/>
   </properties>
  </object>
  <object id="840" name="coll_water" type="collision" x="864" y="336" width="16" height="16">
   <properties>
    <property name="slow_coeff" type="float" value="5"/>
    <property name="solid" type="bool" value="true"/>
    <property name="type" value="water"/>
   </properties>
  </object>
  <object id="841" name="coll_water" type="collision" x="800" y="16" width="16" height="16">
   <properties>
    <property name="slow_coeff" type="float" value="5"/>
    <property name="solid" type="bool" value="true"/>
    <property name="type" value="water"/>
   </properties>
  </object>
  <object id="842" name="coll_water" type="collision" x="832" y="32" width="16" height="16">
   <properties>
    <property name="slow_coeff" type="float" value="5"/>
    <property name="solid" type="bool" value="true"/>
    <property name="type" value="water"/>
   </properties>
  </object>
  <object id="843" name="coll_water" type="collision" x="800" y="32" width="16" height="16">
   <properties>
    <property name="slow_coeff" type="float" value="5"/>
    <property name="solid" type="bool" value="true"/>
    <property name="type" value="water"/>
   </properties>
  </object>
  <object id="844" name="coll_water" type="collision" x="896" y="240" width="8" height="8">
   <properties>
    <property name="slow_coeff" type="float" value="5"/>
    <property name="solid" type="bool" value="true"/>
    <property name="type" value="water"/>
   </properties>
  </object>
  <object id="845" name="coll_water" type="collision" x="1232" y="256" width="8" height="8">
   <properties>
    <property name="slow_coeff" type="float" value="5"/>
    <property name="solid" type="bool" value="true"/>
    <property name="type" value="water"/>
   </properties>
  </object>
  <object id="846" name="coll_water" type="collision" x="880" y="336" width="8" height="8">
   <properties>
    <property name="slow_coeff" type="float" value="5"/>
    <property name="solid" type="bool" value="true"/>
    <property name="type" value="water"/>
   </properties>
  </object>
  <object id="847" name="coll_water" type="collision" x="792" y="128" width="8" height="8">
   <properties>
    <property name="slow_coeff" type="float" value="5"/>
    <property name="solid" type="bool" value="true"/>
    <property name="type" value="water"/>
   </properties>
  </object>
  <object id="848" name="coll_water" type="collision" x="968" y="240" width="8" height="8">
   <properties>
    <property name="slow_coeff" type="float" value="5"/>
    <property name="solid" type="bool" value="true"/>
    <property name="type" value="water"/>
   </properties>
  </object>
  <object id="849" name="coll_water" type="collision" x="808" y="256" width="8" height="8">
   <properties>
    <property name="slow_coeff" type="float" value="5"/>
    <property name="solid" type="bool" value="true"/>
    <property name="type" value="water"/>
   </properties>
  </object>
  <object id="850" name="coll_water" type="collision" x="1176" y="256" width="8" height="8">
   <properties>
    <property name="slow_coeff" type="float" value="5"/>
    <property name="solid" type="bool" value="true"/>
    <property name="type" value="water"/>
   </properties>
  </object>
  <object id="851" name="coll_water" type="collision" x="824" y="336" width="8" height="8">
   <properties>
    <property name="slow_coeff" type="float" value="5"/>
    <property name="solid" type="bool" value="true"/>
    <property name="type" value="water"/>
   </properties>
  </object>
  <object id="852" name="coll_water" type="collision" x="832" y="0" width="16" height="16">
   <properties>
    <property name="slow_coeff" type="float" value="5"/>
    <property name="solid" type="bool" value="true"/>
    <property name="type" value="water"/>
   </properties>
  </object>
  <object id="853" name="coll_water" type="collision" x="864" y="0" width="16" height="16">
   <properties>
    <property name="slow_coeff" type="float" value="5"/>
    <property name="solid" type="bool" value="true"/>
    <property name="type" value="water"/>
   </properties>
  </object>
  <object id="854" name="coll_water" type="collision" x="864" y="16" width="16" height="16">
   <properties>
    <property name="slow_coeff" type="float" value="5"/>
    <property name="solid" type="bool" value="true"/>
    <property name="type" value="water"/>
   </properties>
  </object>
  <object id="855" name="coll_water" type="collision" x="864" y="32" width="16" height="16">
   <properties>
    <property name="slow_coeff" type="float" value="5"/>
    <property name="solid" type="bool" value="true"/>
    <property name="type" value="water"/>
   </properties>
  </object>
  <object id="856" name="coll_water" type="collision" x="864" y="48" width="16" height="16">
   <properties>
    <property name="slow_coeff" type="float" value="5"/>
    <property name="solid" type="bool" value="true"/>
    <property name="type" value="water"/>
   </properties>
  </object>
  <object id="857" name="coll_water" type="collision" x="864" y="64" width="16" height="16">
   <properties>
    <property name="slow_coeff" type="float" value="5"/>
    <property name="solid" type="bool" value="true"/>
    <property name="type" value="water"/>
   </properties>
  </object>
  <object id="858" name="coll_water" type="collision" x="864" y="80" width="16" height="16">
   <properties>
    <property name="slow_coeff" type="float" value="5"/>
    <property name="solid" type="bool" value="true"/>
    <property name="type" value="water"/>
   </properties>
  </object>
  <object id="859" name="coll_water" type="collision" x="864" y="96" width="16" height="16">
   <properties>
    <property name="slow_coeff" type="float" value="5"/>
    <property name="solid" type="bool" value="true"/>
    <property name="type" value="water"/>
   </properties>
  </object>
  <object id="860" name="coll_water" type="collision" x="880" y="256" width="16" height="16">
   <properties>
    <property name="slow_coeff" type="float" value="5"/>
    <property name="solid" type="bool" value="true"/>
    <property name="type" value="water"/>
   </properties>
  </object>
  <object id="861" name="coll_water" type="collision" x="880" y="272" width="16" height="16">
   <properties>
    <property name="slow_coeff" type="float" value="5"/>
    <property name="solid" type="bool" value="true"/>
    <property name="type" value="water"/>
   </properties>
  </object>
  <object id="862" name="coll_water" type="collision" x="880" y="288" width="16" height="16">
   <properties>
    <property name="slow_coeff" type="float" value="5"/>
    <property name="solid" type="bool" value="true"/>
    <property name="type" value="water"/>
   </properties>
  </object>
  <object id="863" name="coll_water" type="collision" x="880" y="304" width="16" height="16">
   <properties>
    <property name="slow_coeff" type="float" value="5"/>
    <property name="solid" type="bool" value="true"/>
    <property name="type" value="water"/>
   </properties>
  </object>
  <object id="864" name="coll_water" type="collision" x="880" y="320" width="16" height="16">
   <properties>
    <property name="slow_coeff" type="float" value="5"/>
    <property name="solid" type="bool" value="true"/>
    <property name="type" value="water"/>
   </properties>
  </object>
  <object id="865" name="coll_water" type="collision" x="784" y="0" width="16" height="16">
   <properties>
    <property name="slow_coeff" type="float" value="5"/>
    <property name="solid" type="bool" value="true"/>
    <property name="type" value="water"/>
   </properties>
  </object>
  <object id="866" name="coll_water" type="collision" x="784" y="16" width="16" height="16">
   <properties>
    <property name="slow_coeff" type="float" value="5"/>
    <property name="solid" type="bool" value="true"/>
    <property name="type" value="water"/>
   </properties>
  </object>
  <object id="867" name="coll_water" type="collision" x="784" y="32" width="16" height="16">
   <properties>
    <property name="slow_coeff" type="float" value="5"/>
    <property name="solid" type="bool" value="true"/>
    <property name="type" value="water"/>
   </properties>
  </object>
  <object id="868" name="coll_water" type="collision" x="784" y="48" width="16" height="16">
   <properties>
    <property name="slow_coeff" type="float" value="5"/>
    <property name="solid" type="bool" value="true"/>
    <property name="type" value="water"/>
   </properties>
  </object>
  <object id="869" name="coll_water" type="collision" x="784" y="64" width="16" height="16">
   <properties>
    <property name="slow_coeff" type="float" value="5"/>
    <property name="solid" type="bool" value="true"/>
    <property name="type" value="water"/>
   </properties>
  </object>
  <object id="870" name="coll_water" type="collision" x="784" y="80" width="16" height="16">
   <properties>
    <property name="slow_coeff" type="float" value="5"/>
    <property name="solid" type="bool" value="true"/>
    <property name="type" value="water"/>
   </properties>
  </object>
  <object id="871" name="coll_water" type="collision" x="784" y="96" width="16" height="16">
   <properties>
    <property name="slow_coeff" type="float" value="5"/>
    <property name="solid" type="bool" value="true"/>
    <property name="type" value="water"/>
   </properties>
  </object>
  <object id="872" name="coll_water" type="collision" x="784" y="112" width="16" height="16">
   <properties>
    <property name="slow_coeff" type="float" value="5"/>
    <property name="solid" type="bool" value="true"/>
    <property name="type" value="water"/>
   </properties>
  </object>
  <object id="873" name="coll_water" type="collision" x="800" y="144" width="16" height="16">
   <properties>
    <property name="slow_coeff" type="float" value="5"/>
    <property name="solid" type="bool" value="true"/>
    <property name="type" value="water"/>
   </properties>
  </object>
  <object id="874" name="coll_water" type="collision" x="800" y="160" width="16" height="16">
   <properties>
    <property name="slow_coeff" type="float" value="5"/>
    <property name="solid" type="bool" value="true"/>
    <property name="type" value="water"/>
   </properties>
  </object>
  <object id="875" name="coll_water" type="collision" x="800" y="176" width="16" height="16">
   <properties>
    <property name="slow_coeff" type="float" value="5"/>
    <property name="solid" type="bool" value="true"/>
    <property name="type" value="water"/>
   </properties>
  </object>
  <object id="876" name="coll_water" type="collision" x="800" y="192" width="16" height="16">
   <properties>
    <property name="slow_coeff" type="float" value="5"/>
    <property name="solid" type="bool" value="true"/>
    <property name="type" value="water"/>
   </properties>
  </object>
  <object id="877" name="coll_water" type="collision" x="800" y="208" width="16" height="16">
   <properties>
    <property name="slow_coeff" type="float" value="5"/>
    <property name="solid" type="bool" value="true"/>
    <property name="type" value="water"/>
   </properties>
  </object>
  <object id="878" name="coll_water" type="collision" x="800" y="224" width="16" height="16">
   <properties>
    <property name="slow_coeff" type="float" value="5"/>
    <property name="solid" type="bool" value="true"/>
    <property name="type" value="water"/>
   </properties>
  </object>
  <object id="879" name="coll_water" type="collision" x="800" y="240" width="16" height="16">
   <properties>
    <property name="slow_coeff" type="float" value="5"/>
    <property name="solid" type="bool" value="true"/>
    <property name="type" value="water"/>
   </properties>
  </object>
  <object id="880" name="coll_water" type="collision" x="816" y="272" width="16" height="16">
   <properties>
    <property name="slow_coeff" type="float" value="5"/>
    <property name="solid" type="bool" value="true"/>
    <property name="type" value="water"/>
   </properties>
  </object>
  <object id="881" name="coll_water" type="collision" x="816" y="288" width="16" height="16">
   <properties>
    <property name="slow_coeff" type="float" value="5"/>
    <property name="solid" type="bool" value="true"/>
    <property name="type" value="water"/>
   </properties>
  </object>
  <object id="882" name="coll_water" type="collision" x="816" y="304" width="16" height="16">
   <properties>
    <property name="slow_coeff" type="float" value="5"/>
    <property name="solid" type="bool" value="true"/>
    <property name="type" value="water"/>
   </properties>
  </object>
  <object id="883" name="coll_water" type="collision" x="816" y="320" width="16" height="16">
   <properties>
    <property name="slow_coeff" type="float" value="5"/>
    <property name="solid" type="bool" value="true"/>
    <property name="type" value="water"/>
   </properties>
  </object>
  <object id="884" name="coll_water" type="collision" x="800" y="0" width="16" height="16">
   <properties>
    <property name="slow_coeff" type="float" value="5"/>
    <property name="solid" type="bool" value="true"/>
    <property name="type" value="water"/>
   </properties>
  </object>
  <object id="885" name="coll_water" type="collision" x="848" y="0" width="16" height="16">
   <properties>
    <property name="slow_coeff" type="float" value="5"/>
    <property name="solid" type="bool" value="true"/>
    <property name="type" value="water"/>
   </properties>
  </object>
  <object id="886" name="coll_water" type="collision" x="848" y="16" width="16" height="16">
   <properties>
    <property name="slow_coeff" type="float" value="5"/>
    <property name="solid" type="bool" value="true"/>
    <property name="type" value="water"/>
   </properties>
  </object>
  <object id="887" name="coll_water" type="collision" x="816" y="32" width="16" height="16">
   <properties>
    <property name="slow_coeff" type="float" value="5"/>
    <property name="solid" type="bool" value="true"/>
    <property name="type" value="water"/>
   </properties>
  </object>
  <object id="888" name="coll_water" type="collision" x="848" y="32" width="16" height="16">
   <properties>
    <property name="slow_coeff" type="float" value="5"/>
    <property name="solid" type="bool" value="true"/>
    <property name="type" value="water"/>
   </properties>
  </object>
  <object id="889" name="coll_water" type="collision" x="800" y="48" width="16" height="16">
   <properties>
    <property name="slow_coeff" type="float" value="5"/>
    <property name="solid" type="bool" value="true"/>
    <property name="type" value="water"/>
   </properties>
  </object>
  <object id="890" name="coll_water" type="collision" x="816" y="48" width="16" height="16">
   <properties>
    <property name="slow_coeff" type="float" value="5"/>
    <property name="solid" type="bool" value="true"/>
    <property name="type" value="water"/>
   </properties>
  </object>
  <object id="891" name="coll_water" type="collision" x="832" y="48" width="16" height="16">
   <properties>
    <property name="slow_coeff" type="float" value="5"/>
    <property name="solid" type="bool" value="true"/>
    <property name="type" value="water"/>
   </properties>
  </object>
  <object id="892" name="coll_water" type="collision" x="848" y="48" width="16" height="16">
   <properties>
    <property name="slow_coeff" type="float" value="5"/>
    <property name="solid" type="bool" value="true"/>
    <property name="type" value="water"/>
   </properties>
  </object>
  <object id="893" name="coll_water" type="collision" x="800" y="64" width="16" height="16">
   <properties>
    <property name="slow_coeff" type="float" value="5"/>
    <property name="solid" type="bool" value="true"/>
    <property name="type" value="water"/>
   </properties>
  </object>
  <object id="894" name="coll_water" type="collision" x="816" y="64" width="16" height="16">
   <properties>
    <property name="slow_coeff" type="float" value="5"/>
    <property name="solid" type="bool" value="true"/>
    <property name="type" value="water"/>
   </properties>
  </object>
  <object id="895" name="coll_water" type="collision" x="832" y="64" width="16" height="16">
   <properties>
    <property name="slow_coeff" type="float" value="5"/>
    <property name="solid" type="bool" value="true"/>
    <property name="type" value="water"/>
   </properties>
  </object>
  <object id="896" name="coll_water" type="collision" x="848" y="64" width="16" height="16">
   <properties>
    <property name="slow_coeff" type="float" value="5"/>
    <property name="solid" type="bool" value="true"/>
    <property name="type" value="water"/>
   </properties>
  </object>
  <object id="897" name="coll_water" type="collision" x="800" y="80" width="16" height="16">
   <properties>
    <property name="slow_coeff" type="float" value="5"/>
    <property name="solid" type="bool" value="true"/>
    <property name="type" value="water"/>
   </properties>
  </object>
  <object id="898" name="coll_water" type="collision" x="816" y="80" width="16" height="16">
   <properties>
    <property name="slow_coeff" type="float" value="5"/>
    <property name="solid" type="bool" value="true"/>
    <property name="type" value="water"/>
   </properties>
  </object>
  <object id="899" name="coll_water" type="collision" x="832" y="80" width="16" height="16">
   <properties>
    <property name="slow_coeff" type="float" value="5"/>
    <property name="solid" type="bool" value="true"/>
    <property name="type" value="water"/>
   </properties>
  </object>
  <object id="900" name="coll_water" type="collision" x="848" y="80" width="16" height="16">
   <properties>
    <property name="slow_coeff" type="float" value="5"/>
    <property name="solid" type="bool" value="true"/>
    <property name="type" value="water"/>
   </properties>
  </object>
  <object id="901" name="coll_water" type="collision" x="800" y="96" width="16" height="16">
   <properties>
    <property name="slow_coeff" type="float" value="5"/>
    <property name="solid" type="bool" value="true"/>
    <property name="type" value="water"/>
   </properties>
  </object>
  <object id="902" name="coll_water" type="collision" x="816" y="96" width="16" height="16">
   <properties>
    <property name="slow_coeff" type="float" value="5"/>
    <property name="solid" type="bool" value="true"/>
    <property name="type" value="water"/>
   </properties>
  </object>
  <object id="903" name="coll_water" type="collision" x="832" y="96" width="16" height="16">
   <properties>
    <property name="slow_coeff" type="float" value="5"/>
    <property name="solid" type="bool" value="true"/>
    <property name="type" value="water"/>
   </properties>
  </object>
  <object id="904" name="coll_water" type="collision" x="848" y="96" width="16" height="16">
   <properties>
    <property name="slow_coeff" type="float" value="5"/>
    <property name="solid" type="bool" value="true"/>
    <property name="type" value="water"/>
   </properties>
  </object>
  <object id="905" name="coll_water" type="collision" x="800" y="112" width="16" height="16">
   <properties>
    <property name="slow_coeff" type="float" value="5"/>
    <property name="solid" type="bool" value="true"/>
    <property name="type" value="water"/>
   </properties>
  </object>
  <object id="906" name="coll_water" type="collision" x="816" y="112" width="16" height="16">
   <properties>
    <property name="slow_coeff" type="float" value="5"/>
    <property name="solid" type="bool" value="true"/>
    <property name="type" value="water"/>
   </properties>
  </object>
  <object id="907" name="coll_water" type="collision" x="832" y="112" width="16" height="16">
   <properties>
    <property name="slow_coeff" type="float" value="5"/>
    <property name="solid" type="bool" value="true"/>
    <property name="type" value="water"/>
   </properties>
  </object>
  <object id="908" name="coll_water" type="collision" x="848" y="112" width="16" height="16">
   <properties>
    <property name="slow_coeff" type="float" value="5"/>
    <property name="solid" type="bool" value="true"/>
    <property name="type" value="water"/>
   </properties>
  </object>
  <object id="909" name="coll_water" type="collision" x="816" y="128" width="16" height="16">
   <properties>
    <property name="slow_coeff" type="float" value="5"/>
    <property name="solid" type="bool" value="true"/>
    <property name="type" value="water"/>
   </properties>
  </object>
  <object id="910" name="coll_water" type="collision" x="832" y="128" width="16" height="16">
   <properties>
    <property name="slow_coeff" type="float" value="5"/>
    <property name="solid" type="bool" value="true"/>
    <property name="type" value="water"/>
   </properties>
  </object>
  <object id="911" name="coll_water" type="collision" x="848" y="128" width="16" height="16">
   <properties>
    <property name="slow_coeff" type="float" value="5"/>
    <property name="solid" type="bool" value="true"/>
    <property name="type" value="water"/>
   </properties>
  </object>
  <object id="912" name="coll_water" type="collision" x="864" y="128" width="16" height="16">
   <properties>
    <property name="slow_coeff" type="float" value="5"/>
    <property name="solid" type="bool" value="true"/>
    <property name="type" value="water"/>
   </properties>
  </object>
  <object id="913" name="coll_water" type="collision" x="816" y="144" width="16" height="16">
   <properties>
    <property name="slow_coeff" type="float" value="5"/>
    <property name="solid" type="bool" value="true"/>
    <property name="type" value="water"/>
   </properties>
  </object>
  <object id="914" name="coll_water" type="collision" x="832" y="144" width="16" height="16">
   <properties>
    <property name="slow_coeff" type="float" value="5"/>
    <property name="solid" type="bool" value="true"/>
    <property name="type" value="water"/>
   </properties>
  </object>
  <object id="915" name="coll_water" type="collision" x="848" y="144" width="16" height="16">
   <properties>
    <property name="slow_coeff" type="float" value="5"/>
    <property name="solid" type="bool" value="true"/>
    <property name="type" value="water"/>
   </properties>
  </object>
  <object id="916" name="coll_water" type="collision" x="864" y="144" width="16" height="16">
   <properties>
    <property name="slow_coeff" type="float" value="5"/>
    <property name="solid" type="bool" value="true"/>
    <property name="type" value="water"/>
   </properties>
  </object>
  <object id="917" name="coll_water" type="collision" x="880" y="144" width="16" height="16">
   <properties>
    <property name="slow_coeff" type="float" value="5"/>
    <property name="solid" type="bool" value="true"/>
    <property name="type" value="water"/>
   </properties>
  </object>
  <object id="918" name="coll_water" type="collision" x="896" y="144" width="16" height="16">
   <properties>
    <property name="slow_coeff" type="float" value="5"/>
    <property name="solid" type="bool" value="true"/>
    <property name="type" value="water"/>
   </properties>
  </object>
  <object id="919" name="coll_water" type="collision" x="816" y="160" width="16" height="16">
   <properties>
    <property name="slow_coeff" type="float" value="5"/>
    <property name="solid" type="bool" value="true"/>
    <property name="type" value="water"/>
   </properties>
  </object>
  <object id="920" name="coll_water" type="collision" x="832" y="160" width="16" height="16">
   <properties>
    <property name="slow_coeff" type="float" value="5"/>
    <property name="solid" type="bool" value="true"/>
    <property name="type" value="water"/>
   </properties>
  </object>
  <object id="921" name="coll_water" type="collision" x="848" y="160" width="16" height="16">
   <properties>
    <property name="slow_coeff" type="float" value="5"/>
    <property name="solid" type="bool" value="true"/>
    <property name="type" value="water"/>
   </properties>
  </object>
  <object id="922" name="coll_water" type="collision" x="864" y="160" width="16" height="16">
   <properties>
    <property name="slow_coeff" type="float" value="5"/>
    <property name="solid" type="bool" value="true"/>
    <property name="type" value="water"/>
   </properties>
  </object>
  <object id="923" name="coll_water" type="collision" x="880" y="160" width="16" height="16">
   <properties>
    <property name="slow_coeff" type="float" value="5"/>
    <property name="solid" type="bool" value="true"/>
    <property name="type" value="water"/>
   </properties>
  </object>
  <object id="924" name="coll_water" type="collision" x="896" y="160" width="16" height="16">
   <properties>
    <property name="slow_coeff" type="float" value="5"/>
    <property name="solid" type="bool" value="true"/>
    <property name="type" value="water"/>
   </properties>
  </object>
  <object id="925" name="coll_water" type="collision" x="912" y="160" width="16" height="16">
   <properties>
    <property name="slow_coeff" type="float" value="5"/>
    <property name="solid" type="bool" value="true"/>
    <property name="type" value="water"/>
   </properties>
  </object>
  <object id="926" name="coll_water" type="collision" x="928" y="160" width="16" height="16">
   <properties>
    <property name="slow_coeff" type="float" value="5"/>
    <property name="solid" type="bool" value="true"/>
    <property name="type" value="water"/>
   </properties>
  </object>
  <object id="927" name="coll_water" type="collision" x="944" y="160" width="16" height="16">
   <properties>
    <property name="slow_coeff" type="float" value="5"/>
    <property name="solid" type="bool" value="true"/>
    <property name="type" value="water"/>
   </properties>
  </object>
  <object id="928" name="coll_water" type="collision" x="960" y="160" width="16" height="16">
   <properties>
    <property name="slow_coeff" type="float" value="5"/>
    <property name="solid" type="bool" value="true"/>
    <property name="type" value="water"/>
   </properties>
  </object>
  <object id="929" name="coll_water" type="collision" x="976" y="160" width="16" height="16">
   <properties>
    <property name="slow_coeff" type="float" value="5"/>
    <property name="solid" type="bool" value="true"/>
    <property name="type" value="water"/>
   </properties>
  </object>
  <object id="930" name="coll_water" type="collision" x="992" y="160" width="16" height="16">
   <properties>
    <property name="slow_coeff" type="float" value="5"/>
    <property name="solid" type="bool" value="true"/>
    <property name="type" value="water"/>
   </properties>
  </object>
  <object id="931" name="coll_water" type="collision" x="1008" y="160" width="16" height="16">
   <properties>
    <property name="slow_coeff" type="float" value="5"/>
    <property name="solid" type="bool" value="true"/>
    <property name="type" value="water"/>
   </properties>
  </object>
  <object id="932" name="coll_water" type="collision" x="1024" y="160" width="16" height="16">
   <properties>
    <property name="slow_coeff" type="float" value="5"/>
    <property name="solid" type="bool" value="true"/>
    <property name="type" value="water"/>
   </properties>
  </object>
  <object id="933" name="coll_water" type="collision" x="816" y="176" width="16" height="16">
   <properties>
    <property name="slow_coeff" type="float" value="5"/>
    <property name="solid" type="bool" value="true"/>
    <property name="type" value="water"/>
   </properties>
  </object>
  <object id="934" name="coll_water" type="collision" x="832" y="176" width="16" height="16">
   <properties>
    <property name="slow_coeff" type="float" value="5"/>
    <property name="solid" type="bool" value="true"/>
    <property name="type" value="water"/>
   </properties>
  </object>
  <object id="935" name="coll_water" type="collision" x="848" y="176" width="16" height="16">
   <properties>
    <property name="slow_coeff" type="float" value="5"/>
    <property name="solid" type="bool" value="true"/>
    <property name="type" value="water"/>
   </properties>
  </object>
  <object id="936" name="coll_water" type="collision" x="864" y="176" width="16" height="16">
   <properties>
    <property name="slow_coeff" type="float" value="5"/>
    <property name="solid" type="bool" value="true"/>
    <property name="type" value="water"/>
   </properties>
  </object>
  <object id="937" name="coll_water" type="collision" x="880" y="176" width="16" height="16">
   <properties>
    <property name="slow_coeff" type="float" value="5"/>
    <property name="solid" type="bool" value="true"/>
    <property name="type" value="water"/>
   </properties>
  </object>
  <object id="938" name="coll_water" type="collision" x="896" y="176" width="16" height="16">
   <properties>
    <property name="slow_coeff" type="float" value="5"/>
    <property name="solid" type="bool" value="true"/>
    <property name="type" value="water"/>
   </properties>
  </object>
  <object id="939" name="coll_water" type="collision" x="912" y="176" width="16" height="16">
   <properties>
    <property name="slow_coeff" type="float" value="5"/>
    <property name="solid" type="bool" value="true"/>
    <property name="type" value="water"/>
   </properties>
  </object>
  <object id="940" name="coll_water" type="collision" x="928" y="176" width="16" height="16">
   <properties>
    <property name="slow_coeff" type="float" value="5"/>
    <property name="solid" type="bool" value="true"/>
    <property name="type" value="water"/>
   </properties>
  </object>
  <object id="941" name="coll_water" type="collision" x="944" y="176" width="16" height="16">
   <properties>
    <property name="slow_coeff" type="float" value="5"/>
    <property name="solid" type="bool" value="true"/>
    <property name="type" value="water"/>
   </properties>
  </object>
  <object id="942" name="coll_water" type="collision" x="960" y="176" width="16" height="16">
   <properties>
    <property name="slow_coeff" type="float" value="5"/>
    <property name="solid" type="bool" value="true"/>
    <property name="type" value="water"/>
   </properties>
  </object>
  <object id="943" name="coll_water" type="collision" x="976" y="176" width="16" height="16">
   <properties>
    <property name="slow_coeff" type="float" value="5"/>
    <property name="solid" type="bool" value="true"/>
    <property name="type" value="water"/>
   </properties>
  </object>
  <object id="944" name="coll_water" type="collision" x="992" y="176" width="16" height="16">
   <properties>
    <property name="slow_coeff" type="float" value="5"/>
    <property name="solid" type="bool" value="true"/>
    <property name="type" value="water"/>
   </properties>
  </object>
  <object id="945" name="coll_water" type="collision" x="1008" y="176" width="16" height="16">
   <properties>
    <property name="slow_coeff" type="float" value="5"/>
    <property name="solid" type="bool" value="true"/>
    <property name="type" value="water"/>
   </properties>
  </object>
  <object id="946" name="coll_water" type="collision" x="1024" y="176" width="16" height="16">
   <properties>
    <property name="slow_coeff" type="float" value="5"/>
    <property name="solid" type="bool" value="true"/>
    <property name="type" value="water"/>
   </properties>
  </object>
  <object id="947" name="coll_water" type="collision" x="1040" y="176" width="16" height="16">
   <properties>
    <property name="slow_coeff" type="float" value="5"/>
    <property name="solid" type="bool" value="true"/>
    <property name="type" value="water"/>
   </properties>
  </object>
  <object id="948" name="coll_water" type="collision" x="1056" y="176" width="16" height="16">
   <properties>
    <property name="slow_coeff" type="float" value="5"/>
    <property name="solid" type="bool" value="true"/>
    <property name="type" value="water"/>
   </properties>
  </object>
  <object id="949" name="coll_water" type="collision" x="1072" y="176" width="16" height="16">
   <properties>
    <property name="slow_coeff" type="float" value="5"/>
    <property name="solid" type="bool" value="true"/>
    <property name="type" value="water"/>
   </properties>
  </object>
  <object id="950" name="coll_water" type="collision" x="1088" y="176" width="16" height="16">
   <properties>
    <property name="slow_coeff" type="float" value="5"/>
    <property name="solid" type="bool" value="true"/>
    <property name="type" value="water"/>
   </properties>
  </object>
  <object id="951" name="coll_water" type="collision" x="1104" y="176" width="16" height="16">
   <properties>
    <property name="slow_coeff" type="float" value="5"/>
    <property name="solid" type="bool" value="true"/>
    <property name="type" value="water"/>
   </properties>
  </object>
  <object id="952" name="coll_water" type="collision" x="1120" y="176" width="16" height="16">
   <properties>
    <property name="slow_coeff" type="float" value="5"/>
    <property name="solid" type="bool" value="true"/>
    <property name="type" value="water"/>
   </properties>
  </object>
  <object id="953" name="coll_water" type="collision" x="1136" y="176" width="16" height="16">
   <properties>
    <property name="slow_coeff" type="float" value="5"/>
    <property name="solid" type="bool" value="true"/>
    <property name="type" value="water"/>
   </properties>
  </object>
  <object id="954" name="coll_water" type="collision" x="1152" y="176" width="16" height="16">
   <properties>
    <property name="slow_coeff" type="float" value="5"/>
    <property name="solid" type="bool" value="true"/>
    <property name="type" value="water"/>
   </properties>
  </object>
  <object id="955" name="coll_water" type="collision" x="1168" y="176" width="16" height="16">
   <properties>
    <property name="slow_coeff" type="float" value="5"/>
    <property name="solid" type="bool" value="true"/>
    <property name="type" value="water"/>
   </properties>
  </object>
  <object id="956" name="coll_water" type="collision" x="1184" y="176" width="16" height="16">
   <properties>
    <property name="slow_coeff" type="float" value="5"/>
    <property name="solid" type="bool" value="true"/>
    <property name="type" value="water"/>
   </properties>
  </object>
  <object id="957" name="coll_water" type="collision" x="1200" y="176" width="16" height="16">
   <properties>
    <property name="slow_coeff" type="float" value="5"/>
    <property name="solid" type="bool" value="true"/>
    <property name="type" value="water"/>
   </properties>
  </object>
  <object id="958" name="coll_water" type="collision" x="1216" y="176" width="16" height="16">
   <properties>
    <property name="slow_coeff" type="float" value="5"/>
    <property name="solid" type="bool" value="true"/>
    <property name="type" value="water"/>
   </properties>
  </object>
  <object id="959" name="coll_water" type="collision" x="1232" y="176" width="16" height="16">
   <properties>
    <property name="slow_coeff" type="float" value="5"/>
    <property name="solid" type="bool" value="true"/>
    <property name="type" value="water"/>
   </properties>
  </object>
  <object id="960" name="coll_water" type="collision" x="816" y="192" width="16" height="16">
   <properties>
    <property name="slow_coeff" type="float" value="5"/>
    <property name="solid" type="bool" value="true"/>
    <property name="type" value="water"/>
   </properties>
  </object>
  <object id="961" name="coll_water" type="collision" x="832" y="192" width="16" height="16">
   <properties>
    <property name="slow_coeff" type="float" value="5"/>
    <property name="solid" type="bool" value="true"/>
    <property name="type" value="water"/>
   </properties>
  </object>
  <object id="962" name="coll_water" type="collision" x="848" y="192" width="16" height="16">
   <properties>
    <property name="slow_coeff" type="float" value="5"/>
    <property name="solid" type="bool" value="true"/>
    <property name="type" value="water"/>
   </properties>
  </object>
  <object id="963" name="coll_water" type="collision" x="864" y="192" width="16" height="16">
   <properties>
    <property name="slow_coeff" type="float" value="5"/>
    <property name="solid" type="bool" value="true"/>
    <property name="type" value="water"/>
   </properties>
  </object>
  <object id="964" name="coll_water" type="collision" x="880" y="192" width="16" height="16">
   <properties>
    <property name="slow_coeff" type="float" value="5"/>
    <property name="solid" type="bool" value="true"/>
    <property name="type" value="water"/>
   </properties>
  </object>
  <object id="965" name="coll_water" type="collision" x="896" y="192" width="16" height="16">
   <properties>
    <property name="slow_coeff" type="float" value="5"/>
    <property name="solid" type="bool" value="true"/>
    <property name="type" value="water"/>
   </properties>
  </object>
  <object id="966" name="coll_water" type="collision" x="912" y="192" width="16" height="16">
   <properties>
    <property name="slow_coeff" type="float" value="5"/>
    <property name="solid" type="bool" value="true"/>
    <property name="type" value="water"/>
   </properties>
  </object>
  <object id="967" name="coll_water" type="collision" x="928" y="192" width="16" height="16">
   <properties>
    <property name="slow_coeff" type="float" value="5"/>
    <property name="solid" type="bool" value="true"/>
    <property name="type" value="water"/>
   </properties>
  </object>
  <object id="968" name="coll_water" type="collision" x="944" y="192" width="16" height="16">
   <properties>
    <property name="slow_coeff" type="float" value="5"/>
    <property name="solid" type="bool" value="true"/>
    <property name="type" value="water"/>
   </properties>
  </object>
  <object id="969" name="coll_water" type="collision" x="960" y="192" width="16" height="16">
   <properties>
    <property name="slow_coeff" type="float" value="5"/>
    <property name="solid" type="bool" value="true"/>
    <property name="type" value="water"/>
   </properties>
  </object>
  <object id="970" name="coll_water" type="collision" x="976" y="192" width="16" height="16">
   <properties>
    <property name="slow_coeff" type="float" value="5"/>
    <property name="solid" type="bool" value="true"/>
    <property name="type" value="water"/>
   </properties>
  </object>
  <object id="971" name="coll_water" type="collision" x="992" y="192" width="16" height="16">
   <properties>
    <property name="slow_coeff" type="float" value="5"/>
    <property name="solid" type="bool" value="true"/>
    <property name="type" value="water"/>
   </properties>
  </object>
  <object id="972" name="coll_water" type="collision" x="1008" y="192" width="16" height="16">
   <properties>
    <property name="slow_coeff" type="float" value="5"/>
    <property name="solid" type="bool" value="true"/>
    <property name="type" value="water"/>
   </properties>
  </object>
  <object id="973" name="coll_water" type="collision" x="1024" y="192" width="16" height="16">
   <properties>
    <property name="slow_coeff" type="float" value="5"/>
    <property name="solid" type="bool" value="true"/>
    <property name="type" value="water"/>
   </properties>
  </object>
  <object id="974" name="coll_water" type="collision" x="1040" y="192" width="16" height="16">
   <properties>
    <property name="slow_coeff" type="float" value="5"/>
    <property name="solid" type="bool" value="true"/>
    <property name="type" value="water"/>
   </properties>
  </object>
  <object id="975" name="coll_water" type="collision" x="1056" y="192" width="16" height="16">
   <properties>
    <property name="slow_coeff" type="float" value="5"/>
    <property name="solid" type="bool" value="true"/>
    <property name="type" value="water"/>
   </properties>
  </object>
  <object id="976" name="coll_water" type="collision" x="1072" y="192" width="16" height="16">
   <properties>
    <property name="slow_coeff" type="float" value="5"/>
    <property name="solid" type="bool" value="true"/>
    <property name="type" value="water"/>
   </properties>
  </object>
  <object id="977" name="coll_water" type="collision" x="1088" y="192" width="16" height="16">
   <properties>
    <property name="slow_coeff" type="float" value="5"/>
    <property name="solid" type="bool" value="true"/>
    <property name="type" value="water"/>
   </properties>
  </object>
  <object id="978" name="coll_water" type="collision" x="1104" y="192" width="16" height="16">
   <properties>
    <property name="slow_coeff" type="float" value="5"/>
    <property name="solid" type="bool" value="true"/>
    <property name="type" value="water"/>
   </properties>
  </object>
  <object id="979" name="coll_water" type="collision" x="1120" y="192" width="16" height="16">
   <properties>
    <property name="slow_coeff" type="float" value="5"/>
    <property name="solid" type="bool" value="true"/>
    <property name="type" value="water"/>
   </properties>
  </object>
  <object id="980" name="coll_water" type="collision" x="1136" y="192" width="16" height="16">
   <properties>
    <property name="slow_coeff" type="float" value="5"/>
    <property name="solid" type="bool" value="true"/>
    <property name="type" value="water"/>
   </properties>
  </object>
  <object id="981" name="coll_water" type="collision" x="1152" y="192" width="16" height="16">
   <properties>
    <property name="slow_coeff" type="float" value="5"/>
    <property name="solid" type="bool" value="true"/>
    <property name="type" value="water"/>
   </properties>
  </object>
  <object id="982" name="coll_water" type="collision" x="1168" y="192" width="16" height="16">
   <properties>
    <property name="slow_coeff" type="float" value="5"/>
    <property name="solid" type="bool" value="true"/>
    <property name="type" value="water"/>
   </properties>
  </object>
  <object id="983" name="coll_water" type="collision" x="1184" y="192" width="16" height="16">
   <properties>
    <property name="slow_coeff" type="float" value="5"/>
    <property name="solid" type="bool" value="true"/>
    <property name="type" value="water"/>
   </properties>
  </object>
  <object id="984" name="coll_water" type="collision" x="1200" y="192" width="16" height="16">
   <properties>
    <property name="slow_coeff" type="float" value="5"/>
    <property name="solid" type="bool" value="true"/>
    <property name="type" value="water"/>
   </properties>
  </object>
  <object id="985" name="coll_water" type="collision" x="1216" y="192" width="16" height="16">
   <properties>
    <property name="slow_coeff" type="float" value="5"/>
    <property name="solid" type="bool" value="true"/>
    <property name="type" value="water"/>
   </properties>
  </object>
  <object id="986" name="coll_water" type="collision" x="1232" y="192" width="16" height="16">
   <properties>
    <property name="slow_coeff" type="float" value="5"/>
    <property name="solid" type="bool" value="true"/>
    <property name="type" value="water"/>
   </properties>
  </object>
  <object id="987" name="coll_water" type="collision" x="1248" y="192" width="16" height="16">
   <properties>
    <property name="slow_coeff" type="float" value="5"/>
    <property name="solid" type="bool" value="true"/>
    <property name="type" value="water"/>
   </properties>
  </object>
  <object id="988" name="coll_water" type="collision" x="1264" y="192" width="16" height="16">
   <properties>
    <property name="slow_coeff" type="float" value="5"/>
    <property name="solid" type="bool" value="true"/>
    <property name="type" value="water"/>
   </properties>
  </object>
  <object id="989" name="coll_water" type="collision" x="816" y="208" width="16" height="16">
   <properties>
    <property name="slow_coeff" type="float" value="5"/>
    <property name="solid" type="bool" value="true"/>
    <property name="type" value="water"/>
   </properties>
  </object>
  <object id="990" name="coll_water" type="collision" x="832" y="208" width="16" height="16">
   <properties>
    <property name="slow_coeff" type="float" value="5"/>
    <property name="solid" type="bool" value="true"/>
    <property name="type" value="water"/>
   </properties>
  </object>
  <object id="991" name="coll_water" type="collision" x="848" y="208" width="16" height="16">
   <properties>
    <property name="slow_coeff" type="float" value="5"/>
    <property name="solid" type="bool" value="true"/>
    <property name="type" value="water"/>
   </properties>
  </object>
  <object id="992" name="coll_water" type="collision" x="864" y="208" width="16" height="16">
   <properties>
    <property name="slow_coeff" type="float" value="5"/>
    <property name="solid" type="bool" value="true"/>
    <property name="type" value="water"/>
   </properties>
  </object>
  <object id="993" name="coll_water" type="collision" x="880" y="208" width="16" height="16">
   <properties>
    <property name="slow_coeff" type="float" value="5"/>
    <property name="solid" type="bool" value="true"/>
    <property name="type" value="water"/>
   </properties>
  </object>
  <object id="994" name="coll_water" type="collision" x="896" y="208" width="16" height="16">
   <properties>
    <property name="slow_coeff" type="float" value="5"/>
    <property name="solid" type="bool" value="true"/>
    <property name="type" value="water"/>
   </properties>
  </object>
  <object id="995" name="coll_water" type="collision" x="912" y="208" width="16" height="16">
   <properties>
    <property name="slow_coeff" type="float" value="5"/>
    <property name="solid" type="bool" value="true"/>
    <property name="type" value="water"/>
   </properties>
  </object>
  <object id="996" name="coll_water" type="collision" x="928" y="208" width="16" height="16">
   <properties>
    <property name="slow_coeff" type="float" value="5"/>
    <property name="solid" type="bool" value="true"/>
    <property name="type" value="water"/>
   </properties>
  </object>
  <object id="997" name="coll_water" type="collision" x="944" y="208" width="16" height="16">
   <properties>
    <property name="slow_coeff" type="float" value="5"/>
    <property name="solid" type="bool" value="true"/>
    <property name="type" value="water"/>
   </properties>
  </object>
  <object id="998" name="coll_water" type="collision" x="960" y="208" width="16" height="16">
   <properties>
    <property name="slow_coeff" type="float" value="5"/>
    <property name="solid" type="bool" value="true"/>
    <property name="type" value="water"/>
   </properties>
  </object>
  <object id="999" name="coll_water" type="collision" x="976" y="208" width="16" height="16">
   <properties>
    <property name="slow_coeff" type="float" value="5"/>
    <property name="solid" type="bool" value="true"/>
    <property name="type" value="water"/>
   </properties>
  </object>
  <object id="1000" name="coll_water" type="collision" x="992" y="208" width="16" height="16">
   <properties>
    <property name="slow_coeff" type="float" value="5"/>
    <property name="solid" type="bool" value="true"/>
    <property name="type" value="water"/>
   </properties>
  </object>
  <object id="1001" name="coll_water" type="collision" x="1008" y="208" width="16" height="16">
   <properties>
    <property name="slow_coeff" type="float" value="5"/>
    <property name="solid" type="bool" value="true"/>
    <property name="type" value="water"/>
   </properties>
  </object>
  <object id="1002" name="coll_water" type="collision" x="1024" y="208" width="16" height="16">
   <properties>
    <property name="slow_coeff" type="float" value="5"/>
    <property name="solid" type="bool" value="true"/>
    <property name="type" value="water"/>
   </properties>
  </object>
  <object id="1003" name="coll_water" type="collision" x="1040" y="208" width="16" height="16">
   <properties>
    <property name="slow_coeff" type="float" value="5"/>
    <property name="solid" type="bool" value="true"/>
    <property name="type" value="water"/>
   </properties>
  </object>
  <object id="1004" name="coll_water" type="collision" x="1056" y="208" width="16" height="16">
   <properties>
    <property name="slow_coeff" type="float" value="5"/>
    <property name="solid" type="bool" value="true"/>
    <property name="type" value="water"/>
   </properties>
  </object>
  <object id="1005" name="coll_water" type="collision" x="1072" y="208" width="16" height="16">
   <properties>
    <property name="slow_coeff" type="float" value="5"/>
    <property name="solid" type="bool" value="true"/>
    <property name="type" value="water"/>
   </properties>
  </object>
  <object id="1006" name="coll_water" type="collision" x="1088" y="208" width="16" height="16">
   <properties>
    <property name="slow_coeff" type="float" value="5"/>
    <property name="solid" type="bool" value="true"/>
    <property name="type" value="water"/>
   </properties>
  </object>
  <object id="1007" name="coll_water" type="collision" x="1104" y="208" width="16" height="16">
   <properties>
    <property name="slow_coeff" type="float" value="5"/>
    <property name="solid" type="bool" value="true"/>
    <property name="type" value="water"/>
   </properties>
  </object>
  <object id="1008" name="coll_water" type="collision" x="1120" y="208" width="16" height="16">
   <properties>
    <property name="slow_coeff" type="float" value="5"/>
    <property name="solid" type="bool" value="true"/>
    <property name="type" value="water"/>
   </properties>
  </object>
  <object id="1009" name="coll_water" type="collision" x="1136" y="208" width="16" height="16">
   <properties>
    <property name="slow_coeff" type="float" value="5"/>
    <property name="solid" type="bool" value="true"/>
    <property name="type" value="water"/>
   </properties>
  </object>
  <object id="1010" name="coll_water" type="collision" x="1152" y="208" width="16" height="16">
   <properties>
    <property name="slow_coeff" type="float" value="5"/>
    <property name="solid" type="bool" value="true"/>
    <property name="type" value="water"/>
   </properties>
  </object>
  <object id="1011" name="coll_water" type="collision" x="1168" y="208" width="16" height="16">
   <properties>
    <property name="slow_coeff" type="float" value="5"/>
    <property name="solid" type="bool" value="true"/>
    <property name="type" value="water"/>
   </properties>
  </object>
  <object id="1012" name="coll_water" type="collision" x="1184" y="208" width="16" height="16">
   <properties>
    <property name="slow_coeff" type="float" value="5"/>
    <property name="solid" type="bool" value="true"/>
    <property name="type" value="water"/>
   </properties>
  </object>
  <object id="1013" name="coll_water" type="collision" x="1200" y="208" width="16" height="16">
   <properties>
    <property name="slow_coeff" type="float" value="5"/>
    <property name="solid" type="bool" value="true"/>
    <property name="type" value="water"/>
   </properties>
  </object>
  <object id="1014" name="coll_water" type="collision" x="1216" y="208" width="16" height="16">
   <properties>
    <property name="slow_coeff" type="float" value="5"/>
    <property name="solid" type="bool" value="true"/>
    <property name="type" value="water"/>
   </properties>
  </object>
  <object id="1015" name="coll_water" type="collision" x="1232" y="208" width="16" height="16">
   <properties>
    <property name="slow_coeff" type="float" value="5"/>
    <property name="solid" type="bool" value="true"/>
    <property name="type" value="water"/>
   </properties>
  </object>
  <object id="1016" name="coll_water" type="collision" x="1248" y="208" width="16" height="16">
   <properties>
    <property name="slow_coeff" type="float" value="5"/>
    <property name="solid" type="bool" value="true"/>
    <property name="type" value="water"/>
   </properties>
  </object>
  <object id="1017" name="coll_water" type="collision" x="1264" y="208" width="16" height="16">
   <properties>
    <property name="slow_coeff" type="float" value="5"/>
    <property name="solid" type="bool" value="true"/>
    <property name="type" value="water"/>
   </properties>
  </object>
  <object id="1018" name="coll_water" type="collision" x="816" y="224" width="16" height="16">
   <properties>
    <property name="slow_coeff" type="float" value="5"/>
    <property name="solid" type="bool" value="true"/>
    <property name="type" value="water"/>
   </properties>
  </object>
  <object id="1019" name="coll_water" type="collision" x="832" y="224" width="16" height="16">
   <properties>
    <property name="slow_coeff" type="float" value="5"/>
    <property name="solid" type="bool" value="true"/>
    <property name="type" value="water"/>
   </properties>
  </object>
  <object id="1020" name="coll_water" type="collision" x="848" y="224" width="16" height="16">
   <properties>
    <property name="slow_coeff" type="float" value="5"/>
    <property name="solid" type="bool" value="true"/>
    <property name="type" value="water"/>
   </properties>
  </object>
  <object id="1021" name="coll_water" type="collision" x="864" y="224" width="16" height="16">
   <properties>
    <property name="slow_coeff" type="float" value="5"/>
    <property name="solid" type="bool" value="true"/>
    <property name="type" value="water"/>
   </properties>
  </object>
  <object id="1022" name="coll_water" type="collision" x="880" y="224" width="16" height="16">
   <properties>
    <property name="slow_coeff" type="float" value="5"/>
    <property name="solid" type="bool" value="true"/>
    <property name="type" value="water"/>
   </properties>
  </object>
  <object id="1023" name="coll_water" type="collision" x="976" y="224" width="16" height="16">
   <properties>
    <property name="slow_coeff" type="float" value="5"/>
    <property name="solid" type="bool" value="true"/>
    <property name="type" value="water"/>
   </properties>
  </object>
  <object id="1024" name="coll_water" type="collision" x="992" y="224" width="16" height="16">
   <properties>
    <property name="slow_coeff" type="float" value="5"/>
    <property name="solid" type="bool" value="true"/>
    <property name="type" value="water"/>
   </properties>
  </object>
  <object id="1025" name="coll_water" type="collision" x="1008" y="224" width="16" height="16">
   <properties>
    <property name="slow_coeff" type="float" value="5"/>
    <property name="solid" type="bool" value="true"/>
    <property name="type" value="water"/>
   </properties>
  </object>
  <object id="1026" name="coll_water" type="collision" x="1024" y="224" width="16" height="16">
   <properties>
    <property name="slow_coeff" type="float" value="5"/>
    <property name="solid" type="bool" value="true"/>
    <property name="type" value="water"/>
   </properties>
  </object>
  <object id="1027" name="coll_water" type="collision" x="1040" y="224" width="16" height="16">
   <properties>
    <property name="slow_coeff" type="float" value="5"/>
    <property name="solid" type="bool" value="true"/>
    <property name="type" value="water"/>
   </properties>
  </object>
  <object id="1028" name="coll_water" type="collision" x="1056" y="224" width="16" height="16">
   <properties>
    <property name="slow_coeff" type="float" value="5"/>
    <property name="solid" type="bool" value="true"/>
    <property name="type" value="water"/>
   </properties>
  </object>
  <object id="1029" name="coll_water" type="collision" x="1072" y="224" width="16" height="16">
   <properties>
    <property name="slow_coeff" type="float" value="5"/>
    <property name="solid" type="bool" value="true"/>
    <property name="type" value="water"/>
   </properties>
  </object>
  <object id="1030" name="coll_water" type="collision" x="1088" y="224" width="16" height="16">
   <properties>
    <property name="slow_coeff" type="float" value="5"/>
    <property name="solid" type="bool" value="true"/>
    <property name="type" value="water"/>
   </properties>
  </object>
  <object id="1031" name="coll_water" type="collision" x="1104" y="224" width="16" height="16">
   <properties>
    <property name="slow_coeff" type="float" value="5"/>
    <property name="solid" type="bool" value="true"/>
    <property name="type" value="water"/>
   </properties>
  </object>
  <object id="1032" name="coll_water" type="collision" x="1120" y="224" width="16" height="16">
   <properties>
    <property name="slow_coeff" type="float" value="5"/>
    <property name="solid" type="bool" value="true"/>
    <property name="type" value="water"/>
   </properties>
  </object>
  <object id="1033" name="coll_water" type="collision" x="1136" y="224" width="16" height="16">
   <properties>
    <property name="slow_coeff" type="float" value="5"/>
    <property name="solid" type="bool" value="true"/>
    <property name="type" value="water"/>
   </properties>
  </object>
  <object id="1034" name="coll_water" type="collision" x="1152" y="224" width="16" height="16">
   <properties>
    <property name="slow_coeff" type="float" value="5"/>
    <property name="solid" type="bool" value="true"/>
    <property name="type" value="water"/>
   </properties>
  </object>
  <object id="1035" name="coll_water" type="collision" x="1168" y="224" width="16" height="16">
   <properties>
    <property name="slow_coeff" type="float" value="5"/>
    <property name="solid" type="bool" value="true"/>
    <property name="type" value="water"/>
   </properties>
  </object>
  <object id="1036" name="coll_water" type="collision" x="1184" y="224" width="16" height="16">
   <properties>
    <property name="slow_coeff" type="float" value="5"/>
    <property name="solid" type="bool" value="true"/>
    <property name="type" value="water"/>
   </properties>
  </object>
  <object id="1037" name="coll_water" type="collision" x="1200" y="224" width="16" height="16">
   <properties>
    <property name="slow_coeff" type="float" value="5"/>
    <property name="solid" type="bool" value="true"/>
    <property name="type" value="water"/>
   </properties>
  </object>
  <object id="1038" name="coll_water" type="collision" x="1216" y="224" width="16" height="16">
   <properties>
    <property name="slow_coeff" type="float" value="5"/>
    <property name="solid" type="bool" value="true"/>
    <property name="type" value="water"/>
   </properties>
  </object>
  <object id="1039" name="coll_water" type="collision" x="1232" y="224" width="16" height="16">
   <properties>
    <property name="slow_coeff" type="float" value="5"/>
    <property name="solid" type="bool" value="true"/>
    <property name="type" value="water"/>
   </properties>
  </object>
  <object id="1040" name="coll_water" type="collision" x="1248" y="224" width="16" height="16">
   <properties>
    <property name="slow_coeff" type="float" value="5"/>
    <property name="solid" type="bool" value="true"/>
    <property name="type" value="water"/>
   </properties>
  </object>
  <object id="1041" name="coll_water" type="collision" x="1264" y="224" width="16" height="16">
   <properties>
    <property name="slow_coeff" type="float" value="5"/>
    <property name="solid" type="bool" value="true"/>
    <property name="type" value="water"/>
   </properties>
  </object>
  <object id="1042" name="coll_water" type="collision" x="816" y="240" width="16" height="16">
   <properties>
    <property name="slow_coeff" type="float" value="5"/>
    <property name="solid" type="bool" value="true"/>
    <property name="type" value="water"/>
   </properties>
  </object>
  <object id="1043" name="coll_water" type="collision" x="832" y="240" width="16" height="16">
   <properties>
    <property name="slow_coeff" type="float" value="5"/>
    <property name="solid" type="bool" value="true"/>
    <property name="type" value="water"/>
   </properties>
  </object>
  <object id="1044" name="coll_water" type="collision" x="848" y="240" width="16" height="16">
   <properties>
    <property name="slow_coeff" type="float" value="5"/>
    <property name="solid" type="bool" value="true"/>
    <property name="type" value="water"/>
   </properties>
  </object>
  <object id="1045" name="coll_water" type="collision" x="864" y="240" width="16" height="16">
   <properties>
    <property name="slow_coeff" type="float" value="5"/>
    <property name="solid" type="bool" value="true"/>
    <property name="type" value="water"/>
   </properties>
  </object>
  <object id="1046" name="coll_water" type="collision" x="1184" y="240" width="16" height="16">
   <properties>
    <property name="slow_coeff" type="float" value="5"/>
    <property name="solid" type="bool" value="true"/>
    <property name="type" value="water"/>
   </properties>
  </object>
  <object id="1047" name="coll_water" type="collision" x="1200" y="240" width="16" height="16">
   <properties>
    <property name="slow_coeff" type="float" value="5"/>
    <property name="solid" type="bool" value="true"/>
    <property name="type" value="water"/>
   </properties>
  </object>
  <object id="1048" name="coll_water" type="collision" x="1216" y="240" width="16" height="16">
   <properties>
    <property name="slow_coeff" type="float" value="5"/>
    <property name="solid" type="bool" value="true"/>
    <property name="type" value="water"/>
   </properties>
  </object>
  <object id="1049" name="coll_water" type="collision" x="832" y="256" width="16" height="16">
   <properties>
    <property name="slow_coeff" type="float" value="5"/>
    <property name="solid" type="bool" value="true"/>
    <property name="type" value="water"/>
   </properties>
  </object>
  <object id="1050" name="coll_water" type="collision" x="848" y="256" width="16" height="16">
   <properties>
    <property name="slow_coeff" type="float" value="5"/>
    <property name="solid" type="bool" value="true"/>
    <property name="type" value="water"/>
   </properties>
  </object>
  <object id="1051" name="coll_water" type="collision" x="864" y="256" width="16" height="16">
   <properties>
    <property name="slow_coeff" type="float" value="5"/>
    <property name="solid" type="bool" value="true"/>
    <property name="type" value="water"/>
   </properties>
  </object>
  <object id="1052" name="coll_water" type="collision" x="832" y="272" width="16" height="16">
   <properties>
    <property name="slow_coeff" type="float" value="5"/>
    <property name="solid" type="bool" value="true"/>
    <property name="type" value="water"/>
   </properties>
  </object>
  <object id="1053" name="coll_water" type="collision" x="848" y="272" width="16" height="16">
   <properties>
    <property name="slow_coeff" type="float" value="5"/>
    <property name="solid" type="bool" value="true"/>
    <property name="type" value="water"/>
   </properties>
  </object>
  <object id="1054" name="coll_water" type="collision" x="864" y="272" width="16" height="16">
   <properties>
    <property name="slow_coeff" type="float" value="5"/>
    <property name="solid" type="bool" value="true"/>
    <property name="type" value="water"/>
   </properties>
  </object>
  <object id="1055" name="coll_water" type="collision" x="832" y="288" width="16" height="16">
   <properties>
    <property name="slow_coeff" type="float" value="5"/>
    <property name="solid" type="bool" value="true"/>
    <property name="type" value="water"/>
   </properties>
  </object>
  <object id="1056" name="coll_water" type="collision" x="848" y="288" width="16" height="16">
   <properties>
    <property name="slow_coeff" type="float" value="5"/>
    <property name="solid" type="bool" value="true"/>
    <property name="type" value="water"/>
   </properties>
  </object>
  <object id="1057" name="coll_water" type="collision" x="864" y="288" width="16" height="16">
   <properties>
    <property name="slow_coeff" type="float" value="5"/>
    <property name="solid" type="bool" value="true"/>
    <property name="type" value="water"/>
   </properties>
  </object>
  <object id="1058" name="coll_water" type="collision" x="832" y="304" width="16" height="16">
   <properties>
    <property name="slow_coeff" type="float" value="5"/>
    <property name="solid" type="bool" value="true"/>
    <property name="type" value="water"/>
   </properties>
  </object>
  <object id="1059" name="coll_water" type="collision" x="848" y="304" width="16" height="16">
   <properties>
    <property name="slow_coeff" type="float" value="5"/>
    <property name="solid" type="bool" value="true"/>
    <property name="type" value="water"/>
   </properties>
  </object>
  <object id="1060" name="coll_water" type="collision" x="864" y="304" width="16" height="16">
   <properties>
    <property name="slow_coeff" type="float" value="5"/>
    <property name="solid" type="bool" value="true"/>
    <property name="type" value="water"/>
   </properties>
  </object>
  <object id="1061" name="coll_water" type="collision" x="832" y="320" width="16" height="16">
   <properties>
    <property name="slow_coeff" type="float" value="5"/>
    <property name="solid" type="bool" value="true"/>
    <property name="type" value="water"/>
   </properties>
  </object>
  <object id="1062" name="coll_water" type="collision" x="848" y="320" width="16" height="16">
   <properties>
    <property name="slow_coeff" type="float" value="5"/>
    <property name="solid" type="bool" value="true"/>
    <property name="type" value="water"/>
   </properties>
  </object>
  <object id="1063" name="coll_water" type="collision" x="864" y="320" width="16" height="16">
   <properties>
    <property name="slow_coeff" type="float" value="5"/>
    <property name="solid" type="bool" value="true"/>
    <property name="type" value="water"/>
   </properties>
  </object>
  <object id="1064" name="coll_water" type="collision" x="880" y="120" width="8" height="8">
   <properties>
    <property name="slow_coeff" type="float" value="5"/>
    <property name="solid" type="bool" value="true"/>
    <property name="type" value="water"/>
   </properties>
  </object>
  <object id="1065" name="coll_water" type="collision" x="912" y="136" width="8" height="8">
   <properties>
    <property name="slow_coeff" type="float" value="5"/>
    <property name="solid" type="bool" value="true"/>
    <property name="type" value="water"/>
   </properties>
  </object>
  <object id="1066" name="coll_water" type="collision" x="1040" y="152" width="8" height="8">
   <properties>
    <property name="slow_coeff" type="float" value="5"/>
    <property name="solid" type="bool" value="true"/>
    <property name="type" value="water"/>
   </properties>
  </object>
  <object id="1067" name="coll_water" type="collision" x="1248" y="168" width="8" height="8">
   <properties>
    <property name="slow_coeff" type="float" value="5"/>
    <property name="solid" type="bool" value="true"/>
    <property name="type" value="water"/>
   </properties>
  </object>
  <object id="1068" name="coll_water" type="collision" x="816" y="16" width="16" height="16">
   <properties>
    <property name="slow_coeff" type="float" value="5"/>
    <property name="solid" type="bool" value="true"/>
    <property name="type" value="water"/>
   </properties>
  </object>
  <object id="1069" name="coll_water" type="collision" x="896" y="128" width="16" height="16">
   <properties>
    <property name="slow_coeff" type="float" value="5"/>
    <property name="solid" type="bool" value="true"/>
    <property name="type" value="water"/>
   </properties>
  </object>
  <object id="1070" name="coll_water" type="collision" x="928" y="144" width="16" height="16">
   <properties>
    <property name="slow_coeff" type="float" value="5"/>
    <property name="solid" type="bool" value="true"/>
    <property name="type" value="water"/>
   </properties>
  </object>
  <object id="1071" name="coll_water" type="collision" x="944" y="144" width="16" height="16">
   <properties>
    <property name="slow_coeff" type="float" value="5"/>
    <property name="solid" type="bool" value="true"/>
    <property name="type" value="water"/>
   </properties>
  </object>
  <object id="1072" name="coll_water" type="collision" x="960" y="144" width="16" height="16">
   <properties>
    <property name="slow_coeff" type="float" value="5"/>
    <property name="solid" type="bool" value="true"/>
    <property name="type" value="water"/>
   </properties>
  </object>
  <object id="1073" name="coll_water" type="collision" x="976" y="144" width="16" height="16">
   <properties>
    <property name="slow_coeff" type="float" value="5"/>
    <property name="solid" type="bool" value="true"/>
    <property name="type" value="water"/>
   </properties>
  </object>
  <object id="1074" name="coll_water" type="collision" x="992" y="144" width="16" height="16">
   <properties>
    <property name="slow_coeff" type="float" value="5"/>
    <property name="solid" type="bool" value="true"/>
    <property name="type" value="water"/>
   </properties>
  </object>
  <object id="1075" name="coll_water" type="collision" x="1008" y="144" width="16" height="16">
   <properties>
    <property name="slow_coeff" type="float" value="5"/>
    <property name="solid" type="bool" value="true"/>
    <property name="type" value="water"/>
   </properties>
  </object>
  <object id="1076" name="coll_water" type="collision" x="1024" y="144" width="16" height="16">
   <properties>
    <property name="slow_coeff" type="float" value="5"/>
    <property name="solid" type="bool" value="true"/>
    <property name="type" value="water"/>
   </properties>
  </object>
  <object id="1077" name="coll_water" type="collision" x="1056" y="160" width="16" height="16">
   <properties>
    <property name="slow_coeff" type="float" value="5"/>
    <property name="solid" type="bool" value="true"/>
    <property name="type" value="water"/>
   </properties>
  </object>
  <object id="1078" name="coll_water" type="collision" x="1072" y="160" width="16" height="16">
   <properties>
    <property name="slow_coeff" type="float" value="5"/>
    <property name="solid" type="bool" value="true"/>
    <property name="type" value="water"/>
   </properties>
  </object>
  <object id="1079" name="coll_water" type="collision" x="1088" y="160" width="16" height="16">
   <properties>
    <property name="slow_coeff" type="float" value="5"/>
    <property name="solid" type="bool" value="true"/>
    <property name="type" value="water"/>
   </properties>
  </object>
  <object id="1080" name="coll_water" type="collision" x="1104" y="160" width="16" height="16">
   <properties>
    <property name="slow_coeff" type="float" value="5"/>
    <property name="solid" type="bool" value="true"/>
    <property name="type" value="water"/>
   </properties>
  </object>
  <object id="1081" name="coll_water" type="collision" x="1120" y="160" width="16" height="16">
   <properties>
    <property name="slow_coeff" type="float" value="5"/>
    <property name="solid" type="bool" value="true"/>
    <property name="type" value="water"/>
   </properties>
  </object>
  <object id="1082" name="coll_water" type="collision" x="1136" y="160" width="16" height="16">
   <properties>
    <property name="slow_coeff" type="float" value="5"/>
    <property name="solid" type="bool" value="true"/>
    <property name="type" value="water"/>
   </properties>
  </object>
  <object id="1083" name="coll_water" type="collision" x="1152" y="160" width="16" height="16">
   <properties>
    <property name="slow_coeff" type="float" value="5"/>
    <property name="solid" type="bool" value="true"/>
    <property name="type" value="water"/>
   </properties>
  </object>
  <object id="1084" name="coll_water" type="collision" x="1168" y="160" width="16" height="16">
   <properties>
    <property name="slow_coeff" type="float" value="5"/>
    <property name="solid" type="bool" value="true"/>
    <property name="type" value="water"/>
   </properties>
  </object>
  <object id="1085" name="coll_water" type="collision" x="1184" y="160" width="16" height="16">
   <properties>
    <property name="slow_coeff" type="float" value="5"/>
    <property name="solid" type="bool" value="true"/>
    <property name="type" value="water"/>
   </properties>
  </object>
  <object id="1086" name="coll_water" type="collision" x="1200" y="160" width="16" height="16">
   <properties>
    <property name="slow_coeff" type="float" value="5"/>
    <property name="solid" type="bool" value="true"/>
    <property name="type" value="water"/>
   </properties>
  </object>
  <object id="1087" name="coll_water" type="collision" x="1216" y="160" width="16" height="16">
   <properties>
    <property name="slow_coeff" type="float" value="5"/>
    <property name="solid" type="bool" value="true"/>
    <property name="type" value="water"/>
   </properties>
  </object>
  <object id="1088" name="coll_water" type="collision" x="1232" y="160" width="16" height="16">
   <properties>
    <property name="slow_coeff" type="float" value="5"/>
    <property name="solid" type="bool" value="true"/>
    <property name="type" value="water"/>
   </properties>
  </object>
  <object id="1089" name="coll_water" type="collision" x="1264" y="176" width="16" height="16">
   <properties>
    <property name="slow_coeff" type="float" value="5"/>
    <property name="solid" type="bool" value="true"/>
    <property name="type" value="water"/>
   </properties>
  </object>
  <object id="1090" name="coll_water" type="collision" x="832" y="16" width="16" height="16">
   <properties>
    <property name="slow_coeff" type="float" value="5"/>
    <property name="solid" type="bool" value="true"/>
    <property name="type" value="water"/>
   </properties>
  </object>
 </objectgroup>
 <objectgroup id="6" name="91_npcs"/>
 <objectgroup id="7" name="92_objects"/>
 <objectgroup id="9" name="93_triggers"/>
 <objectgroup id="10" name="94_spawns"/>
 <objectgroup id="11" name="95_npc_paths"/>
</map>
